LauraSchoenhals/autogait_trial/WT_Levelwalk/WT_Mouse503_levelwalk_Run1-6DLC-JointTracking.csv
scorer,DLC_JointTracking,DLC_JointTracking,DLC_JointTracking,DLC_JointTracking,DLC_JointTracking,DLC_JointTracking,DLC_JointTracking,DLC_JointTracking,DLC_JointTracking,DLC_JointTracking,DLC_JointTracking,DLC_JointTracking,DLC_JointTracking,DLC_JointTracking,DLC_JointTracking,DLC_JointTracking,DLC_JointTracking,DLC_JointTracking
bodyparts,Crest,Crest,Crest,Hip,Hip,Hip,Knee,Knee,Knee,Ankle,Ankle,Ankle,Metatarsal,Metatarsal,Metatarsal,ToeTip,ToeTip,ToeTip
coords,x,y,likelihood,x,y,likelihood,x,y,likelihood,x,y,likelihood,x,y,likelihood,x,y,likelihood
0,5.065918,11.123657,1,-3.3111572,5.142212,1,3.39225673675537,-3.579270362854,1,-9.429932,-5.722046,1,-5.996704,-10.559082,1,-0.076293945,-12.329102,1
1,4.8828125,11.09314,1,-3.5552979,5.1574707,1,2.98219776153564,-3.68906140327454,1,-9.887695,-5.5236816,1,-6.6223145,-10.360718,1,-0.77819824,-12.313843,1
2,4.6539307,11.062622,1,-3.8452148,5.1116943,1,2.56609439849854,-3.82671189308167,1,-10.345459,-5.340576,1,-7.1258545,-10.345459,1,-1.4038086,-12.313843,1
3,4.3945312,11.001587,1,-4.1046143,5.1116943,1,2.18158340454102,-3.91513991355896,1,-10.757446,-5.1727295,1,-7.7056885,-10.238647,1,-1.9836426,-12.329102,1
4,4.0893555,10.925293,1,-4.3640137,5.1116943,1,1.73173522949219,-4.04482460021973,1,-11.230469,-5.0354004,1,-8.2092285,-10.101318,1,-2.5939941,-12.283325,1
5,3.90625,10.910034,1,-4.623413,5.050659,1,1.3718113899231,-4.1719913482666,1,-11.611938,-4.8217773,1,-8.7890625,-10.009766,1,-3.2043457,-12.313843,1
6,3.540039,10.818481,1,-4.852295,5.0811768,1,0.908089160919189,-4.28994750976563,1,-12.084961,-4.714966,1,-9.277344,-9.994507,1,-3.829956,-12.359619,1
7,3.3416748,10.803223,1,-5.1727295,5.065918,1,0.593073844909668,-4.30187320709229,1,-12.4053955,-4.501343,1,-9.780884,-9.872437,1,-4.425049,-12.329102,1
8,3.0975342,10.787964,1,-5.3710938,5.050659,1,0.16680383682251,-4.45363903045654,1,-12.832642,-4.333496,1,-10.314941,-9.811401,1,-5.004883,-12.329102,1
9,2.8076172,10.757446,1,-5.6915283,5.0354004,1,-0.203089237213135,-4.49754524230957,1,-13.198853,-4.1656494,1,-10.803223,-9.689331,1,-5.5999756,-12.34436,1
10,2.4871826,10.757446,1,-5.996704,5.0811768,1,-0.542630195617676,-4.47147083282471,1,-13.534546,-4.0130615,1,-11.3220215,-9.658813,1,-6.2408447,-12.313843,1
11,2.2583008,10.696411,1,-6.30188,5.050659,1,-1.01216554641724,-4.59397268295288,1,-13.99231,-3.8757324,1,-11.932373,-9.521484,1,-6.8969727,-12.359619,1
12,1.9989014,10.635376,1,-6.5612793,5.0201416,1,-1.46929168701172,-4.73032665252686,1,-14.434814,-3.7841797,1,-12.466431,-9.506226,1,-7.507324,-12.359619,1
13,1.6479492,10.559082,1,-6.8511963,4.974365,1,-1.77457189559937,-4.78411293029785,1,-14.724731,-3.6468506,1,-12.9852295,-9.490967,1,-8.132935,-12.374878,1
14,1.2817383,10.437012,1,-7.1411133,4.91333,1,-2.22624206542969,-4.92760705947876,1,-15.151978,-3.540039,1,-13.504028,-9.429932,1,-8.728027,-12.451172,1
15,0.9460449,10.3302,1,-7.4157715,4.776001,1,-2.58024501800537,-5.10416507720947,1,-15.472412,-3.4332275,1,-14.0686035,-9.429932,1,-9.399414,-12.512207,1
16,0.61035156,10.131836,1,-7.7209473,4.6539307,1,-3.00187158584595,-5.28238201141357,1,-15.853882,-3.326416,1,-14.587402,-9.32312,1,-10.055542,-12.542725,1
17,0.30517578,9.979248,1,-8.010864,4.547119,1,-3.24894714355469,-5.36873340606689,1,-16.067505,-3.2043457,1,-15.151978,-9.246826,1,-10.620117,-12.496948,1
18,0.091552734,9.872437,1,-8.285522,4.4555664,1,-3.74293661117554,-5.56266260147095,1,-16.51001,-3.112793,1,-15.655518,-9.231567,1,-11.3220215,-12.527466,1
19,-0.18310547,9.70459,1,-8.4991455,4.3182373,1,-3.97018718719482,-5.70615863800049,1,-16.693115,-3.036499,1,-16.12854,-9.140015,1,-11.917114,-12.573242,1
20,-0.30517578,9.628296,1,-8.743286,4.2419434,1,-4.36827516555786,-5.85059261322022,1,-17.028809,-2.89917,1,-16.647339,-9.140015,1,-12.512207,-12.588501,1
21,-0.62561035,9.475708,1,-8.911133,4.1503906,1,-4.7220630645752,-6.02072906494141,1,-17.318726,-2.8076172,1,-17.150879,-9.0789795,1,-13.122559,-12.588501,1
22,-0.7324219,9.414673,1,-9.048462,4.119873,1,-5.00100326538086,-6.10842561721802,1,-17.562866,-2.7618408,1,-17.63916,-9.002686,1,-13.717651,-12.588501,1
23,-0.8087158,9.338379,1,-9.170532,4.119873,1,-5.42861127853394,-6.22411251068115,1,-17.929077,-2.6550293,1,-18.066406,-8.880615,1,-14.282227,-12.619019,1
24,-0.93078613,9.292603,1,-9.292603,4.119873,1,-5.70647811889648,-6.27915191650391,1,-18.173218,-2.5939941,1,-18.508911,-8.834839,1,-14.892578,-12.619019,1
25,-1.0070801,9.262085,1,-9.384155,4.135132,1,-5.9933557510376,-6.3292121887207,1,-18.417358,-2.5024414,1,-18.981934,-8.773804,1,-15.472412,-12.588501,1
26,-1.1444092,9.246826,1,-9.597778,4.1046143,1,-6.20480966567993,-6.3590259552002,1,-18.600464,-2.4414062,1,-19.454956,-8.712769,1,-16.113281,-12.60376,1
27,-1.3122559,9.216309,1,-9.674072,4.135132,1,-6.68663930892944,-6.4514274597168,1,-19.02771,-2.3651123,1,-19.943237,-8.69751,1,-16.723633,-12.527466,1
28,-1.4953613,9.185791,1,-9.82666,4.1503906,1,-6.99039936065674,-6.47766780853272,1,-19.332886,-2.39563,1,-20.462036,-8.575439,1,-17.333984,-12.588501,1
29,-1.6021729,9.231567,1,-9.979248,4.1046143,1,-7.28239107131958,-6.55967092514038,1,-19.592285,-2.380371,1,-20.935059,-8.621216,1,-17.868042,-12.60376,1
30,-1.6784668,9.246826,1,-10.055542,4.1503906,1,-7.59153127670288,-6.57008743286133,1,-19.882202,-2.3345947,1,-21.377563,-8.575439,1,-18.52417,-12.60376,1
31,-1.7089844,9.32312,1,-10.101318,4.180908,1,-7.96125221252441,-6.60890769958496,1,-20.233154,-2.319336,1,-21.865845,-8.560181,1,-19.073486,-12.588501,1
32,-1.7700195,9.414673,1,-10.223389,4.333496,1,-8.13120460510254,-6.46570587158203,1,-20.431519,-2.2583008,1,-22.338867,-8.453369,1,-19.714355,-12.542725,1
33,-1.7700195,9.506226,1,-10.253906,4.4403076,1,-8.49691390991211,-6.41846609115601,1,-20.79773,-2.2125244,1,-22.81189,-8.422852,1,-20.339966,-12.557983,1
34,-1.7089844,9.689331,1,-10.3302,4.5776367,1,-8.79242706298828,-6.31434488296509,1,-21.118164,-2.1820068,1,-23.31543,-8.255005,1,-20.950317,-12.527466,1
35,-1.6784668,9.811401,1,-10.406494,4.79126,1,-9.11899757385254,-6.13313293457031,1,-21.484375,-2.1209717,1,-23.81897,-8.255005,1,-21.591187,-12.481689,1
36,-1.6784668,10.025024,1,-10.482788,4.974365,1,-9.41201400756836,-5.9733943939209,1,-21.78955,-1.9989014,1,-24.230957,-8.087158,1,-22.125244,-12.481689,1
37,-1.663208,10.116577,1,-10.574341,5.1116943,1,-9.75526332855225,-5.8577675819397,1,-22.140503,-1.9073486,1,-24.68872,-8.010864,1,-22.720337,-12.359619,1
38,-1.6479492,10.284424,1,-10.635376,5.279541,1,-9.99052429199219,-5.70154190063477,1,-22.415161,-1.876831,1,-25.177002,-7.9193115,1,-23.284912,-12.34436,1
39,-1.7089844,10.269165,1,-10.726929,5.2948,1,-10.4212799072266,-5.70095348358154,1,-22.827148,-1.8157959,1,-25.619507,-7.8430176,1,-23.880005,-12.268066,1
40,-1.6937256,10.345459,1,-10.787964,5.355835,1,-10.6100578308105,-5.64272785186768,1,-23.010254,-1.739502,1,-26.000977,-7.6293945,1,-24.414062,-12.207031,1
41,-1.663208,10.360718,1,-10.7421875,5.5236816,1,-10.8249750137329,-5.47600603103638,1,-23.239136,-1.6174316,1,-26.367188,-7.4920654,1,-24.963379,-12.1154785,1
42,-1.6479492,10.421753,1,-10.772705,5.584717,1,-10.976131439209,-5.41340160369873,1,-23.376465,-1.5106201,1,-26.733398,-7.30896,1,-25.421143,-11.993408,1
43,-1.5258789,10.513306,1,-10.71167,5.7525635,1,-11.0872240066528,-5.2410249710083,1,-23.498535,-1.373291,1,-27.069092,-7.2021484,1,-25.970459,-11.871338,1
44,-1.4190674,10.620117,1,-10.650635,5.9051514,1,-11.0667686462402,-5.08697414398193,1,-23.483276,-1.2359619,1,-27.236938,-6.881714,1,-26.45874,-11.688232,1
45,-1.2664795,10.7421875,1,-10.574341,5.996704,1,-10.9935512542725,-4.99530553817749,1,-23.376465,-1.0375977,1,-27.359009,-6.6833496,1,-26.855469,-11.581421,1
46,-1.1138916,10.787964,1,-10.437012,6.088257,1,-10.9505863189697,-4.89974784851074,1,-23.30017,-0.8392334,1,-27.389526,-6.454468,1,-27.191162,-11.428833,1
47,-0.9613037,10.83374,1,-10.253906,6.1798096,1,-10.7073173522949,-4.81084156036377,1,-23.05603,-0.74768066,1,-27.328491,-6.149292,1,-27.542114,-11.276245,1
48,-0.8544922,10.910034,1,-10.101318,6.2408447,1,-10.504674911499,-4.75175714492798,1,-22.81189,-0.5645752,1,-27.297974,-5.935669,1,-27.832031,-11.169434,1
49,-0.7171631,10.910034,1,-9.979248,6.3323975,1,-10.14626121521,-4.666335105896,1,-22.43042,-0.4119873,1,-27.130127,-5.6610107,1,-28.137207,-10.955811,1
50,-0.579834,10.940552,1,-9.811401,6.439209,1,-9.79968452453613,-4.5607852935791,1,-22.018433,-0.12207031,1,-26.809692,-5.3253174,1,-28.22876,-10.803223,1
51,-0.4119873,11.001587,1,-9.689331,6.439209,1,-9.26148223876953,-4.55246639251709,1,-21.30127,0.35095215,1,-26.046753,-4.8065186,1,-28.030396,-10.650635,1
52,-0.33569336,11.062622,1,-9.475708,6.591797,1,-8.50044536590576,-4.36488342285156,1,-20.324707,1.0375977,1,-24.871826,-4.3029785,1,-27.374268,-10.528564,1
53,-0.15258789,11.138916,1,-9.231567,6.8511963,1,-7.87823152542114,-4.06523609161377,1,-19.40918,1.9378662,1,-23.345947,-3.768921,1,-26.062012,-10.4522705,1
54,0.015258789,11.260986,1,-8.987427,7.1411133,1,-7.2156548500061,-3.71525907516479,1,-18.478394,2.7770996,1,-21.54541,-3.2196045,1,-24.108887,-10.284424,1
55,0.15258789,11.398315,1,-8.621216,7.507324,1,-6.60180330276489,-3.30572128295898,1,-17.700195,3.463745,1,-19.79065,-2.822876,1,-21.743774,-10.040283,1
56,0.38146973,11.520386,1,-8.331299,7.797241,1,-6.02297687530518,-2.9578332901001,1,-17.044067,3.9367676,1,-18.295288,-2.4719238,1,-19.638062,-9.82666,1
57,0.44250488,11.672974,1,-8.178711,7.965088,1,-5.53882694244385,-2.71344327926636,1,-16.616821,4.0893555,1,-17.196655,-2.2583008,1,-18.1427,-9.552002,1
58,0.5187988,11.764526,1,-8.026123,8.056641,1,-5.12407875061035,-2.55364418029785,1,-16.38794,3.9367676,1,-16.296387,-2.380371,1,-16.937256,-9.3688965,1
59,0.50354004,11.856079,1,-7.949829,8.041382,1,-4.67044258117676,-2.45840978622437,1,-16.235352,3.479004,1,-15.457153,-2.6855469,1,-15.457153,-9.460449,1
60,0.45776367,11.932373,1,-7.9040527,7.9193115,1,-4.28733730316162,-2.46911287307739,1,-16.113281,2.9296875,1,-14.61792,-3.112793,1,-13.809204,-9.719849,1
61,0.44250488,12.039185,1,-7.8582764,7.873535,1,-3.78567838668823,-2.3447790145874,1,-15.960693,2.2125244,1,-13.900757,-3.4942627,1,-12.329102,-9.887695,1
62,0.44250488,12.1154785,1,-7.8430176,7.659912,1,-3.54884004592895,-2.46728086471558,1,-15.930176,1.4953613,1,-13.305664,-3.9978027,1,-11.108398,-10.101318,1
63,0.39672852,12.176514,1,-7.8125,7.4920654,1,-3.15205478668213,-2.47188186645508,1,-15.74707,0.74768066,1,-12.649536,-4.501343,1,-10.009766,-10.314941,1
64,0.2746582,12.22229,1,-7.7819824,7.30896,1,-2.79331731796265,-2.49477529525757,1,-15.533447,0.091552734,1,-12.084961,-4.8065186,1,-8.911133,-10.345459,1
65,0.2593994,12.313843,1,-7.7667236,7.171631,1,-2.44018316268921,-2.45271253585815,1,-15.304565,-0.579834,1,-11.505127,-5.1574707,1,-8.026123,-10.437012,1
66,0.21362305,12.374878,1,-7.7209473,7.1258545,1,-2.16384029388428,-2.36722469329834,1,-15.106201,-1.1444092,1,-11.0321045,-5.3710938,1,-7.003784,-10.360718,1
67,0.15258789,12.512207,1,-7.659912,7.0343018,1,-1.84116744995117,-2.30069828033447,1,-14.831543,-1.8005371,1,-10.406494,-5.874634,1,-6.0272217,-10.3302,1
68,0.15258789,12.680054,1,-7.6446533,7.0343018,1,-1.48694896697998,-2.0806679725647,1,-14.480591,-2.4871826,1,-9.796143,-6.149292,1,-5.0354004,-10.437012,1
69,0.015258789,12.832642,1,-7.598877,6.9885254,1,-1.14457511901855,-1.9188871383667,1,-14.083862,-3.1738281,1,-9.140015,-6.5612793,1,-4.0283203,-10.513306,1
70,-0.091552734,13.046265,1,-7.6141357,6.9122314,1,-0.742334365844727,-1.67720007896423,1,-13.549805,-3.90625,1,-8.331299,-6.958008,1,-2.9144287,-10.4522705,1
71,-0.15258789,13.259888,1,-7.5683594,6.866455,1,-0.33912467956543,-1.42439293861389,1,-12.954712,-4.562378,1,-7.446289,-7.30896,1,-1.7700195,-10.284424,1
72,-0.32043457,13.504028,1,-7.5531006,6.8359375,1,0.0665216445922852,-1.09762120246887,1,-12.252808,-5.2490234,1,-6.5612793,-7.6141357,1,-0.5950928,-10.055542,1
73,-0.5645752,13.763428,1,-7.5531006,6.8511963,1,0.383196830749512,-0.765572547912598,1,-11.59668,-5.8135986,1,-5.706787,-7.8430176,1,0.45776367,-9.841919,1
74,-0.79345703,14.022827,1,-7.5531006,6.866455,1,0.684925079345703,-0.422915935516357,1,-10.940552,-6.2408447,1,-4.9438477,-7.965088,1,1.4038086,-9.597778,1
75,-1.0528564,14.251709,1,-7.5683594,6.866455,1,0.945216178894043,-0.099105715751648,1,-10.299683,-6.6223145,1,-4.2419434,-7.9803467,1,2.1972656,-9.277344,1
76,-1.2054443,14.541626,1,-7.583618,6.9122314,1,1.18035125732422,0.264461755752563,1,-9.689331,-6.866455,1,-3.5247803,-7.9345703,1,2.89917,-8.880615,1
77,-1.5411377,14.785767,1,-7.598877,6.9885254,1,1.41249084472656,0.680176377296448,1,-9.140015,-6.9122314,1,-2.960205,-7.8125,1,3.5858154,-8.483887,1
78,-1.8157959,15.045166,1,-7.659912,7.095337,1,1.59246063232422,1.14608478546143,1,-8.560181,-6.9732666,1,-2.3040771,-7.598877,1,4.2266846,-8.026123,1
79,-2.0141602,15.350342,1,-7.675171,7.2021484,1,1.76151657104492,1.54981029033661,1,-8.041382,-6.9885254,1,-1.8005371,-7.4310303,1,4.852295,-7.7056885,1
80,-2.1972656,15.670776,1,-7.675171,7.3394775,1,1.98662853240967,2.08118629455566,1,-7.4005127,-6.9122314,1,-1.1901855,-7.217407,1,5.569458,-7.2784424,1
81,-2.39563,16.021729,1,-7.659912,7.5531006,1,2.11935949325562,2.51664733886719,1,-6.6833496,-7.0495605,1,-0.32043457,-6.9885254,1,6.4086914,-6.7749023,1
82,-2.6550293,16.26587,1,-7.6446533,7.6904297,1,2.32176065444946,3.0352635383606,1,-5.7678223,-7.1411133,1,0.5340576,-6.866455,1,7.385254,-6.30188,1
83,-2.89917,16.51001,1,-7.6141357,7.797241,1,2.50577306747437,3.48592400550842,1,-4.6691895,-7.3547363,1,1.6326904,-6.790161,1,8.590698,-5.8288574,1
84,-3.0975342,16.799927,1,-7.5683594,7.9345703,1,2.65384435653687,3.87174320220947,1,-3.463745,-7.598877,1,2.7923584,-6.790161,1,9.887695,-5.5389404,1
85,-3.3721924,16.967773,1,-7.522583,7.949829,1,2.82023429870605,4.20468139648438,1,-2.319336,-7.736206,1,3.9978027,-6.881714,1,11.245728,-5.5236816,1
86,-3.616333,17.01355,1,-7.4310303,7.9956055,1,2.97995185852051,4.44434452056885,1,-1.2207031,-7.8582764,1,5.218506,-7.095337,1,12.634277,-5.844116,1
87,-3.692627,17.105103,1,-7.30896,7.9345703,1,3.14499425888062,4.51187419891357,1,-0.289917,-8.026123,1,6.2561035,-7.537842,1,13.702393,-6.5307617,1
88,-3.8604736,17.01355,1,-7.2784424,7.827759,1,3.22065758705139,4.54615592956543,1,0.48828125,-8.163452,1,7.2021484,-8.132935,1,14.633179,-7.4920654,1
89,-3.8757324,16.983032,1,-7.2784424,7.6904297,1,3.19970011711121,4.34251213073731,1,0.9918213,-8.468628,1,7.736206,-8.880615,1,15.167236,-8.544922,1
90,-3.9520264,16.815186,1,-7.30896,7.4920654,1,3.14486384391785,4.06897211074829,1,1.1291504,-8.773804,1,7.8430176,-9.735107,1,15.258789,-9.796143,1
91,-3.9520264,16.464233,1,-7.3547363,7.156372,1,3.02903485298157,3.52631711959839,1,0.77819824,-9.277344,1,7.4005127,-10.71167,1,14.6484375,-11.09314,1
92,-3.90625,15.991211,1,-7.4310303,6.729126,1,2.89556360244751,2.93947649002075,1,-0.061035156,-9.719849,1,6.439209,-11.260986,1,13.793945,-11.33728,1
93,-3.8604736,15.472412,1,-7.537842,6.2561035,1,2.79176950454712,2.47468328475952,1,-0.6713867,-10.055542,1,5.722046,-11.611938,1,13.168335,-11.459351,1
94,-3.982544,15.029907,1,-7.659912,5.783081,1,2.73997592926025,2.19946074485779,1,-1.2359619,-10.177612,1,5.0964355,-11.795044,1,12.527466,-11.535645,1
95,-4.0283203,14.678955,1,-7.7667236,5.3100586,1,2.70092916488647,1.9294900894165,1,-1.7089844,-10.299683,1,4.486084,-12.1154785,1,11.901855,-11.688232,1
96,-4.1503906,14.343262,1,-7.873535,4.9438477,1,2.60255146026611,1.58950710296631,1,-2.2583008,-10.467529,1,3.9367676,-12.374878,1,11.352539,-11.779785,1
97,-4.180908,14.083862,1,-8.010864,4.5928955,1,2.49339866638184,1.32785773277283,1,-2.8381348,-10.528564,1,3.3721924,-12.619019,1,10.71167,-11.886597,1
98,-4.3029785,13.748169,1,-8.117676,4.272461,1,2.40206241607666,1.05763149261475,1,-3.3721924,-10.5896,1,2.7313232,-12.680054,1,10.101318,-11.901855,1
99,-4.4403076,13.48877,1,-8.285522,3.9978027,1,2.24977731704712,0.834347724914551,1,-3.982544,-10.574341,1,2.1209717,-12.6953125,1,9.475708,-11.932373,1
100,-4.5318604,13.259888,1,-8.483887,3.829956,1,2.04205656051636,0.635505437850952,1,-4.5928955,-10.543823,1,1.373291,-12.741089,1,8.804321,-11.917114,1
101,-4.6539307,13.1073,1,-8.651733,3.7231445,1,1.81041765213013,0.325589895248413,1,-5.203247,-10.620117,1,0.93078613,-12.802124,1,8.148193,-11.901855,1
102,-4.7302246,12.893677,1,-8.850098,3.6010742,1,1.57079029083252,0.0789870023727417,1,-5.8135986,-10.620117,1,0.22888184,-12.817383,1,7.537842,-11.917114,1
103,-4.837036,12.756348,1,-9.140015,3.4942627,1,1.25370597839355,-0.107206344604492,1,-6.3934326,-10.620117,1,-0.36621094,-12.832642,1,6.8969727,-11.993408,1
104,-4.9438477,12.634277,1,-9.32312,3.3874512,1,1.00483226776123,-0.398500323295593,1,-6.9885254,-10.650635,1,-1.083374,-12.863159,1,6.2408447,-11.993408,1
105,-5.004883,12.512207,1,-9.552002,3.3569336,1,0.692869186401367,-0.648388981819153,1,-7.6293945,-10.635376,1,-1.7242432,-12.8479,1,5.584717,-12.039185,1
106,-5.0964355,12.329102,1,-9.82666,3.2806396,1,0.37982177734375,-0.821522116661072,1,-8.163452,-10.620117,1,-2.243042,-12.878418,1,4.9438477,-12.039185,1
107,-5.1116943,12.207031,1,-10.055542,3.1433105,1,0.0945024490356445,-1.09657049179077,1,-8.81958,-10.559082,1,-2.9144287,-12.863159,1,4.3182373,-12.023926,1
108,-5.2490234,12.008667,1,-10.299683,3.1433105,1,-0.262592315673828,-1.35744619369507,1,-9.384155,-10.620117,1,-3.5705566,-12.8479,1,3.7078857,-12.069702,1
109,-5.3100586,11.917114,1,-10.604858,3.112793,1,-0.640583992004395,-1.54695439338684,1,-10.009766,-10.559082,1,-4.180908,-12.817383,1,3.1585693,-12.1154785,1
110,-5.4626465,11.764526,1,-10.864258,3.0517578,1,-0.969159126281738,-1.75313889980316,1,-10.574341,-10.513306,1,-4.7302246,-12.786865,1,2.456665,-12.1154785,1
111,-5.508423,11.749268,1,-11.138916,2.9907227,1,-1.3142614364624,-1.95661795139313,1,-11.154175,-10.4522705,1,-5.2948,-12.802124,1,1.9226074,-12.161255,1
112,-5.6610107,11.566162,1,-11.383057,2.9907227,1,-1.64235019683838,-2.11991691589355,1,-11.734009,-10.314941,1,-5.9661865,-12.72583,1,1.2054443,-12.130737,1
113,-5.8135986,11.520386,1,-11.642456,2.9907227,1,-2.01007556915283,-2.32126998901367,1,-12.34436,-10.20813,1,-6.6223145,-12.680054,1,0.64086914,-12.145996,1
114,-5.9509277,11.383057,1,-11.932373,3.0517578,1,-2.41522216796875,-2.46402549743652,1,-12.924194,-10.116577,1,-7.080078,-12.649536,1,0,-12.145996,1
115,-6.0577393,11.33728,1,-12.313843,3.0670166,1,-2.86441802978516,-2.56400203704834,1,-13.48877,-10.055542,1,-7.8582764,-12.619019,1,-0.64086914,-12.161255,1
116,-6.1950684,11.199951,1,-12.557983,3.0822754,1,-3.23262977600098,-2.75191450119019,1,-14.099121,-9.887695,1,-8.422852,-12.527466,1,-1.2664795,-12.130737,1
117,-6.439209,11.138916,1,-12.878418,3.0059814,1,-3.64057922363281,-2.96581363677979,1,-14.663696,-9.857178,1,-9.140015,-12.542725,1,-1.9378662,-12.176514,1
118,-6.6375732,11.001587,1,-13.183594,3.112793,1,-4.10976791381836,-3.10538101196289,1,-15.274048,-9.765625,1,-9.643555,-12.466431,1,-2.5177002,-12.145996,1
119,-6.744385,10.879517,1,-13.504028,3.0975342,1,-4.5320348739624,-3.26668882369995,1,-15.869141,-9.628296,1,-10.284424,-12.390137,1,-3.0822754,-12.176514,1
120,-7.003784,10.83374,1,-13.839722,2.9754639,1,-4.9318208694458,-3.47816205024719,1,-16.433716,-9.536743,1,-10.879517,-12.34436,1,-3.7841797,-12.176514,1
121,-7.1411133,10.696411,1,-14.099121,2.9907227,1,-5.28486824035645,-3.59023070335388,1,-16.952515,-9.32312,1,-11.474609,-12.298584,1,-4.348755,-12.176514,1
122,-7.247925,10.543823,1,-14.434814,2.9907227,1,-5.74876308441162,-3.75853729248047,1,-17.547607,-9.216309,1,-12.084961,-12.207031,1,-5.065918,-12.191772,1
123,-7.4157715,10.391235,1,-14.709473,3.0059814,1,-6.15128326416016,-3.9046905040741,1,-18.096924,-9.033203,1,-12.649536,-12.161255,1,-5.722046,-12.191772,1
124,-7.537842,10.284424,1,-14.953613,3.0059814,1,-6.54477882385254,-4.08566761016846,1,-18.64624,-8.834839,1,-13.366699,-12.10022,1,-6.30188,-12.237549,1
125,-7.6141357,10.192871,1,-15.197754,3.0212402,1,-6.91744899749756,-4.22006893157959,1,-19.14978,-8.621216,1,-13.946533,-12.008667,1,-6.92749,-12.237549,1
126,-7.751465,10.101318,1,-15.411377,3.0822754,1,-7.30281639099121,-4.35084342956543,1,-19.66858,-8.361816,1,-14.511108,-11.932373,1,-7.537842,-12.298584,1
127,-7.9345703,10.025024,1,-15.701294,3.189087,1,-7.71256637573242,-4.3726749420166,1,-20.15686,-8.132935,1,-15.12146,-11.810303,1,-8.102417,-12.313843,1
128,-7.9345703,10.009766,1,-15.914917,3.250122,1,-8.1063985824585,-4.49759006500244,1,-20.6604,-7.873535,1,-15.716553,-11.688232,1,-8.69751,-12.313843,1
129,-8.056641,9.918213,1,-16.052246,3.3721924,1,-8.48794364929199,-4.61412811279297,1,-21.133423,-7.6293945,1,-16.281128,-11.535645,1,-9.3688965,-12.313843,1
130,-8.163452,9.857178,1,-16.26587,3.4484863,1,-8.82317161560059,-4.65128087997437,1,-21.54541,-7.3242188,1,-16.87622,-11.383057,1,-9.994507,-12.283325,1
131,-8.224487,9.857178,1,-16.448975,3.5247803,1,-9.19169616699219,-4.74153232574463,1,-21.987915,-7.0343018,1,-17.440796,-11.260986,1,-10.635376,-12.359619,1
132,-8.361816,9.811401,1,-16.601562,3.616333,1,-9.49431610107422,-4.77932453155518,1,-22.354126,-6.6833496,1,-18.035889,-11.062622,1,-11.398315,-12.359619,1
133,-8.361816,9.811401,1,-16.723633,3.7078857,1,-9.8369083404541,-4.86958694458008,1,-22.750854,-6.362915,1,-18.64624,-10.803223,1,-11.932373,-12.390137,1
134,-8.377075,9.780884,1,-16.830444,3.8146973,1,-10.0878143310547,-4.87650156021118,1,-23.040771,-5.9814453,1,-19.058228,-10.681152,1,-12.496948,-12.359619,1
135,-8.407593,9.70459,1,-16.87622,3.8909912,1,-10.3927516937256,-4.99521350860596,1,-23.376465,-5.645752,1,-19.546509,-10.513306,1,-13.1073,-12.4053955,1
136,-8.346558,9.628296,1,-16.937256,3.9520264,1,-10.6680488586426,-5.08661556243897,1,-23.666382,-5.2948,1,-20.03479,-10.314941,1,-13.809204,-12.359619,1
137,-8.346558,9.552002,1,-16.860962,4.058838,1,-10.9129371643066,-5.19432210922241,1,-23.910522,-4.9438477,1,-20.523071,-10.08606,1,-14.373779,-12.420654,1
138,-8.285522,9.475708,1,-16.906738,4.119873,1,-11.1526155471802,-5.25509643554688,1,-24.139404,-4.6691895,1,-21.011353,-9.887695,1,-14.968872,-12.359619,1
139,-8.178711,9.3688965,1,-16.89148,4.1503906,1,-11.3696451187134,-5.36324977874756,1,-24.32251,-4.257202,1,-21.392822,-9.719849,1,-15.518188,-12.359619,1
140,-8.132935,9.307861,1,-16.89148,4.1656494,1,-11.5587882995605,-5.45528697967529,1,-24.475098,-3.982544,1,-21.820068,-9.567261,1,-16.174316,-12.34436,1
141,-8.056641,9.20105,1,-16.76941,4.257202,1,-11.7754249572754,-5.54382467269897,1,-24.642944,-3.692627,1,-22.247314,-9.384155,1,-16.723633,-12.313843,1
142,-8.010864,9.140015,1,-16.738892,4.2266846,1,-12.035400390625,-5.71701431274414,1,-24.841309,-3.479004,1,-22.67456,-9.216309,1,-17.37976,-12.34436,1
143,-8.056641,9.094238,1,-16.677856,4.2419434,1,-12.2320327758789,-5.81959915161133,1,-24.978638,-3.2653809,1,-23.05603,-9.140015,1,-17.8833,-12.329102,1
144,-8.056641,9.109497,1,-16.677856,4.257202,1,-12.446249961853,-5.89629554748535,1,-25.131226,-3.0517578,1,-23.452759,-8.94165,1,-18.508911,-12.329102,1
145,-7.949829,9.170532,1,-16.616821,4.3792725,1,-12.7115802764893,-5.90416574478149,1,-25.344849,-2.8381348,1,-23.910522,-8.895874,1,-19.119263,-12.329102,1
146,-8.041382,9.231567,1,-16.586304,4.425049,1,-12.9333915710449,-5.95070362091064,1,-25.512695,-2.670288,1,-24.32251,-8.804321,1,-19.760132,-12.298584,1
147,-7.888794,9.399414,1,-16.540527,4.5928955,1,-13.0932998657227,-5.8529953956604,1,-25.650024,-2.4871826,1,-24.719238,-8.712769,1,-20.355225,-12.313843,1
148,-7.7056885,9.58252,1,-16.403198,4.7302246,1,-13.3107881546021,-5.82614803314209,1,-25.83313,-2.3345947,1,-25.115967,-8.621216,1,-20.904541,-12.283325,1
149,-7.6293945,9.811401,1,-16.357422,5.004883,1,-13.443696975708,-5.60220050811768,1,-25.985718,-2.1820068,1,-25.527954,-8.4991455,1,-21.469116,-12.237549,1
150,-7.446289,10.116577,1,-16.37268,5.2948,1,-13.7026500701904,-5.37623310089111,1,-26.260376,-2.0141602,1,-25.970459,-8.407593,1,-22.140503,-12.22229,1
151,-7.4310303,10.345459,1,-16.311646,5.508423,1,-13.8113021850586,-5.20363998413086,1,-26.382446,-1.8920898,1,-26.367188,-8.300781,1,-22.735596,-12.161255,1
152,-7.293701,10.513306,1,-16.235352,5.645752,1,-13.8358526229858,-5.08935070037842,1,-26.412964,-1.8005371,1,-26.779175,-8.285522,1,-23.376465,-12.161255,1
153,-7.1868896,10.604858,1,-16.12854,5.706787,1,-14.0005321502686,-5.08541297912598,1,-26.550293,-1.6937256,1,-27.22168,-8.102417,1,-23.895264,-12.191772,1
154,-7.003784,10.574341,1,-15.914917,5.783081,1,-14.1008605957031,-5.06630563735962,1,-26.626587,-1.5869141,1,-27.557373,-8.087158,1,-24.505615,-12.10022,1
155,-6.866455,10.513306,1,-15.869141,5.783081,1,-14.23801612854,-5.09531307220459,1,-26.70288,-1.4038086,1,-27.96936,-7.873535,1,-25.177002,-12.084961,1
156,-6.6986084,10.467529,1,-15.731812,5.79834,1,-14.3403415679932,-5.11329746246338,1,-26.748657,-1.2359619,1,-28.366089,-7.6293945,1,-25.741577,-11.947632,1
157,-6.5612793,10.4522705,1,-15.594482,5.8288574,1,-14.5019874572754,-5.11675643920898,1,-26.855469,-1.0681152,1,-28.701782,-7.446289,1,-26.275635,-11.856079,1
158,-6.439209,10.4522705,1,-15.50293,5.874634,1,-14.525933265686,-5.08189296722412,1,-26.84021,-0.91552734,1,-28.945923,-7.2021484,1,-26.794434,-11.779785,1
159,-6.2713623,10.406494,1,-15.350342,5.8288574,1,-14.4915580749512,-5.13756799697876,1,-26.733398,-0.76293945,1,-29.129028,-6.942749,1,-27.22168,-11.627197,1
160,-6.134033,10.406494,1,-15.182495,5.8135986,1,-14.3887586593628,-5.15772676467896,1,-26.550293,-0.5645752,1,-29.251099,-6.744385,1,-27.694702,-11.489868,1
161,-5.9661865,10.437012,1,-15.045166,5.8898926,1,-14.1774244308472,-5.07582759857178,1,-26.306152,-0.39672852,1,-29.342651,-6.454468,1,-28.09143,-11.352539,1
162,-5.722046,10.467529,1,-14.816284,5.9814453,1,-13.8636665344238,-4.97722721099854,1,-26.000977,-0.32043457,1,-29.373169,-6.2561035,1,-28.48816,-11.245728,1
163,-5.5389404,10.498047,1,-14.572144,5.9509277,1,-13.5834980010986,-5.004554271698,1,-25.680542,-0.24414062,1,-29.388428,-6.0424805,1,-28.884888,-11.077881,1
164,-5.355835,10.559082,1,-14.343262,6.0577393,1,-13.2286520004272,-4.88564491271973,1,-25.360107,-0.21362305,1,-29.327393,-5.8898926,1,-29.266357,-11.016846,1
165,-5.1574707,10.650635,1,-14.099121,6.1187744,1,-12.800929069519,-4.80435180664063,1,-24.963379,-0.21362305,1,-29.281616,-5.6610107,1,-29.769897,-10.894775,1
166,-4.91333,10.7421875,1,-13.824463,6.1950684,1,-12.43630027771,-4.71698951721191,1,-24.597168,-0.12207031,1,-29.159546,-5.432129,1,-30.136108,-10.757446,1
167,-4.6844482,10.894775,1,-13.61084,6.3476562,1,-11.9270458221436,-4.52270936965942,1,-24.06311,0.1373291,1,-28.7323,-5.004883,1,-30.303955,-10.513306,1
168,-4.501343,11.077881,1,-13.397217,6.500244,1,-11.3071250915527,-4.29936218261719,1,-23.208618,0.93078613,1,-27.648926,-4.4403076,1,-30.029297,-10.360718,1
169,-4.470825,11.306763,1,-13.153076,6.9122314,1,-10.5998153686523,-3.7873420715332,1,-22.30835,1.8615723,1,-26.19934,-3.8909912,1,-28.961182,-10.253906,1
170,-4.2419434,11.581421,1,-12.893677,7.4005127,1,-10.0793361663818,-3.23337078094482,1,-21.606445,2.7770996,1,-24.505615,-3.3569336,1,-27.08435,-10.192871,1
171,-4.043579,11.856079,1,-12.619019,7.8582764,1,-9.52694702148438,-2.6981954574585,1,-20.965576,3.479004,1,-22.79663,-2.8686523,1,-24.673462,-10.101318,1
172,-3.8757324,12.130737,1,-12.374878,8.224487,1,-9.10664367675781,-2.27878093719482,1,-20.507812,3.9672852,1,-21.392822,-2.380371,1,-22.277832,-9.902954,1
173,-3.7384033,12.374878,1,-12.191772,8.514404,1,-8.71151542663574,-1.9205265045166,1,-20.141602,4.272461,1,-20.263672,-2.029419,1,-20.492554,-9.475708,1
174,-3.7231445,12.557983,1,-12.10022,8.712769,1,-8.48662757873535,-1.67674255371094,1,-19.973755,4.40979,1,-19.454956,-1.739502,1,-19.40918,-9.033203,1
175,-3.6621094,12.786865,1,-11.978149,8.911133,1,-8.09139633178711,-1.37930774688721,1,-19.805908,4.257202,1,-18.661499,-1.8005371,1,-18.249512,-8.81958,1
176,-3.6621094,13.015747,1,-11.917114,8.956909,1,-7.59666061401367,-1.15910243988037,1,-19.607544,3.8146973,1,-17.852783,-2.090454,1,-16.662598,-8.834839,1
177,-3.6773682,13.244629,1,-11.917114,8.94165,1,-7.21625137329102,-1.00329256057739,1,-19.500732,3.250122,1,-16.983032,-2.3498535,1,-14.862061,-8.773804,1
178,-3.7231445,13.458252,1,-11.917114,8.834839,1,-6.75241374969482,-0.877311706542969,1,-19.317627,2.456665,1,-16.235352,-2.7313232,1,-13.412476,-8.758545,1
179,-3.7231445,13.687134,1,-11.84082,8.773804,1,-6.30248641967773,-0.730240345001221,1,-19.088745,1.6174316,1,-15.472412,-3.2806396,1,-12.1154785,-8.804321,1
180,-3.6621094,13.916016,1,-11.749268,8.651733,1,-5.86704683303833,-0.643398284912109,1,-18.798828,0.6866455,1,-14.6484375,-3.8146973,1,-10.772705,-8.94165,1
181,-3.7231445,14.160156,1,-11.672974,8.529663,1,-5.38827514648438,-0.498213291168213,1,-18.38684,-0.30517578,1,-13.702393,-4.348755,1,-9.277344,-8.926392,1
182,-3.7384033,14.404297,1,-11.581421,8.514404,1,-4.77261257171631,-0.12504768371582,1,-17.715454,-1.3427734,1,-12.619019,-4.852295,1,-7.675171,-8.804321,1
183,-3.7994385,14.678955,1,-11.413574,8.392334,1,-4.19611263275147,0.0912361145019531,1,-16.967773,-2.3345947,1,-11.505127,-5.3863525,1,-6.1187744,-8.682251,1
184,-3.8909912,14.9383545,1,-11.306763,8.453369,1,-3.5967903137207,0.607584476470947,1,-16.00647,-3.2653809,1,-10.345459,-5.7678223,1,-4.5776367,-8.4991455,1
185,-3.9367676,15.289307,1,-11.154175,8.377075,1,-2.9627742767334,1.03534746170044,1,-14.923096,-4.058838,1,-9.063721,-6.0272217,1,-2.9449463,-8.163452,1
186,-3.9367676,15.655518,1,-10.894775,8.43811,1,-2.32841205596924,1.53757166862488,1,-13.717651,-4.7302246,1,-7.583618,-6.225586,1,-1.1444092,-7.7209473,1
187,-4.0130615,16.052246,1,-10.681152,8.514404,1,-1.71660995483398,2.13969039916992,1,-12.359619,-5.3253174,1,-6.2408447,-6.3934326,1,0.5950928,-7.171631,1
188,-3.9978027,16.540527,1,-10.4522705,8.621216,1,-1.15537357330322,2.74178576469421,1,-10.848999,-5.92041,1,-4.6691895,-6.515503,1,2.3345947,-6.6375732,1
189,-4.1503906,16.906738,1,-10.223389,8.651733,1,-0.624778747558594,3.27896070480347,1,-9.155273,-6.5307617,1,-2.9144287,-6.668091,1,4.196167,-6.225586,1
190,-4.2266846,17.37976,1,-10.055542,8.758545,1,-0.23715877532959,3.79877281188965,1,-7.4005127,-7.0495605,1,-1.0986328,-6.942749,1,6.149292,-6.0272217,1
191,-4.3792725,17.593384,1,-9.857178,8.773804,1,0.143745422363281,4.19324254989624,1,-5.6152344,-7.461548,1,0.6866455,-7.293701,1,7.888794,-6.1187744,1
192,-4.5318604,17.807007,1,-9.70459,8.743286,1,0.410249710083008,4.42009210586548,1,-4.0740967,-7.7819824,1,2.380371,-7.6904297,1,9.643555,-6.4849854,1
193,-4.6539307,17.990112,1,-9.521484,8.682251,1,0.663930416107178,4.52805852890015,1,-2.822876,-7.9956055,1,3.7078857,-8.224487,1,11.001587,-7.1411133,1
194,-4.79126,17.929077,1,-9.429932,8.69751,1,0.782345771789551,4.6097993850708,1,-1.9378662,-8.102417,1,4.623413,-8.773804,1,11.901855,-8.071899,1
195,-4.8217773,17.929077,1,-9.414673,8.682251,1,0.767980098724365,4.52129173278809,1,-1.4648438,-8.285522,1,5.1116943,-9.490967,1,12.359619,-9.185791,1
196,-4.8065186,17.8833,1,-9.460449,8.636475,1,0.65883207321167,4.32368469238281,1,-1.4801025,-8.4991455,1,5.004883,-10.20813,1,12.130737,-10.375977,1
197,-4.7454834,17.654419,1,-9.475708,8.514404,1,0.552833557128906,3.99462985992432,1,-1.9683838,-8.758545,1,4.470825,-10.803223,1,11.489868,-10.986328,1
198,-4.7454834,17.364502,1,-9.58252,8.270264,1,0.39484691619873,3.63861513137817,1,-2.7008057,-8.987427,1,3.5705566,-11.154175,1,10.818481,-11.154175,1
199,-4.79126,16.952515,1,-9.750366,7.965088,1,0.236181735992432,3.353271484375,1,-3.250122,-9.170532,1,2.8381348,-11.3220215,1,10.147095,-11.230469,1
200,-4.852295,16.63208,1,-9.918213,7.6141357,1,0.10105037689209,3.07383155822754,1,-3.8604736,-9.307861,1,2.2583008,-11.474609,1,9.552002,-11.291504,1
201,-5.0201416,16.235352,1,-10.116577,7.3242188,1,-0.0506687164306641,2.88828921318054,1,-4.425049,-9.353638,1,1.6174316,-11.566162,1,8.895874,-11.3220215,1
202,-5.1116943,15.975952,1,-10.284424,7.0648193,1,-0.196700572967529,2.67872309684753,1,-5.004883,-9.399414,1,1.0223389,-11.657715,1,8.31604,-11.33728,1
203,-5.1574707,15.74707,1,-10.437012,6.7596436,1,-0.303818702697754,2.4796462059021,1,-5.584717,-9.399414,1,0.32043457,-11.672974,1,7.6446533,-11.367798,1
204,-5.203247,15.411377,1,-10.513306,6.454468,1,-0.35643482208252,2.23096752166748,1,-6.164551,-9.399414,1,-0.32043457,-11.749268,1,7.0495605,-11.413574,1
205,-5.1574707,15.014648,1,-10.574341,6.149292,1,-0.457143783569336,1.83161664009094,1,-6.790161,-9.521484,1,-0.90026855,-11.886597,1,6.4086914,-11.398315,1
206,-5.050659,14.770508,1,-10.5896,5.8135986,1,-0.475013732910156,1.48980891704559,1,-7.385254,-9.521484,1,-1.5563965,-11.978149,1,5.7678223,-11.474609,1
207,-5.004883,14.404297,1,-10.635376,5.5236816,1,-0.577828407287598,1.06882584095001,1,-7.965088,-9.628296,1,-2.090454,-12.008667,1,5.0964355,-11.520386,1
208,-4.9438477,14.0686035,1,-10.681152,5.3253174,1,-0.674624443054199,0.757010579109192,1,-8.514404,-9.613037,1,-2.7770996,-12.084961,1,4.5318604,-11.581421,1
209,-4.91333,13.763428,1,-10.726929,5.0811768,1,-0.73351001739502,0.484267473220825,1,-9.033203,-9.521484,1,-3.3721924,-12.1154785,1,3.9520264,-11.59668,1
210,-4.8675537,13.458252,1,-10.864258,4.8675537,1,-0.906188011169434,0.194562613964081,1,-9.628296,-9.44519,1,-3.9367676,-12.1154785,1,3.3721924,-11.59668,1
211,-4.8980713,13.137817,1,-10.955811,4.5776367,1,-1.05453681945801,-0.214524686336517,1,-10.177612,-9.475708,1,-4.5928955,-12.10022,1,2.7313232,-11.59668,1
212,-4.8828125,12.878418,1,-11.062622,4.3945312,1,-1.22586727142334,-0.528704106807709,1,-10.757446,-9.3688965,1,-5.126953,-12.10022,1,2.0446777,-11.611938,1
213,-4.8675537,12.542725,1,-11.245728,4.196167,1,-1.47390365600586,-0.854719698429108,1,-11.33728,-9.32312,1,-5.7678223,-12.069702,1,1.4343262,-11.59668,1
214,-4.8980713,12.268066,1,-11.383057,4.0130615,1,-1.69339561462402,-1.19371092319489,1,-11.886597,-9.262085,1,-6.3323975,-12.054443,1,0.8544922,-11.627197,1
215,-4.8828125,11.993408,1,-11.535645,3.9215088,1,-1.93576145172119,-1.44898986816406,1,-12.4053955,-9.155273,1,-6.958008,-12.023926,1,0.16784668,-11.642456,1
216,-4.9438477,11.764526,1,-11.71875,3.8146973,1,-2.23844051361084,-1.76416647434235,1,-12.9852295,-9.0789795,1,-7.4920654,-12.054443,1,-0.33569336,-11.642456,1
217,-5.0354004,11.535645,1,-11.871338,3.829956,1,-2.54727363586426,-2.00629425048828,1,-13.504028,-9.002686,1,-8.178711,-11.978149,1,-0.9918213,-11.688232,1
218,-5.065918,11.33728,1,-12.069702,3.7384033,1,-2.80698776245117,-2.19473457336426,1,-13.99231,-8.81958,1,-8.621216,-11.947632,1,-1.5563965,-11.734009,1
219,-5.004883,11.230469,1,-12.207031,3.7231445,1,-3.08403778076172,-2.42266464233398,1,-14.511108,-8.621216,1,-9.338379,-11.84082,1,-2.1972656,-11.734009,1
220,-4.9591064,11.09314,1,-12.283325,3.768921,1,-3.35574817657471,-2.65745902061462,1,-15.029907,-8.377075,1,-9.841919,-11.734009,1,-2.8076172,-11.734009,1
221,-4.8828125,11.001587,1,-12.390137,3.8604736,1,-3.65255355834961,-2.82193827629089,1,-15.518188,-8.132935,1,-10.482788,-11.59668,1,-3.479004,-11.734009,1
222,-4.8217773,10.940552,1,-12.496948,3.9978027,1,-3.98497867584229,-2.96971893310547,1,-16.036987,-7.8430176,1,-11.001587,-11.535645,1,-4.0283203,-11.764526,1
223,-4.8217773,10.925293,1,-12.664795,4.135132,1,-4.32376575469971,-3.03614735603333,1,-16.479492,-7.6446533,1,-11.550903,-11.367798,1,-4.7302246,-11.764526,1
224,-4.8828125,10.971069,1,-12.802124,4.3182373,1,-4.69423770904541,-3.11561679840088,1,-16.967773,-7.4005127,1,-12.1154785,-11.21521,1,-5.264282,-11.749268,1
225,-4.852295,10.986328,1,-12.954712,4.486084,1,-4.98152256011963,-3.09205913543701,1,-17.364502,-7.0495605,1,-12.72583,-11.077881,1,-5.935669,-11.734009,1
226,-4.928589,11.077881,1,-13.031006,4.6844482,1,-5.25360202789307,-3.09449648857117,1,-17.730713,-6.744385,1,-13.259888,-10.894775,1,-6.5460205,-11.779785,1
227,-4.8065186,11.184692,1,-13.168335,4.8828125,1,-5.59214591979981,-3.09223318099976,1,-18.157959,-6.42395,1,-13.763428,-10.696411,1,-7.156372,-11.749268,1
228,-4.91333,11.276245,1,-13.244629,5.1574707,1,-5.92235851287842,-3.05132699012756,1,-18.569946,-6.0577393,1,-14.3585205,-10.513306,1,-7.8582764,-11.749268,1
229,-4.974365,11.352539,1,-13.366699,5.2948,1,-6.17559242248535,-3.02914047241211,1,-18.89038,-5.7373047,1,-14.831543,-10.360718,1,-8.468628,-11.795044,1
230,-5.0354004,11.444092,1,-13.519287,5.4779053,1,-6.45307445526123,-2.95231604576111,1,-19.226074,-5.3710938,1,-15.365601,-10.147095,1,-8.987427,-11.810303,1
231,-5.126953,11.489868,1,-13.595581,5.5999756,1,-6.73946762084961,-3.00198340415955,1,-19.577026,-5.050659,1,-15.808105,-9.963989,1,-9.643555,-11.779785,1
232,-5.1574707,11.505127,1,-13.717651,5.706787,1,-6.99946689605713,-3.00332117080688,1,-19.882202,-4.7454834,1,-16.342163,-9.796143,1,-10.299683,-11.810303,1
233,-5.279541,11.535645,1,-13.824463,5.783081,1,-7.2232608795166,-3.01601719856262,1,-20.141602,-4.470825,1,-16.815186,-9.674072,1,-10.910034,-11.810303,1
234,-5.340576,11.550903,1,-13.931274,5.859375,1,-7.49263954162598,-3.0593683719635,1,-20.446777,-4.1503906,1,-17.288208,-9.536743,1,-11.489868,-11.856079,1
235,-5.4626465,11.535645,1,-13.961792,5.92041,1,-7.69840812683106,-3.12226748466492,1,-20.67566,-3.8909912,1,-17.715454,-9.3688965,1,-12.039185,-11.856079,1
236,-5.4626465,11.535645,1,-14.038086,5.9509277,1,-7.82017612457275,-3.12307977676392,1,-20.812988,-3.5552979,1,-18.173218,-9.246826,1,-12.634277,-11.84082,1
237,-5.584717,11.428833,1,-14.038086,5.9509277,1,-8.04193210601807,-3.27111864089966,1,-21.04187,-3.3111572,1,-18.630981,-9.094238,1,-13.305664,-11.871338,1
238,-5.706787,11.367798,1,-14.11438,5.92041,1,-8.24334144592285,-3.38178968429565,1,-21.240234,-3.0975342,1,-19.042969,-9.017944,1,-13.839722,-11.856079,1
239,-5.783081,11.306763,1,-14.11438,5.92041,1,-8.4246244430542,-3.49376463890076,1,-21.408081,-2.8381348,1,-19.485474,-8.880615,1,-14.404297,-11.871338,1
240,-5.859375,11.276245,1,-14.129639,5.874634,1,-8.58648681640625,-3.62660074234009,1,-21.54541,-2.5939941,1,-19.89746,-8.758545,1,-15.014648,-11.871338,1
241,-5.844116,11.230469,1,-14.160156,5.859375,1,-8.73237800598145,-3.70823740959167,1,-21.66748,-2.4108887,1,-20.309448,-8.69751,1,-15.640259,-11.886597,1
242,-5.92041,11.154175,1,-14.144897,5.8135986,1,-8.88717842102051,-3.84851145744324,1,-21.78955,-2.2583008,1,-20.67566,-8.575439,1,-16.189575,-11.917114,1
243,-5.92041,11.062622,1,-14.175415,5.79834,1,-9.11790752410889,-3.97005939483643,1,-21.987915,-2.1362305,1,-21.133423,-8.575439,1,-16.75415,-11.917114,1
244,-5.874634,11.001587,1,-14.190674,5.7373047,1,-9.29050827026367,-4.11096239089966,1,-22.125244,-2.0446777,1,-21.560669,-8.514404,1,-17.440796,-11.978149,1
245,-5.9814453,10.910034,1,-14.160156,5.706787,1,-9.49431228637695,-4.25463390350342,1,-22.277832,-1.8920898,1,-22.003174,-8.43811,1,-18.066406,-11.978149,1
246,-5.9509277,10.940552,1,-14.129639,5.6915283,1,-9.76409912109375,-4.40510749816895,1,-22.506714,-1.8310547,1,-22.43042,-8.31604,1,-18.615723,-11.947632,1
247,-5.9509277,10.955811,1,-14.129639,5.6915283,1,-9.93206405639648,-4.47608518600464,1,-22.644043,-1.7547607,1,-22.842407,-8.270264,1,-19.14978,-11.978149,1
248,-5.935669,10.940552,1,-14.129639,5.79834,1,-10.229061126709,-4.48686838150024,1,-22.918701,-1.663208,1,-23.223877,-8.255005,1,-19.79065,-11.917114,1
249,-5.79834,11.062622,1,-14.0686035,5.859375,1,-10.3958606719971,-4.50937366485596,1,-23.05603,-1.5563965,1,-23.727417,-8.087158,1,-20.41626,-11.962891,1
250,-5.7373047,11.062622,1,-14.053345,5.9509277,1,-10.5506639480591,-4.47649812698364,1,-23.19336,-1.449585,1,-24.154663,-8.010864,1,-21.011353,-11.932373,1
251,-5.508423,11.108398,1,-14.007568,6.0577393,1,-10.7367067337036,-4.44471073150635,1,-23.361206,-1.3427734,1,-24.58191,-7.827759,1,-21.697998,-11.932373,1
252,-5.264282,11.123657,1,-13.839722,6.088257,1,-10.7675361633301,-4.47401809692383,1,-23.345947,-1.1901855,1,-24.917603,-7.6904297,1,-22.354126,-11.871338,1
253,-5.0811768,11.09314,1,-13.626099,6.0272217,1,-10.90940284729,-4.63202571868897,1,-23.406982,-1.0528564,1,-25.222778,-7.4157715,1,-22.903442,-11.84082,1
254,-4.776001,11.0321045,1,-13.48877,6.0272217,1,-10.9193172454834,-4.66847324371338,1,-23.361206,-0.90026855,1,-25.543213,-7.293701,1,-23.452759,-11.764526,1
255,-4.486084,10.955811,1,-13.336182,6.0272217,1,-10.9399137496948,-4.70860147476196,1,-23.345947,-0.8239746,1,-25.802612,-7.1105957,1,-24.002075,-11.688232,1
256,-4.3029785,10.894775,1,-13.1073,6.088257,1,-11.1025619506836,-4.72751998901367,1,-23.483276,-0.76293945,1,-26.123047,-7.019043,1,-24.536133,-11.59668,1
257,-4.0283203,10.83374,1,-12.924194,6.072998,1,-11.1077165603638,-4.77598476409912,1,-23.422241,-0.61035156,1,-26.351929,-6.790161,1,-25.039673,-11.505127,1
258,-3.7994385,10.818481,1,-12.786865,6.088257,1,-11.1211223602295,-4.78488922119141,1,-23.422241,-0.579834,1,-26.58081,-6.6223145,1,-25.57373,-11.444092,1
259,-3.6010742,10.803223,1,-12.557983,6.1035156,1,-11.1119451522827,-4.80102348327637,1,-23.391724,-0.5340576,1,-26.779175,-6.454468,1,-26.031494,-11.352539,1
260,-3.2958984,10.787964,1,-12.313843,6.1187744,1,-10.9213218688965,-4.79272794723511,1,-23.19336,-0.50354004,1,-26.870728,-6.2713623,1,-26.504517,-11.199951,1
261,-3.0517578,10.83374,1,-12.10022,6.1950684,1,-10.6381788253784,-4.70733737945557,1,-22.918701,-0.44250488,1,-26.947021,-6.134033,1,-26.901245,-11.108398,1
262,-2.8076172,10.818481,1,-11.84082,6.2561035,1,-10.3727340698242,-4.64548969268799,1,-22.67456,-0.44250488,1,-27.038574,-5.9814453,1,-27.252197,-10.940552,1
263,-2.5482178,10.879517,1,-11.566162,6.2713623,1,-9.985915184021,-4.61453723907471,1,-22.29309,-0.4272461,1,-26.916504,-5.6762695,1,-27.572632,-10.864258,1
264,-2.3040771,10.986328,1,-11.33728,6.3323975,1,-9.47867679595947,-4.509446144104,1,-21.759033,-0.24414062,1,-26.657104,-5.279541,1,-27.98462,-10.574341,1
265,-2.0751953,11.062622,1,-11.09314,6.454468,1,-8.88530731201172,-4.32168531417847,1,-21.057129,0.24414062,1,-26.031494,-4.714966,1,-28.015137,-10.3302,1
266,-1.876831,11.108398,1,-10.83374,6.515503,1,-8.38999080657959,-4.2096118927002,1,-20.263672,1.083374,1,-24.993896,-3.982544,1,-27.679443,-10.116577,1
267,-1.6326904,11.184692,1,-10.482788,6.8511963,1,-7.75458240509033,-3.80511236190796,1,-19.439697,1.8920898,1,-23.712158,-3.5095215,1,-26.779175,-9.979248,1
268,-1.3580322,11.260986,1,-10.147095,7.171631,1,-7.26442670822144,-3.44393253326416,1,-18.753052,2.6397705,1,-22.003174,-3.250122,1,-24.94812,-10.101318,1
269,-1.0681152,11.367798,1,-9.780884,7.507324,1,-6.74468564987183,-3.06535291671753,1,-18.157959,3.1585693,1,-20.339966,-3.0975342,1,-22.476196,-10.269165,1
270,-0.8239746,11.459351,1,-9.506226,7.751465,1,-6.189537525177,-2.7366042137146,1,-17.623901,3.4484863,1,-18.844604,-2.960205,1,-19.91272,-10.299683,1
271,-0.6866455,11.535645,1,-9.155273,7.873535,1,-5.83714485168457,-2.61407709121704,1,-17.288208,3.540039,1,-17.669678,-2.8076172,1,-18.127441,-10.101318,1
272,-0.44250488,11.59668,1,-8.911133,7.9040527,1,-5.40539598464966,-2.52234649658203,1,-16.937256,3.479004,1,-16.647339,-2.8533936,1,-16.906738,-9.765625,1
273,-0.32043457,11.688232,1,-8.69751,7.9040527,1,-4.89423322677612,-2.41753101348877,1,-16.586304,3.2653809,1,-15.74707,-2.9296875,1,-15.50293,-9.643555,1
274,-0.16784668,11.779785,1,-8.590698,7.827759,1,-4.48127841949463,-2.37580347061157,1,-16.403198,2.8076172,1,-14.846802,-3.2348633,1,-13.85498,-9.765625,1
275,-0.015258789,11.886597,1,-8.361816,7.7056885,1,-3.93671703338623,-2.36498594284058,1,-16.143799,2.105713,1,-13.885498,-3.692627,1,-12.176514,-9.933472,1
276,0.12207031,12.039185,1,-8.2092285,7.4920654,1,-3.34811449050903,-2.37553644180298,1,-15.853882,1.1749268,1,-12.924194,-4.272461,1,-10.498047,-10.192871,1
277,0.15258789,12.176514,1,-8.010864,7.293701,1,-2.79718589782715,-2.39224481582642,1,-15.548706,0.1373291,1,-11.901855,-4.928589,1,-8.728027,-10.4522705,1
278,0.32043457,12.359619,1,-7.7667236,7.1258545,1,-2.06833124160767,-2.28309392929077,1,-14.99939,-0.9460449,1,-10.848999,-5.554199,1,-7.019043,-10.635376,1
279,0.44250488,12.527466,1,-7.4920654,6.9122314,1,-1.37489128112793,-2.22998905181885,1,-14.373779,-2.0599365,1,-9.780884,-6.2408447,1,-5.355835,-10.772705,1
280,0.62561035,12.756348,1,-7.232666,6.8511963,1,-0.65206241607666,-1.96331834793091,1,-13.595581,-3.1738281,1,-8.590698,-6.8359375,1,-3.5552979,-10.772705,1
281,0.74768066,12.939453,1,-6.92749,6.7596436,1,0.107380867004395,-1.69674944877625,1,-12.664795,-4.119873,1,-7.293701,-7.3547363,1,-1.8463135,-10.757446,1
282,0.93078613,13.214111,1,-6.6070557,6.652832,1,0.901972770690918,-1.3854820728302,1,-11.566162,-5.065918,1,-5.9051514,-7.7209473,1,-0.061035156,-10.4522705,1
283,0.9613037,13.549805,1,-6.286621,6.6223145,1,1.70497798919678,-0.936411380767822,1,-10.345459,-5.8135986,1,-4.40979,-7.9803467,1,1.663208,-10.131836,1
284,0.9918213,13.916016,1,-6.0424805,6.6223145,1,2.38638210296631,-0.445517778396606,1,-9.109497,-6.515503,1,-3.0059814,-8.178711,1,3.479004,-9.82666,1
285,1.0070801,14.282227,1,-5.6915283,6.6070557,1,3.2038631439209,0.136197090148926,1,-7.5683594,-7.1411133,1,-1.4190674,-8.422852,1,5.264282,-9.429932,1
286,1.1291504,14.694214,1,-5.355835,6.6375732,1,3.90078258514404,0.69492906332016,1,-5.9814453,-7.751465,1,0.16784668,-8.575439,1,7.2021484,-9.002686,1
287,1.1901855,15.106201,1,-4.974365,6.668091,1,4.57343196868897,1.20552861690521,1,-4.211426,-8.377075,1,1.9989014,-8.773804,1,9.140015,-8.575439,1
288,1.2207031,15.365601,1,-4.5928955,6.652832,1,5.19758987426758,1.63821315765381,1,-2.4414062,-8.880615,1,3.8146973,-9.033203,1,11.123657,-8.31604,1
289,1.2969971,15.670776,1,-4.180908,6.6986084,1,5.77157211303711,2.01372623443604,1,-0.6713867,-9.277344,1,5.706787,-9.292603,1,13.015747,-8.224487,1
290,1.4190674,15.869141,1,-3.8452148,6.744385,1,6.2015905380249,2.26535630226135,1,0.88500977,-9.597778,1,7.3547363,-9.597778,1,14.587402,-8.361816,1
291,1.5411377,16.00647,1,-3.5095215,6.7596436,1,6.617112159729,2.4641444683075,1,2.166748,-9.750366,1,8.651733,-10.101318,1,16.036987,-8.956909,1
292,1.6937256,16.082764,1,-3.2043457,6.713867,1,6.95916271209717,2.50636339187622,1,3.036499,-9.887695,1,9.552002,-10.787964,1,16.845703,-10.131836,1
293,1.9836426,15.960693,1,-2.9296875,6.6833496,1,7.14682102203369,2.27154994010925,1,3.40271,-10.177612,1,9.796143,-11.581421,1,17.059326,-11.535645,1
294,2.319336,15.731812,1,-2.7160645,6.500244,1,7.29640579223633,1.944979429245,1,2.9296875,-10.299683,1,9.109497,-11.825562,1,16.357422,-11.535645,1
295,2.6245117,15.441895,1,-2.5482178,6.3934326,1,7.42006540298462,1.74226713180542,1,2.4108887,-10.253906,1,8.514404,-11.978149,1,15.74707,-11.642456,1
296,2.8533936,15.2282715,1,-2.4719238,6.210327,1,7.52545022964478,1.62202906608582,1,1.9073486,-10.101318,1,7.949829,-12.008667,1,15.182495,-11.657715,1
297,3.1433105,15.12146,1,-2.39563,6.0424805,1,7.59513998031616,1.43981623649597,1,1.4953613,-10.040283,1,7.4005127,-12.10022,1,14.61792,-11.71875,1
298,3.2196045,14.785767,1,-2.3040771,5.9051514,1,7.62594270706177,1.17284941673279,1,1.0223389,-10.025024,1,6.8969727,-12.161255,1,14.038086,-11.795044,1
299,3.479004,14.587402,1,-2.1820068,5.722046,1,7.72334575653076,0.938323855400085,1,0.5493164,-9.902954,1,6.30188,-12.237549,1,13.534546,-11.84082,1
300,3.692627,14.343262,1,-2.1820068,5.569458,1,7.65158081054688,0.639898300170898,1,0.045776367,-9.902954,1,5.783081,-12.252808,1,12.939453,-11.886597,1
301,3.829956,14.083862,1,-2.1209717,5.4626465,1,7.67379379272461,0.456392765045166,1,-0.39672852,-9.735107,1,5.3100586,-12.359619,1,12.390137,-11.901855,1
302,3.982544,13.824463,1,-2.0751953,5.279541,1,7.62572813034058,0.0937840342521668,1,-0.90026855,-9.719849,1,4.6691895,-12.4053955,1,11.795044,-11.962891,1
303,4.135132,13.534546,1,-2.0751953,5.142212,1,7.50404453277588,-0.265018939971924,1,-1.4343262,-9.70459,1,4.1503906,-12.481689,1,11.291504,-11.978149,1
304,4.333496,13.305664,1,-1.9989014,5.0201416,1,7.4299464225769,-0.645264446735382,1,-1.9378662,-9.658813,1,3.6621094,-12.481689,1,10.71167,-11.993408,1
305,4.470825,13.076782,1,-1.9989014,4.8675537,1,7.38456916809082,-0.872696042060852,1,-2.3345947,-9.506226,1,3.250122,-12.527466,1,10.147095,-12.054443,1
306,4.6691895,12.878418,1,-1.9836426,4.79126,1,7.2342677116394,-1.21125078201294,1,-2.8381348,-9.429932,1,2.7618408,-12.512207,1,9.613037,-12.054443,1
307,4.79126,12.664795,1,-2.0599365,4.6539307,1,7.08020496368408,-1.46634829044342,1,-3.2653809,-9.338379,1,2.243042,-12.588501,1,9.0789795,-12.130737,1
308,4.79126,12.4053955,1,-2.1362305,4.5166016,1,6.8772439956665,-1.7887350320816,1,-3.7384033,-9.292603,1,1.663208,-12.557983,1,8.575439,-12.130737,1
309,4.8828125,12.176514,1,-2.2888184,4.40979,1,6.65423011779785,-1.99504351615906,1,-4.196167,-9.155273,1,1.1291504,-12.542725,1,8.026123,-12.176514,1
310,4.8675537,11.947632,1,-2.4261475,4.2877197,1,6.36977958679199,-2.31770706176758,1,-4.714966,-9.109497,1,0.579834,-12.512207,1,7.4768066,-12.22229,1
311,4.776001,11.703491,1,-2.609253,4.135132,1,6.12967586517334,-2.5455207824707,1,-5.1879883,-8.94165,1,0.076293945,-12.527466,1,6.9732666,-12.237549,1
312,4.6844482,11.459351,1,-2.7923584,4.0740967,1,5.81137228012085,-2.77979421615601,1,-5.6762695,-8.865356,1,-0.45776367,-12.435913,1,6.4086914,-12.237549,1
313,4.562378,11.230469,1,-3.0212402,3.9215088,1,5.5426812171936,-2.98205900192261,1,-6.088257,-8.7890625,1,-0.9765625,-12.390137,1,5.859375,-12.268066,1
314,4.486084,10.986328,1,-3.2348633,3.7994385,1,5.24096345901489,-3.21200680732727,1,-6.5307617,-8.728027,1,-1.4343262,-12.4053955,1,5.3100586,-12.283325,1
315,4.2419434,10.757446,1,-3.463745,3.6315918,1,4.93221855163574,-3.47529220581055,1,-7.019043,-8.590698,1,-1.9683838,-12.329102,1,4.837036,-12.283325,1
316,4.0283203,10.528564,1,-3.768921,3.4484863,1,4.62349891662598,-3.66258263587952,1,-7.461548,-8.453369,1,-2.5024414,-12.268066,1,4.348755,-12.313843,1
317,3.829956,10.391235,1,-3.982544,3.4179688,1,4.291823387146,-3.83012247085571,1,-7.9040527,-8.331299,1,-2.9754639,-12.145996,1,3.7384033,-12.34436,1
318,3.6773682,10.253906,1,-4.180908,3.3874512,1,3.94995975494385,-4.02125787734985,1,-8.346558,-8.239746,1,-3.5247803,-12.084961,1,3.250122,-12.34436,1
319,3.5247803,10.131836,1,-4.425049,3.3874512,1,3.55178546905518,-4.18685531616211,1,-8.834839,-8.132935,1,-3.982544,-12.039185,1,2.7313232,-12.329102,1
320,3.1585693,10.055542,1,-4.7302246,3.4179688,1,3.20974493026733,-4.19497346878052,1,-9.231567,-7.965088,1,-4.501343,-11.947632,1,2.2125244,-12.283325,1
321,3.0822754,10.070801,1,-4.989624,3.4332275,1,2.92475414276123,-4.20631504058838,1,-9.58252,-7.751465,1,-5.050659,-11.825562,1,1.6479492,-12.268066,1
322,2.8533936,10.055542,1,-5.2948,3.5552979,1,2.48547410964966,-4.22077655792236,1,-10.055542,-7.6446533,1,-5.3863525,-11.749268,1,1.1749268,-12.298584,1
323,2.5939941,10.116577,1,-5.4626465,3.6773682,1,2.16667890548706,-4.24685955047607,1,-10.421753,-7.4920654,1,-5.996704,-11.627197,1,0.62561035,-12.252808,1
324,2.4108887,10.147095,1,-5.783081,3.768921,1,1.85258388519287,-4.14919853210449,1,-10.772705,-7.247925,1,-6.4086914,-11.535645,1,0.091552734,-12.207031,1
325,2.243042,10.253906,1,-6.0424805,3.9215088,1,1.45644617080688,-4.12622928619385,1,-11.199951,-7.095337,1,-6.8511963,-11.505127,1,-0.38146973,-12.22229,1
326,1.9989014,10.284424,1,-6.2713623,3.9978027,1,1.16218280792236,-4.1103663444519,1,-11.535645,-6.8969727,1,-7.3547363,-11.291504,1,-0.8087158,-12.22229,1
327,1.7089844,10.299683,1,-6.5612793,4.058838,1,0.817272186279297,-4.09940719604492,1,-11.917114,-6.713867,1,-7.8430176,-11.154175,1,-1.2969971,-12.22229,1
328,1.4648438,10.3302,1,-6.790161,4.1656494,1,0.547119140625,-4.02973604202271,1,-12.207031,-6.5460205,1,-8.239746,-11.108398,1,-1.8615723,-12.207031,1
329,1.3885498,10.375977,1,-7.019043,4.2419434,1,0.15422248840332,-4.09737682342529,1,-12.649536,-6.3476562,1,-8.7890625,-10.971069,1,-2.3651123,-12.191772,1
330,1.083374,10.375977,1,-7.3394775,4.333496,1,-0.266013145446777,-4.09064292907715,1,-13.092041,-6.210327,1,-9.231567,-10.864258,1,-2.9449463,-12.191772,1
331,0.79345703,10.345459,1,-7.583618,4.3640137,1,-0.601125717163086,-4.13568115234375,1,-13.458252,-6.0577393,1,-9.796143,-10.772705,1,-3.4332275,-12.207031,1
332,0.5340576,10.3302,1,-7.888794,4.3945312,1,-1.05549049377441,-4.22556018829346,1,-13.946533,-5.9051514,1,-10.238647,-10.757446,1,-4.0893555,-12.22229,1
333,0.15258789,10.3302,1,-8.19397,4.4403076,1,-1.41641998291016,-4.22368812561035,1,-14.328003,-5.7373047,1,-10.757446,-10.696411,1,-4.562378,-12.237549,1
334,-0.1373291,10.299683,1,-8.4991455,4.40979,1,-1.80339622497559,-4.31757736206055,1,-14.73999,-5.5999756,1,-11.245728,-10.543823,1,-5.1879883,-12.237549,1
335,-0.44250488,10.284424,1,-8.81958,4.4555664,1,-2.1740198135376,-4.31007957458496,1,-15.12146,-5.4779053,1,-11.764526,-10.467529,1,-5.7373047,-12.268066,1
336,-0.77819824,10.253906,1,-9.155273,4.4555664,1,-2.59756565093994,-4.37599468231201,1,-15.563965,-5.3100586,1,-12.34436,-10.375977,1,-6.3171387,-12.237549,1
337,-1.0528564,10.269165,1,-9.414673,4.470825,1,-2.96365261077881,-4.43896389007568,1,-15.945435,-5.126953,1,-12.786865,-10.375977,1,-6.8969727,-12.252808,1
338,-1.3885498,10.253906,1,-9.780884,4.470825,1,-3.38165283203125,-4.47623157501221,1,-16.37268,-4.9591064,1,-13.259888,-10.20813,1,-7.4310303,-12.268066,1
339,-1.7547607,10.238647,1,-10.070801,4.5318604,1,-3.75872611999512,-4.47689723968506,1,-16.75415,-4.8217773,1,-13.809204,-10.116577,1,-8.010864,-12.237549,1
340,-2.029419,10.299683,1,-10.406494,4.547119,1,-4.18168067932129,-4.5221529006958,1,-17.181396,-4.6081543,1,-14.328003,-9.979248,1,-8.636475,-12.268066,1
341,-2.3040771,10.3302,1,-10.696411,4.6539307,1,-4.54761219024658,-4.46704959869385,1,-17.547607,-4.4555664,1,-14.846802,-9.918213,1,-9.185791,-12.252808,1
342,-2.6245117,10.3302,1,-11.016846,4.638672,1,-4.91529178619385,-4.51398086547852,1,-17.913818,-4.3182373,1,-15.289307,-9.841919,1,-9.765625,-12.207031,1
343,-2.9907227,10.345459,1,-11.352539,4.699707,1,-5.32946872711182,-4.50478267669678,1,-18.325806,-4.196167,1,-15.823364,-9.689331,1,-10.360718,-12.252808,1
344,-3.326416,10.345459,1,-11.71875,4.714966,1,-5.7279577255249,-4.51056289672852,1,-18.722534,-4.135132,1,-16.311646,-9.658813,1,-10.864258,-12.22229,1
345,-3.6010742,10.360718,1,-12.084961,4.714966,1,-6.16306972503662,-4.55494213104248,1,-19.14978,-3.9672852,1,-16.784668,-9.658813,1,-11.474609,-12.22229,1
346,-3.9978027,10.3302,1,-12.481689,4.6539307,1,-6.61358547210693,-4.65011978149414,1,-19.592285,-3.90625,1,-17.333984,-9.536743,1,-12.008667,-12.207031,1
347,-4.3792725,10.192871,1,-12.878418,4.6691895,1,-7.08199214935303,-4.67968368530273,1,-20.050049,-3.768921,1,-17.837524,-9.521484,1,-12.527466,-12.22229,1
348,-4.8065186,10.131836,1,-13.244629,4.5776367,1,-7.5662989616394,-4.84343338012695,1,-20.523071,-3.7841797,1,-18.4021,-9.490967,1,-13.092041,-12.237549,1
349,-5.2490234,10.08606,1,-13.702393,4.5318604,1,-8.01908874511719,-4.88621044158936,1,-20.965576,-3.7078857,1,-18.920898,-9.475708,1,-13.73291,-12.283325,1
350,-5.6610107,9.933472,1,-14.144897,4.3945312,1,-8.48429489135742,-5.03720140457153,1,-21.408081,-3.6315918,1,-19.470215,-9.429932,1,-14.282227,-12.298584,1
351,-6.1798096,9.857178,1,-14.587402,4.3029785,1,-9.02593231201172,-5.18754577636719,1,-21.92688,-3.5858154,1,-20.03479,-9.414673,1,-14.892578,-12.34436,1
352,-6.576538,9.750366,1,-14.984131,4.211426,1,-9.47513294219971,-5.30965280532837,1,-22.354126,-3.540039,1,-20.553589,-9.429932,1,-15.50293,-12.359619,1
353,-7.0343018,9.674072,1,-15.426636,4.180908,1,-9.91749572753906,-5.340087890625,1,-22.781372,-3.463745,1,-21.087646,-9.414673,1,-16.113281,-12.390137,1
354,-7.4157715,9.58252,1,-15.823364,4.0893555,1,-10.3310384750366,-5.44134998321533,1,-23.162842,-3.3569336,1,-21.621704,-9.414673,1,-16.738892,-12.481689,1
355,-7.751465,9.536743,1,-16.220093,4.1046143,1,-10.8119535446167,-5.47411346435547,1,-23.635864,-3.3416748,1,-22.18628,-9.338379,1,-17.349243,-12.466431,1
356,-8.270264,9.490967,1,-16.647339,4.1046143,1,-11.2086238861084,-5.45678615570068,1,-24.017334,-3.2348633,1,-22.781372,-9.292603,1,-17.990112,-12.512207,1
357,-8.605957,9.44519,1,-17.01355,4.1503906,1,-11.6346673965454,-5.44479703903198,1,-24.429321,-3.1433105,1,-23.330688,-9.216309,1,-18.630981,-12.557983,1
358,-9.002686,9.429932,1,-17.364502,4.1503906,1,-12.0693435668945,-5.49125385284424,1,-24.841309,-3.0670166,1,-23.880005,-9.216309,1,-19.302368,-12.512207,1
359,-9.292603,9.44519,1,-17.654419,4.1046143,1,-12.533784866333,-5.63084268569946,1,-25.253296,-2.9449463,1,-24.414062,-9.20105,1,-19.973755,-12.542725,1
360,-9.597778,9.399414,1,-18.005371,4.196167,1,-12.8920402526855,-5.54312705993652,1,-25.604248,-2.822876,1,-25.009155,-9.109497,1,-20.614624,-12.542725,1
361,-9.902954,9.32312,1,-18.28003,4.196167,1,-13.2276592254639,-5.57489204406738,1,-25.909424,-2.7160645,1,-25.558472,-9.017944,1,-21.331787,-12.527466,1
362,-10.131836,9.277344,1,-18.52417,4.180908,1,-13.6211643218994,-5.66594552993774,1,-26.260376,-2.6245117,1,-26.09253,-8.956909,1,-22.064209,-12.542725,1
363,-10.375977,9.246826,1,-18.753052,4.180908,1,-14.0539150238037,-5.76485013961792,1,-26.641846,-2.5177002,1,-26.672363,-8.895874,1,-22.79663,-12.557983,1
364,-10.635376,9.109497,1,-18.90564,4.196167,1,-14.4633331298828,-5.86692905426025,1,-27.008057,-2.456665,1,-27.297974,-8.81958,1,-23.529053,-12.527466,1
365,-10.772705,9.0789795,1,-19.14978,4.119873,1,-14.8752727508545,-6.01563835144043,1,-27.374268,-2.4414062,1,-27.832031,-8.834839,1,-24.276733,-12.634277,1
366,-11.016846,8.911133,1,-19.378662,4.0893555,1,-15.2491989135742,-6.1061110496521,1,-27.694702,-2.3498535,1,-28.457642,-8.728027,1,-25.009155,-12.634277,1
367,-11.184692,8.804321,1,-19.577026,4.119873,1,-15.7366933822632,-6.18797969818115,1,-28.152466,-2.3345947,1,-29.022217,-8.605957,1,-25.726318,-12.634277,1
368,-11.398315,8.682251,1,-19.805908,4.058838,1,-16.2624454498291,-6.35480070114136,1,-28.61023,-2.2888184,1,-29.647827,-8.621216,1,-26.473999,-12.619019,1
369,-11.550903,8.712769,1,-20.004272,4.0283203,1,-16.740837097168,-6.47644138336182,1,-29.037476,-2.2583008,1,-30.288696,-8.514404,1,-27.22168,-12.619019,1
370,-11.810303,8.621216,1,-20.217896,3.9978027,1,-17.3568897247314,-6.62362098693848,1,-29.60205,-2.2583008,1,-30.975342,-8.560181,1,-27.96936,-12.619019,1
371,-12.008667,8.682251,1,-20.462036,4.058838,1,-17.8458480834961,-6.62552261352539,1,-30.090332,-2.2583008,1,-31.61621,-8.4991455,1,-28.762817,-12.588501,1
372,-12.329102,8.712769,1,-20.767212,4.1046143,1,-18.3117790222168,-6.61783075332642,1,-30.548096,-2.2277832,1,-32.226562,-8.392334,1,-29.525757,-12.542725,1
373,-12.512207,8.7890625,1,-21.011353,4.119873,1,-18.7458667755127,-6.64430570602417,1,-30.944824,-2.1514893,1,-32.821655,-8.31604,1,-30.258179,-12.527466,1
374,-12.6953125,8.850098,1,-21.240234,4.180908,1,-19.2115287780762,-6.63039875030518,1,-31.38733,-2.0751953,1,-33.432007,-8.2092285,1,-31.00586,-12.466431,1
375,-12.893677,8.880615,1,-21.438599,4.1503906,1,-19.598331451416,-6.69458055496216,1,-31.738281,-2.0446777,1,-34.04236,-8.117676,1,-31.799316,-12.420654,1
376,-13.031006,8.911133,1,-21.636963,4.211426,1,-20.0466785430908,-6.67301225662231,1,-32.165527,-1.9683838,1,-34.63745,-8.056641,1,-32.546997,-12.390137,1
377,-13.198853,8.880615,1,-21.865845,4.211426,1,-20.4041481018066,-6.69102573394775,1,-32.485962,-1.8920898,1,-35.232544,-7.8582764,1,-33.309937,-12.34436,1
378,-13.336182,8.911133,1,-22.04895,4.211426,1,-20.7863674163818,-6.71587419509888,1,-32.852173,-1.876831,1,-35.736084,-7.6904297,1,-34.01184,-12.283325,1
379,-13.48877,8.834839,1,-22.247314,4.272461,1,-21.1665687561035,-6.67431974411011,1,-33.218384,-1.8005371,1,-36.239624,-7.598877,1,-34.683228,-12.145996,1
380,-13.61084,8.880615,1,-22.369385,4.257202,1,-21.4069290161133,-6.70061111450195,1,-33.416748,-1.7242432,1,-36.712646,-7.4310303,1,-35.41565,-12.084961,1
381,-13.839722,8.880615,1,-22.506714,4.272461,1,-21.6614246368408,-6.69501304626465,1,-33.66089,-1.6937256,1,-37.200928,-7.369995,1,-36.026,-12.023926,1
382,-13.870239,8.972168,1,-22.644043,4.257202,1,-21.9799671173096,-6.7227349281311,1,-33.935547,-1.6174316,1,-37.55188,-7.217407,1,-36.621094,-11.993408,1
383,-14.022827,8.956909,1,-22.827148,4.257202,1,-22.2145347595215,-6.72572612762451,1,-34.14917,-1.5716553,1,-38.024902,-7.080078,1,-37.261963,-11.947632,1
384,-14.099121,9.017944,1,-22.918701,4.333496,1,-22.3640308380127,-6.65251064300537,1,-34.317017,-1.5411377,1,-38.43689,-7.003784,1,-37.94861,-11.810303,1
385,-14.266968,9.063721,1,-23.05603,4.3792725,1,-22.4814567565918,-6.60571098327637,1,-34.454346,-1.5411377,1,-38.772583,-6.881714,1,-38.57422,-11.810303,1
386,-14.389038,9.155273,1,-23.208618,4.425049,1,-22.5896511077881,-6.55752277374268,1,-34.576416,-1.5258789,1,-39.016724,-6.7596436,1,-39.154053,-11.657715,1
387,-14.49585,9.20105,1,-23.345947,4.501343,1,-22.7451515197754,-6.48223876953125,1,-34.744263,-1.4801025,1,-39.33716,-6.6375732,1,-39.67285,-11.642456,1
388,-14.678955,9.262085,1,-23.483276,4.501343,1,-22.787633895874,-6.47663879394531,1,-34.820557,-1.5563965,1,-39.611816,-6.6070557,1,-40.222168,-11.611938,1
389,-14.831543,9.3688965,1,-23.651123,4.486084,1,-22.8328056335449,-6.48343515396118,1,-34.88159,-1.6021729,1,-39.82544,-6.5460205,1,-40.81726,-11.550903,1
390,-14.99939,9.414673,1,-23.849487,4.501343,1,-22.8291835784912,-6.45123672485352,1,-34.92737,-1.6937256,1,-40.05432,-6.500244,1,-41.381836,-11.459351,1
391,-15.213013,9.44519,1,-23.895264,4.501343,1,-22.7782897949219,-6.44180107116699,1,-34.92737,-1.8157959,1,-40.31372,-6.500244,1,-41.94641,-11.428833,1
392,-15.335083,9.521484,1,-24.047852,4.547119,1,-22.7936878204346,-6.3811502456665,1,-34.988403,-1.876831,1,-40.46631,-6.42395,1,-42.404175,-11.352539,1
393,-15.396118,9.58252,1,-24.20044,4.5928955,1,-22.7458534240723,-6.31050682067871,1,-34.988403,-1.9378662,1,-40.603638,-6.454468,1,-42.892456,-11.33728,1
394,-15.518188,9.674072,1,-24.246216,4.6844482,1,-22.5910778045654,-6.19031667709351,1,-34.89685,-1.9989014,1,-40.634155,-6.378174,1,-43.35022,-11.276245,1
395,-15.625,9.780884,1,-24.353027,4.760742,1,-22.5041847229004,-6.08277177810669,1,-34.820557,-1.9226074,1,-40.512085,-6.2713623,1,-43.5791,-11.260986,1
396,-15.701294,9.918213,1,-24.383545,4.8828125,1,-22.3147430419922,-5.92089223861694,1,-34.576416,-1.6021729,1,-40.17639,-6.0272217,1,-43.533325,-11.276245,1
397,-15.74707,10.070801,1,-24.536133,5.0964355,1,-22.0484256744385,-5.618567943573,1,-34.179688,-0.9460449,1,-39.367676,-5.722046,1,-43.136597,-11.276245,1
398,-15.869141,10.238647,1,-24.58191,5.4473877,1,-21.8005256652832,-5.19516324996948,1,-33.737183,-0.045776367,1,-38.33008,-5.279541,1,-42.160034,-11.230469,1
399,-15.930176,10.467529,1,-24.56665,5.8898926,1,-21.6713809967041,-4.72224187850952,1,-33.355713,0.9765625,1,-37.078857,-4.7302246,1,-40.603638,-11.199951,1
400,-16.036987,10.665894,1,-24.551392,6.3323975,1,-21.4916362762451,-4.23348665237427,1,-32.974243,1.8615723,1,-35.812378,-4.333496,1,-38.635254,-11.184692,1
401,-16.052246,10.879517,1,-24.536133,6.729126,1,-21.371753692627,-3.80589628219604,1,-32.730103,2.5177002,1,-34.53064,-3.8146973,1,-36.5448,-11.062622,1
402,-16.098022,11.001587,1,-24.536133,7.003784,1,-21.4081115722656,-3.54209136962891,1,-32.63855,3.0059814,1,-33.53882,-3.463745,1,-34.77478,-10.772705,1
403,-16.113281,11.199951,1,-24.490356,7.232666,1,-21.2248554229736,-3.27145385742187,1,-32.470703,3.250122,1,-32.806396,-3.1280518,1,-33.75244,-10.314941,1
404,-16.159058,11.383057,1,-24.520874,7.461548,1,-21.00661277771,-2.96198272705078,1,-32.409668,3.2806396,1,-32.180786,-3.0822754,1,-32.913208,-9.979248,1
405,-16.281128,11.550903,1,-24.56665,7.5683594,1,-20.8182735443115,-2.77328968048096,1,-32.440186,3.0517578,1,-31.49414,-3.0975342,1,-31.539917,-9.841919,1
406,-16.342163,11.734009,1,-24.673462,7.6141357,1,-20.6717948913574,-2.63216400146484,1,-32.485962,2.7923584,1,-30.822754,-3.1738281,1,-29.953003,-9.750366,1
407,-16.418457,11.932373,1,-24.734497,7.6446533,1,-20.4091529846191,-2.46926689147949,1,-32.470703,2.380371,1,-30.212402,-3.3721924,1,-28.717041,-9.750366,1
408,-16.586304,12.10022,1,-24.780273,7.583618,1,-20.2186946868896,-2.42597675323486,1,-32.485962,1.876831,1,-29.724121,-3.7231445,1,-27.70996,-9.765625,1
409,-16.76941,12.283325,1,-24.887085,7.522583,1,-19.9827899932861,-2.32362842559814,1,-32.485962,1.2359619,1,-29.129028,-4.043579,1,-26.489258,-9.82666,1
410,-16.89148,12.466431,1,-24.94812,7.461548,1,-19.6438980102539,-2.17511224746704,1,-32.348633,0.579834,1,-28.518677,-4.333496,1,-25.299072,-9.796143,1
411,-16.952515,12.664795,1,-24.993896,7.4005127,1,-19.3501129150391,-2.04129457473755,1,-32.196045,-0.045776367,1,-28.060913,-4.714966,1,-24.32251,-9.780884,1
412,-17.150879,12.817383,1,-24.993896,7.3242188,1,-19.1393089294434,-1.98834228515625,1,-32.073975,-0.6866455,1,-27.58789,-5.142212,1,-23.483276,-9.841919,1
413,-17.196655,13.000488,1,-25.039673,7.2631836,1,-18.9019966125488,-1.86528444290161,1,-31.89087,-1.3275146,1,-27.114868,-5.4473877,1,-22.659302,-9.82666,1
414,-17.425537,13.137817,1,-25.08545,7.217407,1,-18.6190528869629,-1.68123006820679,1,-31.61621,-1.953125,1,-26.535034,-5.722046,1,-21.743774,-9.765625,1
415,-17.333984,13.366699,1,-25.054932,7.2631836,1,-18.2874984741211,-1.40871810913086,1,-31.234741,-2.5787354,1,-25.924683,-5.9661865,1,-20.812988,-9.674072,1
416,-17.456055,13.549805,1,-25.115967,7.2631836,1,-18.0069007873535,-1.13093185424805,1,-30.838013,-3.2196045,1,-25.32959,-6.2408447,1,-19.851685,-9.613037,1
417,-17.562866,13.778687,1,-25.054932,7.2784424,1,-17.6578674316406,-0.863020658493042,1,-30.303955,-3.8757324,1,-24.642944,-6.5612793,1,-18.875122,-9.521484,1
418,-17.684937,13.977051,1,-25.024414,7.30896,1,-17.2822494506836,-0.505058288574219,1,-29.647827,-4.5166016,1,-23.80371,-6.866455,1,-17.807007,-9.384155,1
419,-17.76123,14.297485,1,-24.963379,7.3242188,1,-16.8806934356689,-0.137028932571411,1,-28.884888,-5.126953,1,-23.010254,-7.019043,1,-16.647339,-9.155273,1
420,-17.913818,14.556885,1,-24.810791,7.4005127,1,-16.390417098999,0.322567939758301,1,-27.923584,-5.6762695,1,-21.835327,-7.1868896,1,-15.350342,-8.773804,1
421,-17.959595,14.9383545,1,-24.734497,7.4768066,1,-15.8791103363037,0.951311826705933,1,-26.748657,-6.1798096,1,-20.584106,-7.247925,1,-13.85498,-8.239746,1
422,-18.112183,15.335083,1,-24.536133,7.4920654,1,-15.3318023681641,1.46875214576721,1,-25.421143,-6.729126,1,-19.180298,-7.171631,1,-12.22229,-7.446289,1
423,-18.28003,15.731812,1,-24.398804,7.598877,1,-14.8786420822144,2.08829665184021,1,-23.956299,-7.217407,1,-17.669678,-7.1411133,1,-10.635376,-6.6375732,1
424,-18.371582,16.220093,1,-24.169922,7.6446533,1,-14.3936004638672,2.60247683525085,1,-22.354126,-7.675171,1,-16.098022,-7.1411133,1,-8.956909,-6.0424805,1
425,-18.447876,16.525269,1,-23.956299,7.7819824,1,-13.9803104400635,3.14736747741699,1,-20.599365,-8.041382,1,-14.297485,-7.3547363,1,-7.095337,-5.859375,1
426,-18.478394,16.830444,1,-23.6969,7.873535,1,-13.5552949905396,3.61350584030151,1,-18.859863,-8.255005,1,-12.573242,-7.6293945,1,-5.218506,-6.011963,1
427,-18.463135,17.089844,1,-23.483276,7.965088,1,-13.2327346801758,3.97429919242859,1,-17.333984,-8.361816,1,-10.803223,-7.9345703,1,-3.4942627,-6.500244,1
428,-18.417358,17.333984,1,-23.254395,8.071899,1,-12.9663610458374,4.17878150939941,1,-16.036987,-8.453369,1,-9.414673,-8.31604,1,-2.0599365,-7.1258545,1
429,-18.325806,17.456055,1,-23.010254,8.2092285,1,-12.7630805969238,4.20979881286621,1,-15.197754,-8.560181,1,-8.468628,-8.926392,1,-1.083374,-7.9956055,1
430,-18.096924,17.471313,1,-22.81189,8.255005,1,-12.6118764877319,4.13678312301636,1,-14.862061,-8.666992,1,-8.224487,-9.643555,1,-0.79345703,-9.384155,1
431,-17.77649,17.318726,1,-22.613525,8.132935,1,-12.5023746490479,3.80111694335937,1,-15.075684,-8.94165,1,-8.468628,-10.498047,1,-1.2054443,-10.925293,1
432,-17.364502,17.105103,1,-22.476196,7.9193115,1,-12.4534301757813,3.38674902915955,1,-15.518188,-9.246826,1,-9.185791,-11.260986,1,-2.1209717,-11.550903,1
433,-17.074585,16.616821,1,-22.369385,7.6446533,1,-12.4631423950195,2.86277437210083,1,-16.220093,-9.58252,1,-9.918213,-11.657715,1,-2.8076172,-11.703491,1
434,-16.784668,16.113281,1,-22.277832,7.232666,1,-12.402440071106,2.38739633560181,1,-16.76941,-9.857178,1,-10.772705,-11.932373,1,-3.4484863,-11.932373,1
435,-16.540527,15.762329,1,-22.17102,6.8511963,1,-12.2323894500732,2.13700151443481,1,-17.318726,-9.82666,1,-11.276245,-12.191772,1,-4.0740967,-12.084961,1
436,-16.25061,15.472412,1,-22.003174,6.5460205,1,-12.0365982055664,1.89119958877563,1,-17.822266,-9.750366,1,-11.901855,-12.207031,1,-4.760742,-12.161255,1
437,-15.899658,15.197754,1,-21.759033,6.3171387,1,-11.8408584594727,1.56005716323853,1,-18.356323,-9.689331,1,-12.466431,-12.207031,1,-5.3863525,-12.130737,1
438,-15.50293,14.892578,1,-21.530151,6.088257,1,-11.6452894210815,1.2623370885849,1,-18.859863,-9.552002,1,-13.137817,-12.22229,1,-6.011963,-12.176514,1
439,-15.182495,14.511108,1,-21.28601,5.92041,1,-11.4993009567261,0.89842700958252,1,-19.39392,-9.429932,1,-13.61084,-12.237549,1,-6.591797,-12.22229,1
440,-14.862061,14.190674,1,-21.011353,5.7373047,1,-11.3516407012939,0.475180506706238,1,-19.91272,-9.307861,1,-14.297485,-12.207031,1,-7.2784424,-12.252808,1
441,-14.465332,13.809204,1,-20.843506,5.508423,1,-11.2618026733398,0.105556726455688,1,-20.446777,-9.094238,1,-14.99939,-12.237549,1,-7.949829,-12.268066,1
442,-14.160156,13.458252,1,-20.6604,5.279541,1,-11.207691192627,-0.345961451530457,1,-20.9198,-8.987427,1,-15.548706,-12.161255,1,-8.544922,-12.313843,1
443,-13.809204,13.092041,1,-20.477295,5.0964355,1,-11.1685819625854,-0.764268338680267,1,-21.408081,-8.773804,1,-16.098022,-12.176514,1,-9.170532,-12.374878,1
444,-13.473511,12.771606,1,-20.355225,4.8675537,1,-11.1756477355957,-1.19341945648193,1,-21.865845,-8.590698,1,-16.662598,-12.084961,1,-9.82666,-12.359619,1
445,-13.122559,12.374878,1,-20.248413,4.638672,1,-11.2073831558228,-1.62708961963654,1,-22.30835,-8.392334,1,-17.25769,-12.008667,1,-10.437012,-12.34436,1
446,-12.786865,11.978149,1,-20.111084,4.3945312,1,-11.243763923645,-2.11474275588989,1,-22.750854,-8.163452,1,-17.822266,-11.932373,1,-11.047363,-12.359619,1
447,-12.60376,11.59668,1,-20.03479,4.180908,1,-11.3704996109009,-2.596266746521,1,-23.223877,-7.9345703,1,-18.310547,-11.856079,1,-11.642456,-12.390137,1
448,-12.451172,11.230469,1,-19.91272,4.058838,1,-11.4594488143921,-2.97978591918945,1,-23.605347,-7.6141357,1,-18.920898,-11.71875,1,-12.329102,-12.420654,1
449,-12.130737,10.955811,1,-19.89746,3.9672852,1,-11.6736345291138,-3.3381028175354,1,-24.032593,-7.369995,1,-19.470215,-11.657715,1,-12.939453,-12.496948,1
450,-12.039185,10.635376,1,-19.836426,3.8909912,1,-11.8428449630737,-3.66563868522644,1,-24.398804,-7.0343018,1,-19.973755,-11.489868,1,-13.504028,-12.527466,1
451,-11.886597,10.467529,1,-19.836426,3.8757324,1,-12.0450735092163,-3.88924217224121,1,-24.734497,-6.713867,1,-20.584106,-11.276245,1,-14.160156,-12.542725,1
452,-11.764526,10.345459,1,-19.882202,3.9367676,1,-12.3310251235962,-4.06196451187134,1,-25.131226,-6.3323975,1,-21.087646,-11.123657,1,-14.801025,-12.527466,1
453,-11.581421,10.284424,1,-19.821167,4.0740967,1,-12.5896282196045,-4.21474170684814,1,-25.466919,-5.996704,1,-21.68274,-10.971069,1,-15.487671,-12.557983,1
454,-11.520386,10.253906,1,-19.882202,4.196167,1,-12.877269744873,-4.28504276275635,1,-25.802612,-5.6762695,1,-22.18628,-10.772705,1,-16.082764,-12.573242,1
455,-11.398315,10.299683,1,-19.882202,4.3945312,1,-13.1491708755493,-4.30410671234131,1,-26.107788,-5.340576,1,-22.67456,-10.559082,1,-16.708374,-12.557983,1
456,-11.276245,10.345459,1,-19.79065,4.5776367,1,-13.3381032943726,-4.33104705810547,1,-26.321411,-4.989624,1,-23.117065,-10.406494,1,-17.288208,-12.542725,1
457,-11.169434,10.437012,1,-19.77539,4.776001,1,-13.5402364730835,-4.28616571426392,1,-26.535034,-4.6539307,1,-23.620605,-10.177612,1,-18.02063,-12.542725,1
458,-11.077881,10.482788,1,-19.77539,4.9591064,1,-13.779200553894,-4.26291418075562,1,-26.779175,-4.2877197,1,-24.139404,-10.009766,1,-18.615723,-12.527466,1
459,-10.971069,10.559082,1,-19.683838,5.0964355,1,-13.8743677139282,-4.2443380355835,1,-26.870728,-3.9367676,1,-24.56665,-9.811401,1,-19.241333,-12.542725,1
460,-10.83374,10.604858,1,-19.577026,5.218506,1,-14.0547351837158,-4.29486894607544,1,-27.038574,-3.6468506,1,-24.978638,-9.643555,1,-19.851685,-12.512207,1
461,-10.665894,10.620117,1,-19.485474,5.279541,1,-14.1987428665161,-4.36672592163086,1,-27.160645,-3.3721924,1,-25.421143,-9.506226,1,-20.507812,-12.512207,1
462,-10.543823,10.650635,1,-19.332886,5.3863525,1,-14.3051948547363,-4.39742660522461,1,-27.236938,-3.0670166,1,-25.848389,-9.32312,1,-21.026611,-12.512207,1
463,-10.360718,10.665894,1,-19.180298,5.4779053,1,-14.4582958221436,-4.45701885223389,1,-27.359009,-2.8533936,1,-26.184082,-9.155273,1,-21.652222,-12.496948,1
464,-10.223389,10.665894,1,-18.951416,5.554199,1,-14.4930515289307,-4.50179290771484,1,-27.359009,-2.6397705,1,-26.550293,-9.017944,1,-22.247314,-12.481689,1
465,-10.025024,10.726929,1,-18.829346,5.5999756,1,-14.4719686508179,-4.5001859664917,1,-27.297974,-2.380371,1,-26.901245,-8.850098,1,-22.918701,-12.451172,1
466,-9.750366,10.681152,1,-18.554688,5.645752,1,-14.6481618881226,-4.63719797134399,1,-27.420044,-2.2125244,1,-27.313232,-8.728027,1,-23.468018,-12.466431,1
467,-9.460449,10.665894,1,-18.310547,5.645752,1,-14.6930074691772,-4.74238634109497,1,-27.435303,-2.166748,1,-27.679443,-8.621216,1,-24.169922,-12.512207,1
468,-9.277344,10.574341,1,-18.066406,5.645752,1,-14.8629932403564,-4.87746715545654,1,-27.557373,-2.0751953,1,-28.121948,-8.590698,1,-24.734497,-12.527466,1
469,-9.094238,10.559082,1,-17.822266,5.6762695,1,-14.869966506958,-4.92014217376709,1,-27.526855,-1.953125,1,-28.503418,-8.422852,1,-25.360107,-12.527466,1
470,-8.804321,10.604858,1,-17.608643,5.706787,1,-15.1112260818481,-5.00595712661743,1,-27.72522,-1.8615723,1,-28.869629,-8.407593,1,-25.970459,-12.512207,1
471,-8.529663,10.620117,1,-17.303467,5.859375,1,-15.2370758056641,-4.94479179382324,1,-27.84729,-1.7852783,1,-29.266357,-8.224487,1,-26.535034,-12.496948,1
472,-8.178711,10.7421875,1,-16.967773,5.996704,1,-15.4506759643555,-4.89817619323731,1,-28.045654,-1.6784668,1,-29.663086,-8.163452,1,-27.130127,-12.466431,1
473,-7.8125,10.955811,1,-16.708374,6.2713623,1,-15.5884819030762,-4.67148160934448,1,-28.213501,-1.5716553,1,-30.044556,-8.010864,1,-27.679443,-12.390137,1
474,-7.4005127,11.21521,1,-16.418457,6.5612793,1,-15.6625118255615,-4.41271591186523,1,-28.320312,-1.449585,1,-30.395508,-7.873535,1,-28.213501,-12.313843,1
475,-7.019043,11.474609,1,-16.098022,6.9122314,1,-15.8090295791626,-4.08397197723389,1,-28.503418,-1.2817383,1,-30.792236,-7.6904297,1,-28.793335,-12.237549,1
476,-6.591797,11.688232,1,-15.838623,7.2021484,1,-15.8107967376709,-3.79781675338745,1,-28.533936,-1.1291504,1,-31.066895,-7.507324,1,-29.388428,-12.1154785,1
477,-6.2713623,11.871338,1,-15.548706,7.4005127,1,-15.7610130310059,-3.5974383354187,1,-28.503418,-1.0223389,1,-31.356812,-7.4005127,1,-29.891968,-12.008667,1
478,-5.7373047,12.039185,1,-15.182495,7.537842,1,-15.5859699249268,-3.45475625991821,1,-28.335571,-0.91552734,1,-31.524658,-7.232666,1,-30.410767,-11.901855,1
479,-5.4016113,12.10022,1,-14.724731,7.736206,1,-15.298565864563,-3.2488169670105,1,-28.076172,-0.8544922,1,-31.63147,-7.019043,1,-30.853271,-11.84082,1
480,-4.852295,12.22229,1,-14.312744,7.9345703,1,-14.9152612686157,-3.04891586303711,1,-27.70996,-0.74768066,1,-31.600952,-6.744385,1,-31.188965,-11.657715,1
481,-4.486084,12.34436,1,-13.85498,8.071899,1,-14.3586750030518,-2.91656255722046,1,-27.160645,-0.6561279,1,-31.417847,-6.454468,1,-31.49414,-11.383057,1
482,-4.058838,12.512207,1,-13.473511,8.087158,1,-13.5713386535645,-2.91240644454956,1,-26.351929,-0.5340576,1,-30.975342,-5.9814453,1,-31.677246,-11.077881,1
483,-3.7994385,12.649536,1,-13.031006,8.19397,1,-12.5661535263062,-2.79620361328125,1,-25.268555,-0.030517578,1,-30.181885,-5.218506,1,-31.814575,-10.7421875,1
484,-3.4332275,12.802124,1,-12.573242,8.2092285,1,-11.5668773651123,-2.74463939666748,1,-24.06311,0.8392334,1,-28.869629,-4.3792725,1,-31.539917,-10.299683,1
485,-3.0975342,12.954712,1,-12.1154785,8.407593,1,-10.5049533843994,-2.47386837005615,1,-22.766113,1.8463135,1,-27.038574,-3.6621094,1,-30.349731,-10.009766,1
486,-2.746582,13.092041,1,-11.71875,8.712769,1,-9.49753284454346,-2.06063365936279,1,-21.54541,2.822876,1,-25.024414,-3.0975342,1,-28.137207,-9.750366,1
487,-2.319336,13.2751465,1,-11.245728,9.002686,1,-8.64001274108887,-1.68423223495483,1,-20.462036,3.7231445,1,-22.918701,-2.609253,1,-25.253296,-9.674072,1
488,-2.0751953,13.412476,1,-10.910034,9.307861,1,-7.86738109588623,-1.26295948028564,1,-19.622803,4.2877197,1,-20.950317,-2.1514893,1,-22.232056,-9.567261,1
489,-1.8310547,13.534546,1,-10.513306,9.521484,1,-7.20291805267334,-0.968574523925781,1,-18.981934,4.5318604,1,-19.454956,-1.9836426,1,-19.866943,-9.307861,1
490,-1.5411377,13.656616,1,-10.223389,9.628296,1,-6.71526622772217,-0.797301292419434,1,-18.52417,4.638672,1,-18.26477,-1.7089844,1,-18.371582,-8.926392,1
491,-1.3427734,13.824463,1,-9.887695,9.719849,1,-6.2500638961792,-0.661269187927246,1,-18.127441,4.623413,1,-17.288208,-1.5716553,1,-17.150879,-8.453369,1
492,-1.2817383,13.977051,1,-9.658813,9.82666,1,-5.74529027938843,-0.453628540039063,1,-17.77649,4.470825,1,-16.403198,-1.5106201,1,-15.991211,-8.2092285,1
493,-1.0375977,14.190674,1,-9.44519,9.872437,1,-5.22542095184326,-0.285985946655273,1,-17.456055,4.119873,1,-15.594482,-1.7547607,1,-14.465332,-8.163452,1
494,-0.91552734,14.373779,1,-9.292603,9.82666,1,-4.65961694717407,-0.150086402893066,1,-17.120361,3.5552979,1,-14.694214,-2.0599365,1,-12.863159,-8.270264,1
495,-0.79345703,14.61792,1,-9.094238,9.765625,1,-4.21046209335327,-0.0907802581787109,1,-16.87622,2.8381348,1,-13.717651,-2.4871826,1,-11.184692,-8.31604,1
496,-0.62561035,14.846802,1,-8.880615,9.765625,1,-3.65869855880737,0.0841174125671387,1,-16.51001,2.0446777,1,-12.741089,-2.8686523,1,-9.490967,-8.285522,1
497,-0.50354004,15.029907,1,-8.666992,9.750366,1,-3.05511856079102,0.289558410644531,1,-16.021729,1.2207031,1,-11.764526,-3.3569336,1,-7.9956055,-8.331299,1
498,-0.36621094,15.182495,1,-8.453369,9.674072,1,-2.47348308563232,0.441468715667725,1,-15.472412,0.2746582,1,-10.848999,-3.8146973,1,-6.5612793,-8.422852,1
499,-0.2593994,15.350342,1,-8.2092285,9.552002,1,-1.8093900680542,0.605378150939941,1,-14.755249,-0.579834,1,-9.750366,-4.3182373,1,-5.065918,-8.422852,1
500,-0.12207031,15.518188,1,-7.965088,9.521484,1,-1.15372943878174,0.884041786193848,1,-13.931274,-1.5106201,1,-8.728027,-4.7454834,1,-3.3569336,-8.270264,1
501,0,15.716553,1,-7.659912,9.414673,1,-0.445870399475098,1.11060190200806,1,-12.9852295,-2.319336,1,-7.4005127,-5.1727295,1,-1.6937256,-8.163452,1
502,0.030517578,15.945435,1,-7.3394775,9.3688965,1,0.27752685546875,1.43282437324524,1,-11.901855,-3.112793,1,-6.1187744,-5.493164,1,-0.091552734,-7.9345703,1
503,0.076293945,16.204834,1,-7.080078,9.262085,1,0.998349189758301,1.79622793197632,1,-10.757446,-3.753662,1,-4.714966,-5.7678223,1,1.4648438,-7.751465,1
504,0.24414062,16.51001,1,-6.6833496,9.20105,1,1.73467350006104,2.12030959129333,1,-9.506226,-4.40979,1,-3.463745,-6.0272217,1,3.0822754,-7.507324,1
505,0.32043457,16.76941,1,-6.3323975,9.124756,1,2.50230503082275,2.57128095626831,1,-7.9956055,-5.0964355,1,-1.7852783,-6.30188,1,4.852295,-7.293701,1
506,0.36621094,17.044067,1,-5.9814453,9.048462,1,3.17910242080688,2.95876741409302,1,-6.30188,-5.935669,1,0.030517578,-6.5612793,1,6.8359375,-6.8511963,1
507,0.4272461,17.333984,1,-5.508423,9.033203,1,3.91651773452759,3.3613007068634,1,-4.40979,-6.6223145,1,1.9073486,-6.80542,1,8.94165,-6.576538,1
508,0.5340576,17.593384,1,-5.142212,8.956909,1,4.4865870475769,3.63843011856079,1,-2.5482178,-7.293701,1,3.8452148,-7.2784424,1,11.09314,-6.515503,1
509,0.6561279,17.822266,1,-4.7302246,8.911133,1,5.09320974349976,3.96137237548828,1,-0.64086914,-7.7056885,1,5.7525635,-7.659912,1,13.1073,-6.713867,1
510,0.76293945,18.051147,1,-4.333496,8.850098,1,5.62712955474854,4.18255519866943,1,1.0375977,-7.9803467,1,7.522583,-8.071899,1,14.923096,-7.095337,1
511,0.88500977,18.081665,1,-3.9367676,8.834839,1,6.10215950012207,4.3381781578064,1,2.380371,-8.117676,1,9.002686,-8.453369,1,16.464233,-7.7209473,1
512,1.1138916,18.173218,1,-3.6010742,8.81958,1,6.46017646789551,4.37309169769287,1,3.3111572,-8.239746,1,9.933472,-9.002686,1,17.318726,-8.529663,1
513,1.3122559,18.096924,1,-3.3874512,8.743286,1,6.66001605987549,4.26574182510376,1,3.5705566,-8.361816,1,10.116577,-9.689331,1,17.51709,-9.735107,1
514,1.6021729,17.913818,1,-3.2196045,8.682251,1,6.70989179611206,3.94884824752808,1,3.2806396,-8.590698,1,9.735107,-10.421753,1,16.952515,-11.077881,1
515,1.8157959,17.593384,1,-3.1585693,8.422852,1,6.71807098388672,3.5801260471344,1,2.6245117,-8.758545,1,8.895874,-10.955811,1,16.036987,-11.276245,1
516,2.029419,17.211914,1,-3.0670166,8.178711,1,6.70465612411499,3.1275315284729,1,2.029419,-9.002686,1,8.132935,-11.306763,1,15.365601,-11.428833,1
517,2.2735596,16.799927,1,-3.0517578,7.8125,1,6.72177982330322,2.76493000984192,1,1.4648438,-9.124756,1,7.4005127,-11.505127,1,14.724731,-11.505127,1
518,2.456665,16.464233,1,-2.9907227,7.583618,1,6.73264026641846,2.44005537033081,1,0.9460449,-9.20105,1,6.8969727,-11.611938,1,14.099121,-11.611938,1
519,2.5939941,16.174316,1,-3.0059814,7.3547363,1,6.68332529067993,2.14730429649353,1,0.39672852,-9.231567,1,6.2561035,-11.672974,1,13.504028,-11.627197,1
520,2.7160645,15.945435,1,-3.0059814,7.1258545,1,6.65341567993164,1.86315190792084,1,-0.12207031,-9.231567,1,5.6762695,-11.749268,1,12.893677,-11.642456,1
521,2.8381348,15.670776,1,-3.0822754,6.9732666,1,6.52673482894897,1.61911809444428,1,-0.6561279,-9.216309,1,5.0201416,-11.779785,1,12.298584,-11.71875,1
522,2.89917,15.487671,1,-3.1585693,6.790161,1,6.40437650680542,1.35416340827942,1,-1.2054443,-9.185791,1,4.5166016,-11.825562,1,11.71875,-11.779785,1
523,2.9754639,15.2282715,1,-3.2043457,6.668091,1,6.28567218780518,1.10575783252716,1,-1.7547607,-9.109497,1,3.8604736,-11.901855,1,11.016846,-11.810303,1
524,2.9296875,14.968872,1,-3.3416748,6.500244,1,6.06041049957275,0.790532946586609,1,-2.3651123,-9.109497,1,3.3416748,-11.917114,1,10.4522705,-11.749268,1
525,2.9144287,14.770508,1,-3.479004,6.362915,1,5.84564781188965,0.527603268623352,1,-2.9296875,-9.063721,1,2.670288,-11.962891,1,9.780884,-11.779785,1
526,2.9144287,14.526367,1,-3.5858154,6.2408447,1,5.63860607147217,0.24834680557251,1,-3.463745,-9.033203,1,2.0751953,-11.978149,1,9.155273,-11.84082,1
527,2.89917,14.251709,1,-3.7078857,6.1187744,1,5.4295072555542,-0.00560645759105682,1,-3.9978027,-8.956909,1,1.4190674,-12.008667,1,8.621216,-11.886597,1
528,2.8839111,14.0686035,1,-3.829956,5.9814453,1,5.18979692459106,-0.314907431602478,1,-4.562378,-8.911133,1,0.8544922,-11.993408,1,7.9803467,-11.932373,1
529,2.8686523,13.824463,1,-3.9672852,5.874634,1,4.93828105926514,-0.582213342189789,1,-5.0811768,-8.865356,1,0.289917,-11.962891,1,7.4157715,-11.901855,1
530,2.960205,13.641357,1,-4.1046143,5.7678223,1,4.73424386978149,-0.780046284198761,1,-5.5999756,-8.666992,1,-0.19836426,-11.993408,1,6.8359375,-11.947632,1
531,2.822876,13.412476,1,-4.3029785,5.722046,1,4.38721370697022,-1.02188086509705,1,-6.149292,-8.636475,1,-0.88500977,-11.917114,1,6.164551,-11.962891,1
532,2.7770996,13.168335,1,-4.562378,5.5236816,1,4.08711099624634,-1.27237212657928,1,-6.6986084,-8.529663,1,-1.4190674,-11.962891,1,5.569458,-11.993408,1
533,2.5634766,12.8479,1,-4.79126,5.432129,1,3.74047136306763,-1.51118230819702,1,-7.2021484,-8.529663,1,-1.9836426,-11.962891,1,4.9438477,-11.993408,1
534,2.380371,12.634277,1,-5.065918,5.2337646,1,3.38848209381104,-1.80350196361542,1,-7.7819824,-8.453369,1,-2.5939941,-11.917114,1,4.348755,-12.023926,1
535,2.0446777,12.374878,1,-5.4016113,5.0964355,1,3.01266956329346,-1.98875260353088,1,-8.300781,-8.392334,1,-3.2348633,-11.856079,1,3.7841797,-12.054443,1
536,1.7700195,12.191772,1,-5.783081,4.9591064,1,2.59590816497803,-2.16778182983398,1,-8.850098,-8.331299,1,-3.7231445,-11.825562,1,3.1738281,-12.069702,1
537,1.4190674,11.978149,1,-6.225586,4.760742,1,2.14311075210571,-2.37822937965393,1,-9.460449,-8.239746,1,-4.40979,-11.795044,1,2.5939941,-12.10022,1
538,1.0375977,11.810303,1,-6.591797,4.623413,1,1.79010581970215,-2.50004887580872,1,-9.933472,-8.117676,1,-5.0354004,-11.795044,1,1.9683838,-12.084961,1
539,0.5493164,11.627197,1,-7.003784,4.5166016,1,1.39624118804932,-2.5854799747467,1,-10.4522705,-7.9345703,1,-5.508423,-11.734009,1,1.3427734,-12.1154785,1
540,0.16784668,11.505127,1,-7.4768066,4.3792725,1,0.933616638183594,-2.7104914188385,1,-11.016846,-7.827759,1,-6.1950684,-11.642456,1,0.7019043,-12.130737,1
541,-0.33569336,11.413574,1,-7.9956055,4.3029785,1,0.386143684387207,-2.82066464424133,1,-11.642456,-7.751465,1,-6.80542,-11.611938,1,0.030517578,-12.161255,1
542,-0.6713867,11.383057,1,-8.43811,4.2877197,1,-0.0665197372436523,-2.84785914421082,1,-12.161255,-7.6141357,1,-7.4310303,-11.535645,1,-0.579834,-12.161255,1
543,-1.1444092,11.367798,1,-8.850098,4.3792725,1,-0.546377182006836,-2.83517217636108,1,-12.6953125,-7.461548,1,-8.056641,-11.474609,1,-1.1749268,-12.161255,1
544,-1.4648438,11.3220215,1,-9.262085,4.425049,1,-0.959579467773438,-2.79079461097717,1,-13.137817,-7.3394775,1,-8.590698,-11.413574,1,-1.8615723,-12.22229,1
545,-1.739502,11.383057,1,-9.613037,4.4403076,1,-1.39025115966797,-2.86625051498413,1,-13.656616,-7.171631,1,-9.094238,-11.291504,1,-2.39563,-12.161255,1
546,-1.9989014,11.444092,1,-9.963989,4.547119,1,-1.75848293304443,-2.77883815765381,1,-14.099121,-6.866455,1,-9.735107,-11.184692,1,-3.0517578,-12.191772,1
547,-2.3040771,11.474609,1,-10.238647,4.623413,1,-2.13595581054687,-2.81610083580017,1,-14.556885,-6.652832,1,-10.238647,-11.047363,1,-3.616333,-12.145996,1
548,-2.5482178,11.489868,1,-10.559082,4.6844482,1,-2.51902008056641,-2.82270836830139,1,-15.014648,-6.4086914,1,-10.864258,-10.910034,1,-4.272461,-12.161255,1
549,-2.7770996,11.535645,1,-10.848999,4.8217773,1,-2.94290351867676,-2.82633781433105,1,-15.50293,-6.1798096,1,-11.398315,-10.772705,1,-4.989624,-12.161255,1
550,-3.0822754,11.535645,1,-11.077881,4.91333,1,-3.32266616821289,-2.88773536682129,1,-15.945435,-5.996704,1,-11.901855,-10.681152,1,-5.554199,-12.130737,1
551,-3.2653809,11.520386,1,-11.398315,5.004883,1,-3.66294860839844,-2.81586408615112,1,-16.326904,-5.7525635,1,-12.512207,-10.513306,1,-6.1798096,-12.130737,1
552,-3.5705566,11.520386,1,-11.672974,5.0201416,1,-4.04525756835938,-2.9056351184845,1,-16.76941,-5.569458,1,-13.031006,-10.482788,1,-6.744385,-12.130737,1
553,-3.829956,11.520386,1,-12.008667,5.0964355,1,-4.46253395080566,-2.90705537796021,1,-17.211914,-5.4473877,1,-13.565063,-10.314941,1,-7.3547363,-12.161255,1
554,-4.196167,11.474609,1,-12.329102,5.065918,1,-4.89435291290283,-3.04114770889282,1,-17.700195,-5.279541,1,-14.099121,-10.284424,1,-7.9345703,-12.161255,1
555,-4.486084,11.459351,1,-12.710571,5.0964355,1,-5.30872631072998,-3.04068112373352,1,-18.1427,-5.1116943,1,-14.755249,-10.223389,1,-8.605957,-12.207031,1
556,-4.7454834,11.428833,1,-12.9852295,5.126953,1,-5.68774604797363,-3.1038875579834,1,-18.554688,-4.9591064,1,-15.289307,-10.101318,1,-9.216309,-12.237549,1
557,-5.0354004,11.383057,1,-13.305664,5.1727295,1,-6.11096286773682,-3.14810490608215,1,-19.012451,-4.7454834,1,-15.823364,-10.040283,1,-9.841919,-12.237549,1
558,-5.340576,11.352539,1,-13.580322,5.218506,1,-6.47139739990234,-3.17572855949402,1,-19.39392,-4.5928955,1,-16.38794,-9.963989,1,-10.406494,-12.237549,1
559,-5.5236816,11.3220215,1,-13.809204,5.2337646,1,-6.88048934936523,-3.30982542037964,1,-19.836426,-4.3792725,1,-16.921997,-9.902954,1,-11.062622,-12.22229,1
560,-5.7678223,11.245728,1,-14.038086,5.2490234,1,-7.24595451354981,-3.40354466438293,1,-20.217896,-4.257202,1,-17.410278,-9.796143,1,-11.703491,-12.207031,1
561,-5.9509277,11.184692,1,-14.23645,5.279541,1,-7.56636238098145,-3.467453956604,1,-20.553589,-4.043579,1,-17.944336,-9.70459,1,-12.268066,-12.237549,1
562,-6.072998,11.09314,1,-14.434814,5.279541,1,-7.8923397064209,-3.56331086158752,1,-20.889282,-3.8452148,1,-18.478394,-9.643555,1,-12.939453,-12.298584,1
563,-6.1950684,10.971069,1,-14.541626,5.2337646,1,-8.24044990539551,-3.78261756896973,1,-21.240234,-3.7078857,1,-18.981934,-9.536743,1,-13.519287,-12.329102,1
564,-6.2713623,10.864258,1,-14.6484375,5.1574707,1,-8.52283382415772,-3.97910308837891,1,-21.514893,-3.5247803,1,-19.439697,-9.490967,1,-14.11438,-12.34436,1
565,-6.3171387,10.726929,1,-14.678955,5.126953,1,-8.76896476745606,-4.15054512023926,1,-21.743774,-3.3416748,1,-19.973755,-9.338379,1,-14.785767,-12.390137,1
566,-6.378174,10.5896,1,-14.678955,5.0964355,1,-9.0426082611084,-4.34981250762939,1,-21.987915,-3.1585693,1,-20.431519,-9.277344,1,-15.426636,-12.359619,1
567,-6.30188,10.391235,1,-14.73999,5.004883,1,-9.2794132232666,-4.54404926300049,1,-22.18628,-2.9907227,1,-20.858765,-9.216309,1,-15.991211,-12.374878,1
568,-6.2561035,10.147095,1,-14.694214,4.928589,1,-9.58095169067383,-4.81074047088623,1,-22.43042,-2.8381348,1,-21.30127,-9.002686,1,-16.601562,-12.313843,1
569,-6.1035156,9.979248,1,-14.633179,4.852295,1,-9.72401237487793,-4.99149036407471,1,-22.506714,-2.6245117,1,-21.697998,-8.911133,1,-17.166138,-12.313843,1
570,-5.9661865,9.796143,1,-14.49585,4.7454834,1,-9.88850784301758,-5.24312973022461,1,-22.583008,-2.4414062,1,-22.064209,-8.758545,1,-17.807007,-12.268066,1
571,-5.79834,9.674072,1,-14.404297,4.714966,1,-10.0276775360107,-5.37687206268311,1,-22.659302,-2.3040771,1,-22.43042,-8.651733,1,-18.371582,-12.329102,1
572,-5.630493,9.521484,1,-14.160156,4.6844482,1,-10.1808834075928,-5.57056903839111,1,-22.735596,-2.1972656,1,-22.842407,-8.605957,1,-18.966675,-12.313843,1
573,-5.4016113,9.490967,1,-14.022827,4.638672,1,-10.2985134124756,-5.71166610717773,1,-22.766113,-2.029419,1,-23.1781,-8.43811,1,-19.592285,-12.313843,1
574,-5.279541,9.414673,1,-13.793945,4.6539307,1,-10.4200916290283,-5.81588840484619,1,-22.842407,-1.9836426,1,-23.55957,-8.31604,1,-20.202637,-12.374878,1
575,-4.989624,9.44519,1,-13.549805,4.7302246,1,-10.568995475769,-5.8582010269165,1,-22.949219,-1.8920898,1,-23.94104,-8.255005,1,-20.812988,-12.298584,1
576,-4.7302246,9.490967,1,-13.305664,4.837036,1,-10.6586799621582,-5.83973598480225,1,-23.010254,-1.7852783,1,-24.353027,-8.087158,1,-21.362305,-12.252808,1
577,-4.3029785,9.674072,1,-13.031006,5.0811768,1,-10.7533321380615,-5.6804313659668,1,-23.117065,-1.663208,1,-24.70398,-8.056641,1,-22.064209,-12.22229,1
578,-3.9520264,9.933472,1,-12.771606,5.3253174,1,-10.8692750930786,-5.50894069671631,1,-23.239136,-1.5106201,1,-25.100708,-7.8430176,1,-22.583008,-12.10022,1
579,-3.540039,10.147095,1,-12.481689,5.5999756,1,-10.9342479705811,-5.29063701629639,1,-23.31543,-1.3275146,1,-25.421143,-7.6141357,1,-23.208618,-12.008667,1
580,-3.0670166,10.421753,1,-12.130737,5.8135986,1,-10.8177833557129,-5.10776329040527,1,-23.208618,-1.1749268,1,-25.665283,-7.3394775,1,-23.757935,-11.917114,1
581,-2.6397705,10.665894,1,-11.703491,5.996704,1,-10.6863803863525,-4.95617198944092,1,-23.086548,-1.0528564,1,-25.909424,-7.1868896,1,-24.276733,-11.856079,1
582,-2.1209717,10.818481,1,-11.3220215,6.210327,1,-10.6209907531738,-4.76731300354004,1,-23.05603,-0.9765625,1,-26.138306,-7.0648193,1,-24.82605,-11.764526,1
583,-1.6479492,11.0321045,1,-10.879517,6.4697266,1,-10.4466848373413,-4.52175378799439,1,-22.918701,-0.8544922,1,-26.306152,-6.8969727,1,-25.360107,-11.672974,1
584,-1.1901855,11.21521,1,-10.391235,6.8511963,1,-10.2644882202148,-4.14807319641113,1,-22.81189,-0.74768066,1,-26.473999,-6.7749023,1,-25.802612,-11.520386,1
585,-0.6561279,11.444092,1,-9.918213,7.156372,1,-9.90741348266602,-3.84362268447876,1,-22.506714,-0.64086914,1,-26.550293,-6.4849854,1,-26.184082,-11.398315,1
586,-0.21362305,11.703491,1,-9.506226,7.4157715,1,-9.49554061889648,-3.58422422409058,1,-22.125244,-0.50354004,1,-26.382446,-6.210327,1,-26.473999,-11.169434,1
587,0.19836426,12.008667,1,-9.002686,7.6904297,1,-8.65472602844238,-3.30406475067139,1,-21.270752,-0.16784668,1,-25.909424,-5.5999756,1,-26.565552,-10.803223,1
588,0.62561035,12.329102,1,-8.575439,7.888794,1,-7.70091104507446,-3.07638740539551,1,-20.202637,0.48828125,1,-24.978638,-4.8065186,1,-26.59607,-10.3302,1
589,1.0375977,12.634277,1,-8.071899,8.132935,1,-6.60702276229858,-2.7690896987915,1,-18.844604,1.6174316,1,-23.284912,-3.7841797,1,-26.123047,-9.872437,1
590,1.4190674,12.908936,1,-7.5683594,8.4991455,1,-5.48250436782837,-2.3012809753418,1,-17.410278,2.8686523,1,-21.057129,-2.9449463,1,-24.307251,-9.506226,1
591,1.8615723,13.22937,1,-7.0343018,9.033203,1,-4.44801616668701,-1.65843391418457,1,-16.189575,3.9215088,1,-18.692017,-2.3040771,1,-21.362305,-9.292603,1
592,2.2888184,13.534546,1,-6.5460205,9.536743,1,-3.4292573928833,-1.01246356964111,1,-15.136719,4.638672,1,-16.433716,-1.876831,1,-18.005371,-9.20105,1
593,2.6550293,13.809204,1,-6.0577393,9.94873,1,-2.51205205917358,-0.464150428771973,1,-14.312744,4.989624,1,-14.511108,-1.4190674,1,-14.61792,-8.987427,1
594,2.960205,14.083862,1,-5.5999756,10.1623535,1,-1.73630475997925,-0.136775016784668,1,-13.702393,4.9438477,1,-12.878418,-1.2359619,1,-12.054443,-8.651733,1
595,3.3111572,14.434814,1,-5.2337646,10.253906,1,-0.997575283050537,0.102320671081543,1,-13.214111,4.547119,1,-11.520386,-1.4190674,1,-10.192871,-8.407593,1
596,3.5705566,14.709473,1,-4.91333,10.192871,1,-0.231666088104248,0.238876342773437,1,-12.72583,3.829956,1,-10.253906,-1.8157959,1,-8.361816,-8.361816,1
597,3.829956,15.029907,1,-4.5166016,10.116577,1,0.737152099609375,0.452309608459473,1,-12.039185,2.8533936,1,-8.81958,-2.4871826,1,-6.072998,-8.483887,1
598,4.058838,15.380859,1,-4.1046143,10.040283,1,1.76360988616943,0.736308574676514,1,-11.199951,1.7089844,1,-7.293701,-3.036499,1,-3.7078857,-8.636475,1
599,4.257202,15.686035,1,-3.6621094,9.963989,1,2.79709005355835,1.06012678146362,1,-10.192871,0.5493164,1,-5.6915283,-3.616333,1,-1.4038086,-8.575439,1
600,4.623413,16.021729,1,-3.2043457,9.872437,1,3.87570285797119,1.45383167266846,1,-8.956909,-0.62561035,1,-3.9215088,-4.211426,1,1.0681152,-8.422852,1
601,4.8675537,16.38794,1,-2.7160645,9.857178,1,4.88075065612793,1.90177702903748,1,-7.598877,-1.739502,1,-2.090454,-4.638672,1,3.540039,-7.949829,1
602,5.004883,16.738892,1,-2.2277832,9.841919,1,5.91706657409668,2.44858360290527,1,-5.9661865,-2.822876,1,-0.16784668,-4.989624,1,6.0424805,-7.4005127,1
603,5.1727295,17.150879,1,-1.663208,9.765625,1,7.02193737030029,3.01519894599915,1,-4.1046143,-3.7078857,1,1.9226074,-5.264282,1,8.621216,-6.744385,1
604,5.340576,17.608643,1,-1.1749268,9.765625,1,7.99283885955811,3.68680238723755,1,-1.953125,-4.6844482,1,4.196167,-5.6152344,1,11.230469,-6.3171387,1
605,5.554199,18.173218,1,-0.5645752,9.841919,1,8.87394142150879,4.19263696670532,1,0.4119873,-5.6762695,1,6.713867,-6.149292,1,13.85498,-6.149292,1
606,5.706787,18.539429,1,-0.030517578,9.872437,1,9.67752552032471,4.70001840591431,1,2.9754639,-6.439209,1,9.338379,-6.713867,1,16.677856,-6.1187744,1
607,5.9661865,18.829346,1,0.579834,9.918213,1,10.4033823013306,4.96867942810059,1,5.4473877,-7.0495605,1,11.993408,-7.3394775,1,19.363403,-6.439209,1
608,6.3323975,18.966675,1,1.2054443,9.918213,1,11.0959453582764,5.10385799407959,1,7.7056885,-7.446289,1,14.221191,-8.041382,1,21.530151,-7.1868896,1
609,6.713867,19.012451,1,1.9073486,9.82666,1,11.8052730560303,5.027587890625,1,9.338379,-7.736206,1,15.960693,-8.7890625,1,23.269653,-8.377075,1
610,7.293701,18.90564,1,2.609253,9.719849,1,12.4145240783691,4.73420238494873,1,10.177612,-8.071899,1,16.76941,-9.613037,1,24.032593,-9.765625,1
611,8.026123,18.737793,1,3.189087,9.521484,1,12.8773994445801,4.31220626831055,1,10.192871,-8.407593,1,16.571045,-10.360718,1,23.590088,-10.635376,1
612,8.712769,18.356323,1,3.692627,9.262085,1,13.234787940979,3.78968548774719,1,9.567261,-8.682251,1,15.762329,-10.879517,1,22.857666,-10.803223,1
613,9.429932,17.837524,1,4.135132,9.033203,1,13.5777225494385,3.39073085784912,1,9.033203,-8.7890625,1,15.060425,-11.077881,1,22.277832,-10.971069,1
614,10.025024,17.425537,1,4.470825,8.758545,1,13.8929958343506,3.08204102516174,1,8.560181,-8.773804,1,14.465332,-11.184692,1,21.636963,-11.108398,1
615,10.543823,17.105103,1,4.714966,8.422852,1,14.1578245162964,2.78082990646362,1,8.026123,-8.682251,1,13.839722,-11.199951,1,21.026611,-11.21521,1
616,11.016846,16.738892,1,5.0201416,8.2092285,1,14.3724117279053,2.41828489303589,1,7.507324,-8.621216,1,13.244629,-11.230469,1,20.41626,-11.169434,1
617,11.550903,16.403198,1,5.3100586,8.026123,1,14.577091217041,2.09973478317261,1,7.0495605,-8.4991455,1,12.588501,-11.184692,1,19.77539,-11.199951,1
618,11.947632,16.021729,1,5.5999756,7.827759,1,14.7471551895142,1.71800315380096,1,6.500244,-8.331299,1,12.10022,-11.199951,1,19.180298,-11.276245,1
619,12.496948,15.74707,1,5.8135986,7.6141357,1,14.8970050811768,1.40996408462524,1,6.1187744,-8.178711,1,11.505127,-11.123657,1,18.554688,-11.230469,1
620,12.878418,15.411377,1,6.072998,7.507324,1,14.9798889160156,1.05230474472046,1,5.630493,-7.9803467,1,10.986328,-11.09314,1,17.929077,-11.260986,1
621,13.259888,15.12146,1,6.2713623,7.4157715,1,15.0088844299316,0.733279228210449,1,5.1727295,-7.7667236,1,10.391235,-11.016846,1,17.349243,-11.291504,1
622,13.504028,14.846802,1,6.378174,7.2631836,1,14.9685726165771,0.392590880393982,1,4.714966,-7.598877,1,9.94873,-10.955811,1,16.76941,-11.276245,1
623,13.717651,14.587402,1,6.3934326,7.171631,1,14.9032020568848,0.201421618461609,1,4.3029785,-7.3242188,1,9.353638,-10.848999,1,16.159058,-11.276245,1
624,13.946533,14.343262,1,6.4849854,7.0648193,1,14.7949676513672,-0.142411470413208,1,3.829956,-7.1258545,1,8.81958,-10.7421875,1,15.625,-11.291504,1
625,14.099121,14.083862,1,6.500244,7.0343018,1,14.6251373291016,-0.380959272384644,1,3.40271,-6.942749,1,8.361816,-10.71167,1,14.984131,-11.260986,1
626,14.23645,13.870239,1,6.4697266,6.8969727,1,14.4386901855469,-0.68561315536499,1,2.9449463,-6.7596436,1,7.675171,-10.5896,1,14.3585205,-11.276245,1
627,14.266968,13.641357,1,6.4086914,6.8359375,1,14.1912784576416,-0.937822341918945,1,2.4414062,-6.500244,1,7.0648193,-10.482788,1,13.73291,-11.276245,1
628,14.190674,13.473511,1,6.30188,6.729126,1,13.8884811401367,-1.23601412773132,1,1.9226074,-6.3171387,1,6.576538,-10.437012,1,13.092041,-11.276245,1
629,14.083862,13.305664,1,6.1187744,6.744385,1,13.5832967758179,-1.33527612686157,1,1.4953613,-6.1187744,1,5.935669,-10.299683,1,12.481689,-11.306763,1
630,13.931274,13.198853,1,5.844116,6.6833496,1,13.2898502349854,-1.41362881660461,1,1.0681152,-5.844116,1,5.355835,-10.20813,1,11.886597,-11.3220215,1
631,13.824463,13.1073,1,5.6152344,6.652832,1,12.8451662063599,-1.63740801811218,1,0.50354004,-5.722046,1,4.79126,-10.116577,1,11.21521,-11.3220215,1
632,13.595581,12.9852295,1,5.3710938,6.652832,1,12.4863891601563,-1.73600316047668,1,0.045776367,-5.508423,1,4.257202,-10.040283,1,10.5896,-11.33728,1
633,13.35144,12.908936,1,5.126953,6.668091,1,12.1610374450684,-1.78895664215088,1,-0.33569336,-5.3710938,1,3.7384033,-9.994507,1,9.979248,-11.33728,1
634,13.168335,12.908936,1,4.8065186,6.713867,1,11.7699537277222,-1.80144691467285,1,-0.79345703,-5.142212,1,3.0975342,-9.857178,1,9.384155,-11.352539,1
635,12.802124,12.908936,1,4.5166016,6.7749023,1,11.3956050872803,-1.80876302719116,1,-1.2207031,-4.9438477,1,2.5177002,-9.841919,1,8.758545,-11.352539,1
636,12.451172,12.893677,1,4.1656494,6.790161,1,10.9916963577271,-1.83567714691162,1,-1.6784668,-4.7454834,1,1.9836426,-9.689331,1,8.087158,-11.444092,1
637,12.191772,12.924194,1,3.7994385,6.8969727,1,10.5678987503052,-1.77412605285645,1,-2.1362305,-4.5318604,1,1.3580322,-9.628296,1,7.4768066,-11.444092,1
638,11.886597,12.939453,1,3.4179688,6.92749,1,10.1192474365234,-1.79563164710999,1,-2.6245117,-4.3640137,1,0.8239746,-9.536743,1,6.8206787,-11.459351,1
639,11.520386,12.969971,1,3.1280518,6.942749,1,9.79116630554199,-1.80955958366394,1,-2.9907227,-4.180908,1,0.2593994,-9.521484,1,6.210327,-11.459351,1
640,11.154175,12.954712,1,2.7313232,7.003784,1,9.28545093536377,-1.83043432235718,1,-3.5247803,-4.043579,1,-0.2593994,-9.44519,1,5.554199,-11.459351,1
