LauraSchoenhals/autogait_trial/WT_Levelwalk_DLC_for_AutoGaitA/WT_Mouse503_levelwalk_Run2-6DLC-JointTracking.csv
scorer,DLC_JointTracking,DLC_JointTracking,DLC_JointTracking,DLC_JointTracking,DLC_JointTracking,DLC_JointTracking,DLC_JointTracking,DLC_JointTracking,DLC_JointTracking,DLC_JointTracking,DLC_JointTracking,DLC_JointTracking,DLC_JointTracking,DLC_JointTracking,DLC_JointTracking,DLC_JointTracking,DLC_JointTracking,DLC_JointTracking
bodyparts,Crest,Crest,Crest,Hip,Hip,Hip,Knee,Knee,Knee,Ankle,Ankle,Ankle,Metatarsal,Metatarsal,Metatarsal,ToeTip,ToeTip,ToeTip
coords,x,y,likelihood,x,y,likelihood,x,y,likelihood,x,y,likelihood,x,y,likelihood,x,y,likelihood
0,109.069824,11.520386,1,101.257324,6.7596436,1,110.414657592773,-0.99556827545166,1,93.673706,-3.9520264,1,96.069336,-10.574341,1,101.01318,-12.390137,1
1,109.00879,11.627197,1,101.119995,6.8359375,1,110.113342285156,-1.1088490486145,1,93.322754,-3.768921,1,95.443726,-10.528564,1,100.38757,-12.420654,1
2,108.91724,11.779785,1,101.02844,7.0343018,1,109.878433227539,-1.06988143920898,1,93.063354,-3.5705566,1,94.92493,-10.4522705,1,99.70093,-12.420654,1
3,108.84094,11.917114,1,101.02844,7.171631,1,109.592651367188,-1.23397779464722,1,92.72766,-3.3721924,1,94.34509,-10.391235,1,99.06006,-12.390137,1
4,108.84094,12.069702,1,100.95215,7.3242188,1,109.35945892334,-1.23832082748413,1,92.46826,-3.1585693,1,93.75,-10.314941,1,98.358154,-12.34436,1
5,108.74939,12.237549,1,100.93689,7.4920654,1,109.070983886719,-1.33043193817139,1,92.14783,-2.9449463,1,93.170166,-10.223389,1,97.65625,-12.34436,1
6,108.71887,12.390137,1,100.93689,7.583618,1,108.77710723877,-1.50103855133057,1,91.82739,-2.8076172,1,92.59033,-10.1623535,1,96.969604,-12.329102,1
7,108.71887,12.573242,1,100.92163,7.7056885,1,108.562385559082,-1.54735803604126,1,91.59851,-2.6550293,1,92.07153,-10.055542,1,96.28296,-12.298584,1
8,108.70361,12.710571,1,101.02844,7.888794,1,108.363708496094,-1.60825490951538,1,91.38489,-2.456665,1,91.44592,-9.963989,1,95.581055,-12.252808,1
9,108.77991,12.832642,1,100.982666,7.9193115,1,108.158790588379,-1.69855308532715,1,91.171265,-2.3498535,1,90.927124,-9.796143,1,94.98596,-12.237549,1
10,108.76465,13.061523,1,101.119995,8.056641,1,107.939109802246,-1.81755638122559,1,90.94238,-2.1514893,1,90.408325,-9.689331,1,94.329834,-12.191772,1
11,108.82568,13.214111,1,101.31836,8.2092285,1,107.834938049316,-1.86719179153442,1,90.83557,-2.0141602,1,89.84375,-9.58252,1,93.64319,-12.22229,1
12,108.99353,13.458252,1,101.54724,8.453369,1,107.744003295898,-1.8228235244751,1,90.74402,-1.8463135,1,89.30969,-9.414673,1,92.941284,-12.237549,1
13,109.1156,13.73291,1,101.79138,8.728027,1,107.483406066895,-1.83610677719116,1,90.48462,-1.6326904,1,88.760376,-9.185791,1,92.25464,-12.084961,1
14,109.23767,13.961792,1,101.989746,8.94165,1,107.420181274414,-1.75930309295654,1,90.423584,-1.4190674,1,88.272095,-8.94165,1,91.59851,-12.10022,1
15,109.52759,14.221191,1,102.3407,9.338379,1,107.314117431641,-1.58247947692871,1,90.31677,-1.2817383,1,87.82959,-8.804321,1,90.98816,-12.054443,1
16,109.92432,14.450073,1,102.53906,9.658813,1,107.100006103516,-1.44063568115234,1,90.10315,-1.1138916,1,87.387085,-8.605957,1,90.36255,-11.947632,1
17,110.38208,14.755249,1,102.81372,10.055542,1,106.886573791504,-1.23214244842529,1,89.88953,-0.91552734,1,86.91406,-8.346558,1,89.85901,-11.917114,1
18,110.77881,15.029907,1,103.10364,10.543823,1,106.58325958252,-0.94061279296875,1,89.58435,-0.74768066,1,86.41052,-8.19397,1,89.263916,-11.84082,1
19,111.16028,15.289307,1,103.40881,10.894775,1,106.32381439209,-0.745789527893066,1,89.32495,-0.5493164,1,85.96802,-8.010864,1,88.7146,-11.779785,1
20,111.52649,15.50293,1,103.68347,11.184692,1,106.216857910156,-0.54484224319458,1,89.21814,-0.33569336,1,85.632324,-7.6904297,1,88.11951,-11.657715,1
21,111.968994,15.640259,1,103.94287,11.367798,1,106.322784423828,-0.39383602142334,1,89.32495,-0.12207031,1,85.40344,-7.293701,1,87.60071,-11.520386,1
22,112.36572,15.731812,1,104.37012,11.459351,1,106.65404510498,-0.32129955291748,1,89.660645,0.15258789,1,85.250854,-6.9122314,1,87.1582,-11.398315,1
23,112.88452,15.777588,1,104.79736,11.611938,1,107.282180786133,-0.127979278564453,1,90.286255,0.24414062,1,85.357666,-6.515503,1,86.7157,-11.199951,1
24,113.31177,15.777588,1,105.25513,11.657715,1,108.073783874512,-0.00655460357666016,1,91.07971,0.44250488,1,85.66284,-6.072998,1,86.42578,-10.955811,1
25,113.83057,15.74707,1,105.72815,11.611938,1,108.879135131836,0.0330219268798828,1,91.88843,0.5950928,1,86.07483,-5.630493,1,86.15112,-10.7421875,1
26,114.25781,15.686035,1,106.277466,11.520386,1,109.998573303223,0.111907958984375,1,93.01758,0.91552734,1,87.03613,-4.8828125,1,85.89172,-10.482788,1
27,114.76135,15.609741,1,106.87256,11.398315,1,111.146553039551,0.185244560241699,1,94.192505,1.4343262,1,88.4552,-4.486084,1,86.013794,-10.08606,1
28,115.24963,15.579224,1,107.3761,11.383057,1,112.260841369629,0.422252655029297,1,95.35217,2.1820068,1,90.423584,-4.1046143,1,87.21924,-9.506226,1
29,115.753174,15.487671,1,107.940674,11.428833,1,113.397979736328,0.741558074951172,1,96.572876,3.1738281,1,92.666626,-3.6010742,1,89.767456,-9.231567,1
30,116.28723,15.396118,1,108.4137,11.550903,1,114.598411560059,1.2674560546875,1,97.8241,4.0283203,1,95.01648,-3.0059814,1,92.98706,-9.109497,1
31,116.68396,15.365601,1,108.96301,11.749268,1,115.679000854492,1.80464649200439,1,98.93799,4.760742,1,97.213745,-2.3498535,1,96.31348,-8.81958,1
32,117.111206,15.335083,1,109.451294,11.901855,1,116.845352172852,2.45051002502441,1,100.0824,5.279541,1,99.243164,-1.7700195,1,99.12109,-8.346558,1
33,117.52319,15.365601,1,109.87854,12.008667,1,117.767921447754,2.9666690826416,1,100.95215,5.4626465,1,101.135254,-1.4648438,1,101.28784,-7.8430176,1
34,117.95044,15.380859,1,110.38208,11.947632,1,118.586212158203,3.19021892547607,1,101.71509,5.279541,1,102.79846,-1.373291,1,103.34778,-7.659912,1
35,118.270874,15.50293,1,110.824585,11.84082,1,119.379776000977,3.42602729797363,1,102.43225,4.760742,1,104.50745,-1.5716553,1,105.667114,-7.7667236,1
36,118.57605,15.640259,1,111.35864,11.703491,1,120.330932617188,3.73492622375488,1,103.33252,3.9672852,1,106.30798,-2.029419,1,108.27637,-7.949829,1
37,118.896484,15.823364,1,111.78589,11.474609,1,121.272186279297,4.12544536590576,1,104.30908,3.0059814,1,108.13904,-2.5939941,1,110.99243,-8.19397,1
38,119.384766,15.930176,1,112.27417,11.3220215,1,122.201148986816,4.57997560501099,1,105.407715,1.9378662,1,110.13794,-3.250122,1,113.61694,-8.224487,1
39,119.659424,16.098022,1,112.77771,11.245728,1,123.157585144043,5.22424745559692,1,106.70471,0.9460449,1,111.90796,-3.8452148,1,116.07361,-8.300781,1
40,120.08667,16.326904,1,113.31177,11.276245,1,123.924339294434,5.67505598068237,1,107.97119,-0.19836426,1,113.723755,-4.3029785,1,118.36243,-8.178711,1
41,120.42236,16.601562,1,113.83057,11.276245,1,124.78889465332,6.38594245910645,1,109.451294,-0.9460449,1,115.493774,-4.5776367,1,120.59021,-7.873535,1
42,120.80383,16.89148,1,114.31885,11.245728,1,125.39347076416,6.62482881546021,1,110.672,-1.876831,1,117.263794,-4.699707,1,122.787476,-7.4310303,1
43,121.1853,17.211914,1,114.91394,11.33728,1,126.273574829102,7.46962881088257,1,112.472534,-2.456665,1,119.09485,-4.8828125,1,124.89319,-7.095337,1
44,121.520996,17.593384,1,115.41748,11.535645,1,126.98567199707,8.34552097320557,1,114.30359,-2.9754639,1,120.910645,-5.218506,1,127.10571,-6.866455,1
45,121.88721,17.944336,1,115.93628,11.703491,1,127.61678314209,8.95289039611816,1,116.27197,-3.7078857,1,123.03162,-5.6762695,1,129.54712,-6.790161,1
46,122.299194,18.249512,1,116.56189,11.84082,1,128.310134887695,9.39565181732178,1,118.45398,-4.4555664,1,125.33569,-6.164551,1,131.97327,-6.652832,1
47,122.72644,18.569946,1,117.21802,11.932373,1,129.039505004883,9.87029075622559,1,120.72754,-4.9591064,1,127.65503,-6.6986084,1,134.39941,-6.744385,1
48,123.19946,18.829346,1,117.84363,12.023926,1,129.695617675781,10.1450347900391,1,122.81799,-5.4016113,1,129.9591,-7.232666,1,136.73401,-7.003784,1
49,123.58093,18.951416,1,118.45398,12.023926,1,130.321350097656,10.2447242736816,1,124.52698,-5.7373047,1,131.82068,-7.797241,1,138.48877,-7.3547363,1
50,124.0387,18.997192,1,119.07959,12.054443,1,130.915588378906,10.0772619247437,1,125.701904,-6.1035156,1,132.96509,-8.514404,1,139.69421,-8.255005,1
51,124.46594,18.875122,1,119.522095,11.962891,1,131.300384521484,9.66683292388916,1,126.23596,-6.5612793,1,133.3313,-9.475708,1,140.07568,-9.658813,1
52,124.98474,18.661499,1,119.97986,11.688232,1,131.675048828125,9.00073528289795,1,126.205444,-7.095337,1,133.05664,-10.543823,1,139.64844,-11.276245,1
53,125.41199,18.188477,1,120.285034,11.33728,1,131.876174926758,8.23159408569336,1,125.64087,-7.583618,1,132.12585,-11.291504,1,138.76343,-12.084961,1
54,125.88501,17.669678,1,120.57495,10.879517,1,132.091751098633,7.50856399536133,1,124.98474,-7.9345703,1,131.3324,-11.627197,1,137.9242,-12.22229,1
55,126.28174,17.25769,1,120.651245,10.4522705,1,132.198944091797,7.18873310089111,1,124.40491,-7.9193115,1,130.66101,-11.703491,1,137.20703,-12.252808,1
56,126.5564,16.967773,1,120.788574,10.177612,1,132.340087890625,6.92764282226563,1,123.87085,-7.8125,1,129.98962,-11.657715,1,136.52039,-12.313843,1
57,126.72424,16.799927,1,120.84961,10.009766,1,132.355392456055,6.60141086578369,1,123.24524,-7.751465,1,129.31824,-11.59668,1,135.87952,-12.298584,1
58,126.98364,16.63208,1,120.9259,9.963989,1,132.508941650391,6.82822608947754,1,122.909546,-7.2021484,1,128.64685,-11.535645,1,135.16235,-12.298584,1
59,127.13623,16.479492,1,120.95642,9.82666,1,132.409164428711,6.24411869049072,1,122.20764,-7.3547363,1,128.06702,-11.520386,1,134.49097,-12.268066,1
60,127.197266,16.326904,1,120.9259,9.82666,1,132.263549804688,5.89502477645874,1,121.61255,-7.3547363,1,127.38037,-11.474609,1,133.81958,-12.298584,1
61,127.30408,16.220093,1,120.83435,9.811401,1,132.094497680664,5.66303157806397,1,121.017456,-7.232666,1,126.72424,-11.459351,1,133.10242,-12.298584,1
62,127.24304,16.067505,1,120.7428,9.811401,1,131.867797851563,5.31311130523682,1,120.34607,-7.1868896,1,126.083374,-11.444092,1,132.40051,-12.298584,1
63,127.15149,15.960693,1,120.513916,9.796143,1,131.708297729492,5.47343587875366,1,119.903564,-6.7596436,1,125.38147,-11.398315,1,131.65283,-12.34436,1
64,126.98364,15.808105,1,120.23926,9.674072,1,131.443069458008,5.37587833404541,1,119.35425,-6.576538,1,124.72534,-11.367798,1,131.01196,-12.298584,1
65,126.78528,15.594482,1,120.010376,9.58252,1,131.010833740234,4.78773975372314,1,118.59131,-6.8206787,1,123.99292,-11.306763,1,130.34058,-12.298584,1
66,126.51062,15.441895,1,119.7052,9.460449,1,130.602294921875,4.43518352508545,1,117.889404,-6.8511963,1,123.32153,-11.260986,1,129.62341,-12.283325,1
67,126.205444,15.24353,1,119.32373,9.307861,1,130.380523681641,4.64446353912354,1,117.47742,-6.42395,1,122.75696,-11.291504,1,128.93677,-12.298584,1
68,125.90027,15.045166,1,118.95752,9.185791,1,130.011566162109,4.51586627960205,1,116.89758,-6.30188,1,122.00928,-11.184692,1,128.26538,-12.283325,1
69,125.59509,14.862061,1,118.54553,9.0789795,1,129.58349609375,4.37117576599121,1,116.30249,-6.2408447,1,121.2616,-11.184692,1,127.56348,-12.22229,1
70,125.21362,14.678955,1,118.17932,8.850098,1,129.047180175781,3.76189231872559,1,115.448,-6.439209,1,120.59021,-11.169434,1,126.815796,-12.268066,1
71,124.72534,14.541626,1,117.72156,8.7890625,1,128.544357299805,3.6057243347168,1,114.80713,-6.4086914,1,119.94934,-11.138916,1,126.11389,-12.237549,1
72,124.32861,14.3585205,1,117.17224,8.621216,1,128.042343139648,3.53781986236572,1,114.212036,-6.3476562,1,119.21692,-11.077881,1,125.38147,-12.22229,1
73,123.794556,14.266968,1,116.744995,8.514404,1,127.536376953125,3.26597499847412,1,113.49487,-6.3171387,1,118.53027,-11.062622,1,124.694824,-12.252808,1
74,123.38257,14.205933,1,116.28723,8.483887,1,127.089828491211,3.25856590270996,1,112.9303,-6.149292,1,117.91992,-11.062622,1,124.00818,-12.268066,1
75,122.77222,14.099121,1,115.78369,8.377075,1,126.63648223877,3.25681948661804,1,112.36572,-5.9814453,1,117.14172,-10.940552,1,123.24524,-12.237549,1
76,122.31445,14.022827,1,115.24963,8.31604,1,126.096755981445,3.18380212783813,1,111.74011,-5.92041,1,116.53137,-10.910034,1,122.57385,-12.237549,1
77,121.780396,13.977051,1,114.76135,8.255005,1,125.583671569824,3.07065796852112,1,111.09924,-5.8288574,1,115.78369,-10.940552,1,121.87195,-12.237549,1
78,121.292114,13.946533,1,114.31885,8.239746,1,125.117164611816,3.00559186935425,1,110.51941,-5.706787,1,115.06653,-10.864258,1,121.12427,-12.191772,1
79,120.88013,13.900757,1,113.81531,8.19397,1,124.635925292969,3.00607538223267,1,109.939575,-5.5389404,1,114.37988,-10.803223,1,120.407104,-12.191772,1
80,120.407104,13.900757,1,113.31177,8.178711,1,124.107666015625,2.93958401679993,1,109.32922,-5.4626465,1,113.601685,-10.726929,1,119.72046,-12.207031,1
81,120.010376,13.885498,1,112.86926,8.224487,1,123.613868713379,2.88094568252563,1,108.73413,-5.340576,1,113.05237,-10.71167,1,118.98804,-12.191772,1
82,119.522095,13.839722,1,112.4115,8.224487,1,123.152137756348,2.87297749519348,1,108.184814,-5.1879883,1,112.30469,-10.604858,1,118.255615,-12.207031,1
83,119.24744,13.824463,1,112.01477,8.239746,1,122.685928344727,2.75100803375244,1,107.58972,-5.065918,1,111.77063,-10.604858,1,117.507935,-12.145996,1
84,118.759155,13.870239,1,111.66382,8.300781,1,122.242164611816,2.63522219657898,1,107.02515,-4.9438477,1,111.206055,-10.604858,1,116.760254,-12.130737,1
85,118.53027,13.870239,1,111.328125,8.346558,1,121.857719421387,2.59090423583984,1,106.536865,-4.776001,1,110.48889,-10.559082,1,116.05835,-12.10022,1
86,118.270874,13.870239,1,111.00769,8.422852,1,121.436416625977,2.48638248443604,1,105.98755,-4.6081543,1,109.84802,-10.437012,1,115.371704,-12.084961,1
87,118.011475,13.885498,1,110.702515,8.468628,1,121.078254699707,2.44003295898437,1,105.49927,-4.3640137,1,109.20715,-10.375977,1,114.6698,-12.054443,1
88,117.72156,13.900757,1,110.458374,8.544922,1,120.810333251953,2.4755687713623,1,105.148315,-4.135132,1,108.58154,-10.284424,1,114.01367,-12.084961,1
89,117.46216,13.946533,1,110.183716,8.529663,1,120.468330383301,2.34688758850098,1,104.69055,-3.982544,1,107.95593,-10.20813,1,113.32703,-12.054443,1
90,117.17224,13.916016,1,109.86328,8.575439,1,120.106674194336,2.32460737228394,1,104.24805,-3.7994385,1,107.33032,-10.20813,1,112.60986,-12.054443,1
91,116.94336,13.931274,1,109.58862,8.560181,1,119.764389038086,2.1998496055603,1,103.79028,-3.616333,1,106.68945,-10.040283,1,111.92322,-12.023926,1
92,116.57715,13.916016,1,109.32922,8.575439,1,119.449150085449,2.12662982940674,1,103.36304,-3.3721924,1,106.0791,-9.979248,1,111.26709,-12.008667,1
93,116.42456,13.916016,1,109.1156,8.621216,1,119.144683837891,2.03202676773071,1,102.96631,-3.189087,1,105.48401,-9.963989,1,110.51941,-12.008667,1
94,116.21094,13.916016,1,108.88672,8.712769,1,118.775955200195,1.91549158096313,1,102.508545,-3.0212402,1,104.904175,-9.872437,1,109.8938,-11.962891,1
95,115.997314,13.931274,1,108.688354,8.728027,1,118.495658874512,1.81305646896362,1,102.127075,-2.7770996,1,104.30908,-9.70459,1,109.191895,-11.978149,1
96,115.875244,13.916016,1,108.551025,8.758545,1,118.291961669922,1.75039529800415,1,101.85242,-2.5787354,1,103.79028,-9.674072,1,108.566284,-11.947632,1
97,115.64636,13.824463,1,108.428955,8.804321,1,118.013793945313,1.58415603637695,1,101.486206,-2.39563,1,103.21045,-9.674072,1,107.925415,-11.917114,1
98,115.38696,13.763428,1,108.306885,8.865356,1,117.761039733887,1.47489309310913,1,101.16577,-2.2125244,1,102.645874,-9.58252,1,107.22351,-11.932373,1
99,115.14282,13.73291,1,108.09326,8.865356,1,117.426086425781,1.32226181030273,1,100.76904,-2.0751953,1,102.005005,-9.44519,1,106.552124,-11.84082,1
100,114.94446,13.671875,1,107.8949,8.850098,1,117.138717651367,1.19818162918091,1,100.43335,-1.953125,1,101.45569,-9.384155,1,105.88074,-11.84082,1
101,114.715576,13.595581,1,107.69653,8.758545,1,116.820510864258,0.964122295379639,1,100.05188,-1.8310547,1,100.89111,-9.384155,1,105.19409,-11.84082,1
102,114.471436,13.504028,1,107.46765,8.728027,1,116.525985717773,0.85741138458252,1,99.71619,-1.6784668,1,100.28076,-9.3688965,1,104.599,-11.810303,1
103,114.30359,13.458252,1,107.33032,8.666992,1,116.226211547852,0.613230705261231,1,99.365234,-1.5563965,1,99.71619,-9.231567,1,103.86658,-11.779785,1
104,114.16626,13.35144,1,107.19299,8.560181,1,115.973190307617,0.380449771881104,1,99.07532,-1.4801025,1,99.105835,-9.124756,1,103.24097,-11.734009,1
105,114.05945,13.259888,1,107.08618,8.4991455,1,115.747703552246,0.193846702575684,1,98.81592,-1.3275146,1,98.54126,-9.094238,1,102.56958,-11.703491,1
106,113.95264,13.214111,1,106.97937,8.4991455,1,115.437301635742,-0.013399600982666,1,98.480225,-1.2207031,1,97.90039,-8.972168,1,101.882935,-11.734009,1
107,113.87634,13.183594,1,106.903076,8.529663,1,115.169631958008,-0.168848514556885,1,98.19031,-1.0070801,1,97.351074,-8.834839,1,101.19629,-11.672974,1
108,113.83057,13.153076,1,106.781006,8.514404,1,114.921432495117,-0.302252769470215,1,97.93091,-0.869751,1,96.7865,-8.621216,1,100.479126,-11.581421,1
109,113.845825,13.076782,1,106.68945,8.575439,1,114.562355041504,-0.480905532836914,1,97.5647,-0.76293945,1,96.19141,-8.514404,1,99.823,-11.59668,1
110,113.93738,13.031006,1,106.64368,8.590698,1,114.198379516602,-0.732741832733154,1,97.19849,-0.6713867,1,95.68787,-8.300781,1,99.18213,-11.550903,1
111,113.967896,12.969971,1,106.62842,8.590698,1,113.888618469238,-0.963852405548096,1,96.89331,-0.5645752,1,95.10803,-8.178711,1,98.51074,-11.520386,1
112,114.01367,12.908936,1,106.62842,8.590698,1,113.554916381836,-1.20846557617188,1,96.572876,-0.4272461,1,94.58923,-7.9803467,1,97.88513,-11.444092,1
113,114.13574,12.832642,1,106.658936,8.590698,1,113.226860046387,-1.45232820510864,1,96.2677,-0.2746582,1,94.055176,-7.8125,1,97.19849,-11.383057,1
114,114.212036,12.6953125,1,106.70471,8.529663,1,112.936820983887,-1.72513055801392,1,96.0083,-0.16784668,1,93.551636,-7.7056885,1,96.61865,-11.352539,1
115,114.349365,12.588501,1,106.82678,8.575439,1,112.748016357422,-1.86194372177124,1,95.840454,-0.091552734,1,93.07861,-7.537842,1,96.0083,-11.260986,1
116,114.51721,12.496948,1,106.96411,8.514404,1,112.549087524414,-2.10670614242554,1,95.68787,0.061035156,1,92.63611,-7.30896,1,95.41321,-11.199951,1
117,114.82239,12.435913,1,107.14722,8.514404,1,112.447105407715,-2.2517991065979,1,95.62683,0.21362305,1,92.2699,-7.0343018,1,94.833374,-11.108398,1
118,115.05127,12.420654,1,107.299805,8.575439,1,112.488525390625,-2.24478101730347,1,95.68787,0.35095215,1,91.934204,-6.8359375,1,94.28406,-11.0321045,1
119,115.24963,12.420654,1,107.559204,8.666992,1,112.556053161621,-2.24316120147705,1,95.77942,0.50354004,1,91.72058,-6.6223145,1,93.811035,-10.894775,1
120,115.50903,12.435913,1,107.72705,8.743286,1,112.690841674805,-2.18195104598999,1,95.93201,0.6713867,1,91.4917,-6.30188,1,93.29224,-10.818481,1
121,115.753174,12.466431,1,107.98645,8.895874,1,113.08260345459,-1.96825408935547,1,96.31348,0.8239746,1,91.33911,-6.0577393,1,92.7887,-10.71167,1
122,115.8905,12.588501,1,108.24585,8.926392,1,113.527000427246,-1.84902095794678,1,96.77124,1.0223389,1,91.59851,-5.432129,1,92.39197,-10.528564,1
123,116.2262,12.664795,1,108.444214,9.017944,1,114.262405395508,-1.47722911834717,1,97.51892,1.4648438,1,91.94946,-4.9591064,1,91.99524,-10.116577,1
124,116.500854,12.771606,1,108.82568,9.170532,1,115.143615722656,-1.0316104888916,1,98.480225,2.3345947,1,92.98706,-4.272461,1,91.69006,-9.643555,1
125,116.80603,12.863159,1,109.13086,9.414673,1,116.126770019531,-0.335052490234375,1,99.50256,3.2196045,1,94.66553,-3.768921,1,92.36145,-9.140015,1
126,117.05017,13.061523,1,109.436035,9.857178,1,116.922698974609,0.479022979736328,1,100.2655,3.8757324,1,96.74072,-3.3569336,1,94.28406,-8.804321,1
127,117.40112,13.22937,1,109.77173,10.299683,1,117.873176574707,1.44719982147217,1,101.119995,4.333496,1,98.83118,-3.112793,1,97.24426,-8.880615,1
128,117.630005,13.427734,1,110.01587,10.513306,1,118.419982910156,1.94762516021729,1,101.60828,4.470825,1,100.93689,-2.960205,1,100.479126,-8.972168,1
129,117.84363,13.671875,1,110.198975,10.726929,1,119.104034423828,2.68330001831055,1,102.17285,4.211426,1,102.7832,-2.5482178,1,103.48511,-8.880615,1
130,118.02673,13.977051,1,110.565186,10.726929,1,119.722114562988,2.97124290466309,1,102.73743,3.692627,1,104.537964,-2.5939941,1,106.09436,-8.69751,1
131,118.30139,14.312744,1,110.90088,10.681152,1,120.237655639648,3.14294719696045,1,103.24097,2.8076172,1,106.21643,-2.8839111,1,108.52051,-8.712769,1
132,118.42346,14.663696,1,111.25183,10.635376,1,121.063232421875,3.72621870040894,1,104.18701,1.6784668,1,108.062744,-3.463745,1,111.03821,-8.728027,1
133,118.71338,15.029907,1,111.587524,10.543823,1,121.823036193848,4.28010416030884,1,105.19409,0.74768066,1,109.8938,-3.8604736,1,113.57117,-8.605957,1
134,119.06433,15.396118,1,112.01477,10.559082,1,122.607177734375,4.91984272003174,1,106.43005,-0.30517578,1,111.64856,-4.1046143,1,116.13464,-8.178711,1
135,119.23218,15.762329,1,112.44202,10.635376,1,123.401268005371,5.7471399307251,1,107.83386,-1.083374,1,113.479614,-4.348755,1,118.46924,-7.7819824,1
136,119.506836,16.174316,1,112.838745,10.757446,1,124.083389282227,6.56723022460938,1,109.26819,-1.7700195,1,115.20386,-4.486084,1,120.68176,-7.232666,1
137,119.85779,16.525269,1,113.31177,10.910034,1,124.732917785645,7.22801780700684,1,110.90088,-2.6550293,1,116.97388,-4.699707,1,122.94006,-6.80542,1
138,120.13245,16.921997,1,113.73901,11.123657,1,125.329460144043,8.01536273956299,1,112.76245,-3.4332275,1,118.881226,-5.218506,1,125.15259,-6.6070557,1
139,120.391846,17.227173,1,114.16626,11.199951,1,125.871215820313,8.55531406402588,1,114.715576,-4.272461,1,120.95642,-5.935669,1,127.41089,-6.6223145,1
140,120.529175,17.486572,1,114.471436,11.199951,1,126.258628845215,8.95004081726074,1,116.63818,-5.065918,1,122.94006,-6.713867,1,129.5166,-6.92749,1
141,120.80383,17.578125,1,114.76135,11.154175,1,126.590339660645,9.13549518585205,1,118.30139,-5.706787,1,124.66431,-7.598877,1,131.3324,-7.5531006,1
142,120.86487,17.578125,1,115.00549,11.077881,1,126.835388183594,9.06456756591797,1,119.62891,-6.3323975,1,126.09863,-8.636475,1,132.65991,-8.560181,1
143,120.86487,17.456055,1,115.112305,10.894775,1,126.919494628906,8.75227737426758,1,120.49866,-6.9885254,1,126.89209,-9.780884,1,133.45337,-9.963989,1
144,120.910645,17.196655,1,115.24963,10.604858,1,127.00757598877,8.20675659179688,1,120.86487,-7.6446533,1,127.15149,-11.016846,1,133.57544,-11.779785,1
145,120.86487,16.799927,1,115.234375,10.192871,1,126.921699523926,7.47140216827393,1,120.391846,-8.224487,1,126.449585,-11.749268,1,132.76672,-12.527466,1
146,120.86487,16.342163,1,115.14282,9.674072,1,126.808746337891,6.86226272583008,1,119.68994,-8.575439,1,125.59509,-12.054443,1,131.89697,-12.619019,1
147,120.81909,15.869141,1,115.08179,9.124756,1,126.803085327148,6.55353021621704,1,119.07959,-8.590698,1,124.84741,-12.145996,1,131.16455,-12.619019,1
148,120.895386,15.487671,1,114.9292,8.758545,1,126.678085327148,6.31647777557373,1,118.42346,-8.544922,1,124.13025,-12.161255,1,130.4779,-12.6953125,1
149,120.9259,15.24353,1,114.852905,8.560181,1,126.613258361816,6.17395305633545,1,117.79785,-8.361816,1,123.4436,-12.207031,1,129.73022,-12.664795,1
150,120.98694,15.014648,1,114.82239,8.453369,1,126.543823242188,5.88278007507324,1,117.17224,-8.300781,1,122.7417,-12.176514,1,129.01306,-12.634277,1
151,121.09375,14.831543,1,114.76135,8.285522,1,126.467872619629,5.64784097671509,1,116.57715,-8.178711,1,122.08557,-12.145996,1,128.28064,-12.649536,1
152,121.13953,14.61792,1,114.715576,8.163452,1,126.376159667969,5.32958126068115,1,115.93628,-8.087158,1,121.47522,-12.130737,1,127.593994,-12.649536,1
153,121.20056,14.434814,1,114.62402,8.087158,1,126.226493835449,5.02404832839966,1,115.29541,-7.9956055,1,120.773315,-12.145996,1,126.92261,-12.680054,1
154,121.13953,14.266968,1,114.57825,8.041382,1,126.098541259766,4.68239593505859,1,114.65454,-7.888794,1,119.97986,-12.130737,1,126.190186,-12.680054,1
155,121.13953,14.129639,1,114.471436,8.026123,1,125.926658630371,4.45152807235718,1,114.05945,-7.7209473,1,119.29321,-12.069702,1,125.45776,-12.6953125,1
156,121.20056,14.007568,1,114.39514,7.9193115,1,125.770355224609,4.0977201461792,1,113.43384,-7.598877,1,118.71338,-12.054443,1,124.77112,-12.664795,1
157,121.10901,13.870239,1,114.19678,7.888794,1,125.558670043945,4.02778482437134,1,112.94556,-7.369995,1,118.07251,-12.039185,1,124.053955,-12.664795,1
158,120.98694,13.717651,1,113.983154,7.8125,1,125.169273376465,3.46845102310181,1,112.213135,-7.537842,1,117.492676,-12.039185,1,123.35205,-12.664795,1
159,120.75806,13.519287,1,113.78479,7.797241,1,124.94588470459,3.38929677009583,1,111.709595,-7.2784424,1,116.82129,-11.962891,1,122.65015,-12.649536,1
160,120.54443,13.336182,1,113.4491,7.6446533,1,124.633407592773,3.2959508895874,1,111.190796,-7.1105957,1,116.1499,-11.947632,1,121.99402,-12.664795,1
161,120.49866,13.137817,1,113.25073,7.537842,1,124.47518157959,3.29380440711975,1,110.73303,-6.713867,1,115.46326,-11.810303,1,121.276855,-12.664795,1
162,120.224,12.939453,1,112.976074,7.385254,1,124.076034545898,2.8255603313446,1,110.04639,-6.7749023,1,114.79187,-11.734009,1,120.54443,-12.664795,1
163,119.9646,12.771606,1,112.716675,7.3547363,1,123.723564147949,2.57473254203796,1,109.436035,-6.6375732,1,114.13574,-11.672974,1,119.81201,-12.680054,1
164,119.82727,12.542725,1,112.51831,7.217407,1,123.447853088379,2.26309561729431,1,108.87146,-6.4849854,1,113.479614,-11.627197,1,119.11011,-12.664795,1
165,119.644165,12.34436,1,112.213135,7.080078,1,123.106758117676,2.04729247093201,1,108.306885,-6.3171387,1,112.80823,-11.535645,1,118.42346,-12.619019,1
166,119.46106,12.252808,1,111.953735,7.019043,1,122.736450195313,1.75283813476563,1,107.75757,-6.286621,1,112.1521,-11.489868,1,117.767334,-12.649536,1
167,119.140625,12.069702,1,111.6333,6.942749,1,122.355278015137,1.55394840240479,1,107.19299,-6.134033,1,111.49597,-11.428833,1,117.004395,-12.634277,1
168,118.881226,11.962891,1,111.34338,6.8969727,1,122.041633605957,1.46121835708618,1,106.73523,-5.935669,1,110.83984,-11.352539,1,116.256714,-12.60376,1
169,118.69812,11.856079,1,111.05347,6.8511963,1,121.652381896973,1.22420644760132,1,106.170654,-5.79834,1,110.16846,-11.245728,1,115.53955,-12.60376,1
170,118.53027,11.795044,1,110.77881,6.790161,1,121.293556213379,1.00742292404175,1,105.6366,-5.6152344,1,109.46655,-11.169434,1,114.852905,-12.557983,1
171,118.2251,11.734009,1,110.50415,6.80542,1,120.892349243164,0.798319816589356,1,105.08728,-5.4626465,1,108.84094,-11.138916,1,114.16626,-12.496948,1
172,117.889404,11.688232,1,110.24475,6.7749023,1,120.534423828125,0.600557327270508,1,104.58374,-5.279541,1,108.1543,-11.062622,1,113.464355,-12.557983,1
173,117.752075,11.657715,1,110.03113,6.7596436,1,120.17113494873,0.342465877532959,1,104.0802,-5.142212,1,107.543945,-11.001587,1,112.77771,-12.542725,1
174,117.59949,11.627197,1,109.817505,6.790161,1,119.859298706055,0.220343112945557,1,103.652954,-4.91333,1,106.87256,-10.894775,1,112.075806,-12.512207,1
175,117.370605,11.627197,1,109.58862,6.881714,1,119.53719329834,0.17157506942749,1,103.24097,-4.6691895,1,106.24695,-10.83374,1,111.3739,-12.496948,1
176,117.17224,11.657715,1,109.313965,6.942749,1,119.141342163086,0.0563411712646484,1,102.767944,-4.5166016,1,105.60608,-10.726929,1,110.687256,-12.466431,1
177,116.95862,11.657715,1,109.069824,6.9732666,1,118.76912689209,-0.0923976898193359,1,102.29492,-4.2877197,1,104.94995,-10.604858,1,109.98535,-12.481689,1
178,116.68396,11.688232,1,108.82568,7.0648193,1,118.398391723633,-0.171430110931396,1,101.85242,-4.0740967,1,104.400635,-10.604858,1,109.26819,-12.466431,1
179,116.53137,11.734009,1,108.566284,7.1868896,1,117.968856811523,-0.269089221954346,1,101.379395,-3.982544,1,103.775024,-10.528564,1,108.61206,-12.481689,1
180,116.256714,11.825562,1,108.27637,7.247925,1,117.613861083984,-0.289398670196533,1,100.96741,-3.7384033,1,103.134155,-10.4522705,1,107.87964,-12.466431,1
181,115.997314,11.871338,1,108.00171,7.3242188,1,117.270782470703,-0.297085285186768,1,100.58594,-3.5552979,1,102.493286,-10.421753,1,107.23877,-12.435913,1
182,115.72266,11.901855,1,107.75757,7.385254,1,116.882934570313,-0.40754508972168,1,100.14343,-3.3721924,1,101.89819,-10.299683,1,106.56738,-12.451172,1
183,115.371704,11.978149,1,107.559204,7.461548,1,116.576324462891,-0.456249713897705,1,99.79248,-3.1585693,1,101.3031,-10.238647,1,105.8197,-12.420654,1
184,115.097046,12.039185,1,107.34558,7.4920654,1,116.248497009277,-0.553929328918457,1,99.42627,-3.0059814,1,100.69275,-10.192871,1,105.10254,-12.374878,1
185,114.95972,12.069702,1,107.07092,7.4920654,1,115.914596557617,-0.619003295898438,1,99.06006,-2.8381348,1,100.0824,-10.055542,1,104.44641,-12.374878,1
186,114.730835,12.10022,1,106.918335,7.6293945,1,115.619148254395,-0.634734630584717,1,98.739624,-2.6550293,1,99.51782,-10.025024,1,103.759766,-12.359619,1
187,114.56299,12.145996,1,106.73523,7.6141357,1,115.275764465332,-0.815528392791748,1,98.358154,-2.4871826,1,98.90747,-9.933472,1,103.10364,-12.313843,1
188,114.349365,12.161255,1,106.52161,7.6293945,1,114.98755645752,-0.875170707702637,1,98.05298,-2.3651123,1,98.358154,-9.902954,1,102.43225,-12.283325,1
189,114.01367,12.191772,1,106.32324,7.675171,1,114.668998718262,-0.947378158569336,1,97.717285,-2.2277832,1,97.732544,-9.796143,1,101.73035,-12.268066,1
190,113.78479,12.237549,1,106.12488,7.751465,1,114.285591125488,-1.04642105102539,1,97.32056,-2.1362305,1,97.13745,-9.658813,1,101.01318,-12.252808,1
191,113.32703,12.268066,1,105.83496,7.7209473,1,113.961532592773,-1.10848712921143,1,96.98486,-1.9989014,1,96.466064,-9.658813,1,100.3418,-12.22229,1
192,112.976074,12.283325,1,105.545044,7.6446533,1,113.591003417969,-1.25830268859863,1,96.60339,-1.9073486,1,95.88623,-9.613037,1,99.62463,-12.22229,1
193,112.54883,12.313843,1,105.20935,7.6904297,1,113.213020324707,-1.25055408477783,1,96.221924,-1.8005371,1,95.336914,-9.44519,1,98.99902,-12.191772,1
194,112.213135,12.268066,1,104.904175,7.659912,1,112.897399902344,-1.29041385650635,1,95.90149,-1.663208,1,94.7113,-9.3688965,1,98.342896,-12.176514,1
195,111.86218,12.298584,1,104.644775,7.659912,1,112.458534240723,-1.44751501083374,1,95.458984,-1.5716553,1,94.14673,-9.20105,1,97.61047,-12.176514,1
196,111.51123,12.359619,1,104.46167,7.6293945,1,112.107460021973,-1.61949062347412,1,95.10803,-1.4801025,1,93.566895,-9.109497,1,96.969604,-12.084961,1
197,111.23657,12.34436,1,104.21753,7.6141357,1,111.769271850586,-1.71170139312744,1,94.77234,-1.3885498,1,93.00232,-8.895874,1,96.23718,-12.039185,1
198,110.961914,12.4053955,1,104.019165,7.598877,1,111.489547729492,-1.79225635528564,1,94.49768,-1.2664795,1,92.39197,-8.865356,1,95.581055,-12.008667,1
199,110.79407,12.451172,1,103.86658,7.7056885,1,111.087623596191,-1.87849044799805,1,94.10095,-1.2054443,1,91.84265,-8.743286,1,94.92493,-11.947632,1
200,110.54993,12.542725,1,103.637695,7.7209473,1,110.651344299316,-2.01602840423584,1,93.673706,-1.1444092,1,91.24756,-8.605957,1,94.20776,-11.932373,1
201,110.29053,12.588501,1,103.36304,7.751465,1,110.26195526123,-2.06713962554932,1,93.29224,-1.0528564,1,90.667725,-8.483887,1,93.59741,-11.917114,1
202,110.076904,12.588501,1,103.10364,7.797241,1,109.734390258789,-2.20441389083862,1,92.77344,-1.0528564,1,90.07263,-8.43811,1,92.9718,-11.886597,1
203,109.74121,12.710571,1,102.79846,7.827759,1,109.221160888672,-2.30876064300537,1,92.2699,-1.0223389,1,89.50806,-8.255005,1,92.25464,-11.901855,1
204,109.46655,12.710571,1,102.493286,7.873535,1,108.73811340332,-2.37351751327515,1,91.796875,-0.9613037,1,88.82141,-8.239746,1,91.552734,-11.795044,1
205,109.176636,12.60376,1,102.17285,7.8582764,1,108.237762451172,-2.49628067016602,1,91.30859,-0.9460449,1,88.21106,-8.224487,1,90.83557,-11.764526,1
206,108.88672,12.557983,1,101.760864,7.7819824,1,107.653053283691,-2.67182636260986,1,90.74402,-0.91552734,1,87.60071,-8.026123,1,90.17944,-11.749268,1
207,108.48999,12.435913,1,101.44043,7.797241,1,107.119995117188,-2.77359580993652,1,90.22522,-0.88500977,1,86.92932,-8.087158,1,89.55383,-11.71875,1
208,108.20007,12.298584,1,100.96741,7.6904297,1,106.633850097656,-2.88744401931763,1,89.7522,-0.88500977,1,86.30371,-8.087158,1,88.86719,-11.657715,1
209,107.940674,12.207031,1,100.66223,7.583618,1,106.083549499512,-3.12195634841919,1,89.2334,-0.869751,1,85.72388,-7.9193115,1,88.1958,-11.611938,1
210,107.65076,12.084961,1,100.357056,7.4920654,1,105.661727905273,-3.2717809677124,1,88.83667,-0.8392334,1,85.113525,-7.8430176,1,87.60071,-11.581421,1
211,107.284546,11.932373,1,100.02136,7.4310303,1,105.193603515625,-3.39707660675049,1,88.394165,-0.79345703,1,84.51843,-7.8125,1,86.91406,-11.627197,1
212,107.055664,11.84082,1,99.68567,7.3394775,1,104.657829284668,-3.58195495605469,1,87.890625,-0.77819824,1,83.90808,-7.751465,1,86.27319,-11.566162,1
213,106.781006,11.688232,1,99.42627,7.293701,1,104.155792236328,-3.73497200012207,1,87.4176,-0.76293945,1,83.28247,-7.659912,1,85.58655,-11.535645,1
214,106.47583,11.59668,1,99.090576,7.232666,1,103.623313903809,-3.878333568573,1,86.91406,-0.74768066,1,82.68738,-7.5531006,1,84.93042,-11.505127,1
215,106.277466,11.474609,1,98.83118,7.1105957,1,103.279006958008,-4.03466653823853,1,86.60889,-0.7019043,1,82.1991,-7.4920654,1,84.27429,-11.444092,1
216,106.00281,11.383057,1,98.602295,7.171631,1,102.917633056641,-4.02559280395508,1,86.242676,-0.7171631,1,81.69556,-7.3547363,1,83.63342,-11.383057,1
217,105.773926,11.383057,1,98.29712,7.1105957,1,102.440139770508,-4.15152549743652,1,85.80017,-0.6713867,1,81.100464,-7.247925,1,83.03833,-11.306763,1
218,105.59082,11.352539,1,98.12927,7.1258545,1,101.971809387207,-4.24229955673218,1,85.357666,-0.64086914,1,80.55115,-7.1868896,1,82.39746,-11.33728,1
219,105.43823,11.367798,1,97.8241,7.171631,1,101.69019317627,-4.18853139877319,1,85.06775,-0.62561035,1,80.10864,-7.0343018,1,81.78711,-11.245728,1
220,105.20935,11.398315,1,97.732544,7.247925,1,101.2138671875,-4.23599243164063,1,84.625244,-0.5187988,1,79.62036,-6.958008,1,81.14624,-11.276245,1
221,105.10254,11.444092,1,97.61047,7.369995,1,101.033203125,-4.13152456283569,1,84.41162,-0.5645752,1,79.0863,-6.8511963,1,80.53589,-11.199951,1
222,105.05676,11.520386,1,97.4884,7.446289,1,100.612838745117,-4.13982009887695,1,83.99963,-0.5340576,1,78.65906,-6.7749023,1,79.91028,-11.108398,1
223,105.01099,11.627197,1,97.36633,7.6141357,1,100.483261108398,-3.97399425506592,1,83.83179,-0.5493164,1,78.26233,-6.6070557,1,79.315186,-11.062622,1
224,104.93469,11.764526,1,97.24426,7.7056885,1,100.35498046875,-3.88410997390747,1,83.6792,-0.579834,1,77.83508,-6.500244,1,78.704834,-11.016846,1
225,104.93469,11.886597,1,97.229004,7.8582764,1,100.325614929199,-3.73529767990112,1,83.618164,-0.5950928,1,77.6062,-6.30188,1,78.186035,-10.955811,1
226,104.91943,12.054443,1,97.16797,8.041382,1,100.388969421387,-3.51825284957886,1,83.66394,-0.47302246,1,77.423096,-6.072998,1,77.65198,-10.772705,1
227,104.99573,12.176514,1,97.229004,8.148193,1,100.755996704102,-3.32178068161011,1,84.01489,-0.36621094,1,77.49939,-5.8135986,1,77.056885,-10.574341,1
228,105.1178,12.390137,1,97.27478,8.31604,1,101.543212890625,-2.89914989471436,1,84.80835,0.091552734,1,78.048706,-5.4626465,1,76.75171,-10.360718,1
229,105.1178,12.588501,1,97.4884,8.544922,1,102.16544342041,-2.50611019134521,1,85.47974,0.74768066,1,79.39148,-5.1116943,1,76.797485,-10.009766,1
230,105.285645,12.786865,1,97.67151,8.850098,1,103.450347900391,-1.6667947769165,1,86.79199,1.7242432,1,81.31409,-4.837036,1,78.186035,-9.811401,1
231,105.60608,13.015747,1,97.88513,9.262085,1,104.083213806152,-1.01331329345703,1,87.4939,2.7008057,1,83.52661,-4.547119,1,80.825806,-9.857178,1
232,105.75867,13.2751465,1,98.14453,9.780884,1,104.977363586426,-0.0838212966918945,1,88.34839,3.4484863,1,85.84595,-3.7231445,1,83.95386,-9.735107,1
233,105.895996,13.519287,1,98.29712,10.238647,1,105.944641113281,0.991193771362305,1,89.21814,4.0283203,1,87.9364,-3.1280518,1,87.2345,-9.552002,1
234,106.14014,13.85498,1,98.55652,10.650635,1,106.562278747559,1.71151638031006,1,89.782715,4.4403076,1,89.87427,-2.7008057,1,90.13367,-9.033203,1
235,106.277466,14.251709,1,98.77014,10.864258,1,107.151893615723,2.27670097351074,1,90.286255,4.40979,1,91.59851,-2.3651123,1,92.46826,-8.590698,1
236,106.43005,14.633179,1,99.02954,11.001587,1,107.896438598633,2.91591930389404,1,90.927124,3.9367676,1,93.15491,-2.3498535,1,94.60449,-8.422852,1
237,106.5979,15.029907,1,99.31946,11.062622,1,108.64234161377,3.50723743438721,1,91.64429,3.250122,1,94.74182,-2.7160645,1,96.81702,-8.514404,1
238,106.781006,15.487671,1,99.5636,11.123657,1,109.359588623047,4.1926736831665,1,92.46826,2.2735596,1,96.48132,-3.1433105,1,99.27368,-8.560181,1
239,106.918335,15.945435,1,100.0061,11.199951,1,110.136222839355,4.7671685218811,1,93.47534,1.3885498,1,98.32764,-3.4942627,1,101.882935,-8.468628,1
240,107.040405,16.357422,1,100.41809,11.367798,1,110.994842529297,5.69925785064697,1,94.818115,0.47302246,1,100.20447,-3.7841797,1,104.58374,-8.132935,1
241,107.31506,16.799927,1,100.69275,11.474609,1,111.539520263672,6.341628074646,1,95.93201,-0.39672852,1,102.17285,-3.9672852,1,107.10144,-7.537842,1
242,107.58972,17.25769,1,101.119995,11.688232,1,112.371955871582,7.51767921447754,1,97.717285,-1.0986328,1,104.0802,-4.1046143,1,109.49707,-6.9885254,1
243,107.86438,17.76123,1,101.59302,12.008667,1,113.048522949219,8.43495273590088,1,99.53308,-1.876831,1,106.01807,-4.3792725,1,111.98425,-6.4849854,1
244,108.184814,18.188477,1,102.03552,12.22229,1,113.640563964844,9.16893577575684,1,101.45569,-2.6855469,1,108.00171,-4.8065186,1,114.4104,-6.2561035,1
245,108.39844,18.615723,1,102.40173,12.451172,1,114.126251220703,9.89466667175293,1,103.515625,-3.3874512,1,110.16846,-5.3100586,1,116.77551,-6.1035156,1
246,108.566284,18.997192,1,102.874756,12.634277,1,114.670227050781,10.4281797409058,1,105.651855,-3.982544,1,112.38098,-5.79834,1,119.11011,-6.011963,1
247,108.8562,19.256592,1,103.22571,12.72583,1,115.060165405273,10.7394895553589,1,107.46765,-4.470825,1,114.33411,-6.225586,1,121.154785,-6.1035156,1
248,109.00879,19.40918,1,103.637695,12.6953125,1,115.494049072266,10.8441171646118,1,109.03931,-4.8828125,1,116.01257,-6.9122314,1,122.72644,-6.5612793,1
249,109.176636,19.378662,1,103.97339,12.634277,1,115.825630187988,10.7569427490234,1,110.183716,-5.279541,1,117.08069,-7.888794,1,123.76404,-7.751465,1
250,109.35974,19.210815,1,104.23279,12.451172,1,116.026321411133,10.23473072052,1,110.64148,-5.8898926,1,117.46216,-8.987427,1,124.053955,-9.399414,1
251,109.64966,18.89038,1,104.44641,12.1154785,1,116.190200805664,9.64898777008057,1,110.565186,-6.3934326,1,117.17224,-10.1623535,1,123.62671,-11.260986,1
252,109.86328,18.432617,1,104.55322,11.749268,1,116.221809387207,8.94852352142334,1,109.90906,-6.8359375,1,116.21094,-10.864258,1,122.65015,-11.779785,1
253,110.22949,17.8833,1,104.67529,11.199951,1,116.292022705078,8.1913537979126,1,109.176636,-7.247925,1,115.24963,-11.169434,1,121.73462,-11.901855,1
254,110.50415,17.349243,1,104.87366,10.604858,1,116.530731201172,7.75660705566406,1,108.5968,-7.2784424,1,114.50195,-11.245728,1,120.94116,-12.023926,1
255,110.74829,16.952515,1,104.99573,10.269165,1,116.66674041748,7.47856664657593,1,108.01697,-7.156372,1,113.83057,-11.260986,1,120.20874,-12.008667,1
256,111.083984,16.647339,1,105.148315,10.070801,1,116.790283203125,7.1614203453064,1,107.43713,-7.0343018,1,113.12866,-11.276245,1,119.55261,-12.023926,1
257,111.3739,16.448975,1,105.33142,9.933472,1,116.919532775879,6.81646490097046,1,106.87256,-6.8969727,1,112.48779,-11.245728,1,118.881226,-12.054443,1
258,111.709595,16.296387,1,105.49927,9.887695,1,117.036331176758,6.58675050735474,1,106.35376,-6.6375732,1,111.831665,-11.169434,1,118.16406,-12.054443,1
259,111.92322,16.220093,1,105.57556,9.887695,1,117.033668518066,6.32234382629395,1,105.8197,-6.454468,1,111.25183,-11.123657,1,117.46216,-12.023926,1
260,112.27417,16.159058,1,105.75867,9.94873,1,117.092178344727,6.00520467758179,1,105.3009,-6.2408447,1,110.54993,-11.062622,1,116.744995,-12.023926,1
261,112.53357,16.082764,1,105.88074,10.08606,1,117.108489990234,5.85078907012939,1,104.84314,-5.92041,1,109.939575,-10.955811,1,116.01257,-12.023926,1
262,112.716675,16.052246,1,105.86548,10.131836,1,117.017349243164,5.70060539245606,1,104.385376,-5.6762695,1,109.298706,-10.864258,1,115.31067,-12.008667,1
263,112.82349,15.975952,1,105.92651,10.238647,1,116.906005859375,5.39605474472046,1,103.85132,-5.493164,1,108.62732,-10.757446,1,114.608765,-12.023926,1
264,112.82349,15.930176,1,105.88074,10.253906,1,116.742805480957,5.15336894989014,1,103.33252,-5.2948,1,108.01697,-10.71167,1,113.90686,-12.008667,1
265,112.86926,15.838623,1,105.83496,10.238647,1,116.596076965332,4.92842960357666,1,102.84424,-5.065918,1,107.34558,-10.620117,1,113.220215,-11.978149,1
266,112.91504,15.731812,1,105.773926,10.269165,1,116.460723876953,4.81092643737793,1,102.43225,-4.79126,1,106.73523,-10.482788,1,112.50305,-11.993408,1
267,112.9303,15.594482,1,105.74341,10.238647,1,116.26203918457,4.46297740936279,1,101.91345,-4.6539307,1,106.033325,-10.3302,1,111.75537,-11.978149,1
268,112.976074,15.441895,1,105.68237,10.177612,1,116.115684509277,4.2492094039917,1,101.486206,-4.40979,1,105.42297,-10.238647,1,111.1145,-11.962891,1
269,112.94556,15.319824,1,105.57556,10.055542,1,115.947883605957,4.02106952667236,1,101.07422,-4.211426,1,104.73633,-10.08606,1,110.36682,-11.901855,1
270,112.99133,15.182495,1,105.48401,9.979248,1,115.698745727539,3.68169045448303,1,100.55542,-4.043579,1,104.11072,-9.963989,1,109.695435,-11.886597,1
271,112.99133,15.060425,1,105.46875,9.933472,1,115.536102294922,3.40289926528931,1,100.15869,-3.8452148,1,103.48511,-9.933472,1,108.99353,-11.84082,1
272,112.94556,14.968872,1,105.392456,9.933472,1,115.372467041016,3.270179271698,1,99.823,-3.6010742,1,102.84424,-9.765625,1,108.32214,-11.856079,1
273,112.976074,14.907837,1,105.34668,9.887695,1,115.201095581055,3.04003620147705,1,99.45679,-3.3721924,1,102.32544,-9.719849,1,107.69653,-11.871338,1
274,112.9303,14.877319,1,105.23987,9.94873,1,114.95263671875,2.9015941619873,1,99.07532,-3.1738281,1,101.79138,-9.780884,1,106.918335,-11.856079,1
275,112.854004,14.846802,1,105.19409,9.979248,1,114.684669494629,2.63561296463013,1,98.64807,-3.0059814,1,101.18103,-9.674072,1,106.26221,-11.856079,1
276,112.74719,14.862061,1,105.1178,9.979248,1,114.506271362305,2.50552797317505,1,98.342896,-2.7618408,1,100.46387,-9.429932,1,105.5603,-11.825562,1
277,112.701416,14.846802,1,105.08728,9.994507,1,114.270538330078,2.27001285552979,1,97.976685,-2.5787354,1,99.94507,-9.552002,1,104.87366,-11.810303,1
278,112.73193,14.801025,1,104.96521,9.979248,1,114.063735961914,2.15513038635254,1,97.67151,-2.3498535,1,99.41101,-9.506226,1,104.20227,-11.764526,1
279,112.64038,14.785767,1,104.888916,9.94873,1,113.845642089844,1.9626784324646,1,97.36633,-2.2125244,1,98.846436,-9.399414,1,103.53088,-11.703491,1
280,112.579346,14.816284,1,104.888916,9.94873,1,113.720657348633,1.82466697692871,1,97.15271,-1.9836426,1,98.20557,-9.124756,1,102.8595,-11.734009,1
281,112.56409,14.785767,1,104.888916,9.933472,1,113.570205688477,1.64883375167847,1,96.92383,-1.8005371,1,97.732544,-9.185791,1,102.18811,-11.688232,1
282,112.51831,14.801025,1,104.888916,9.933472,1,113.394432067871,1.46847581863403,1,96.67969,-1.6326904,1,97.18323,-9.20105,1,101.51672,-11.642456,1
283,112.53357,14.816284,1,104.96521,9.902954,1,113.225601196289,1.19859600067139,1,96.43555,-1.4648438,1,96.63391,-9.0789795,1,100.84534,-11.627197,1
284,112.53357,14.846802,1,105.01099,9.918213,1,113.072959899902,1.02975654602051,1,96.23718,-1.3275146,1,96.05408,-8.956909,1,100.14343,-11.59668,1
285,112.60986,14.846802,1,105.026245,9.94873,1,112.888763427734,0.883361339569092,1,96.0083,-1.1291504,1,95.565796,-8.81958,1,99.51782,-11.566162,1
286,112.68616,14.877319,1,105.20935,9.963989,1,112.81128692627,0.679021835327148,1,95.88623,-0.91552734,1,95.00122,-8.666992,1,98.846436,-11.535645,1
287,112.838745,14.953613,1,105.3772,10.025024,1,112.713821411133,0.529031276702881,1,95.76416,-0.77819824,1,94.51294,-8.392334,1,98.19031,-11.474609,1
288,113.00659,15.029907,1,105.60608,10.20813,1,112.656524658203,0.497762203216553,1,95.68787,-0.5340576,1,94.03992,-8.239746,1,97.579956,-11.459351,1
289,113.05237,15.12146,1,105.789185,10.3302,1,112.532386779785,0.404008865356445,1,95.55054,-0.38146973,1,93.566895,-8.010864,1,96.92383,-11.413574,1
290,113.23547,15.197754,1,105.95703,10.421753,1,112.328247070313,0.252799987792969,1,95.336914,-0.289917,1,93.07861,-7.9345703,1,96.221924,-11.352539,1
291,113.49487,15.304565,1,106.155396,10.543823,1,112.060188293457,0.0971298217773438,1,95.062256,-0.16784668,1,92.62085,-7.659912,1,95.62683,-11.306763,1
292,113.723755,15.396118,1,106.47583,10.757446,1,111.848403930664,0.0273265838623047,1,94.84863,-0.061035156,1,92.163086,-7.507324,1,95.047,-11.260986,1
293,114.02893,15.50293,1,106.62842,10.925293,1,111.680419921875,0.0405645370483398,1,94.680786,0.15258789,1,91.674805,-7.369995,1,94.46716,-11.184692,1
294,114.31885,15.594482,1,106.82678,11.199951,1,111.436195373535,0.120541572570801,1,94.436646,0.24414062,1,91.21704,-7.2021484,1,93.933105,-11.138916,1
295,114.6698,15.701294,1,106.94885,11.367798,1,111.160568237305,0.131185531616211,1,94.16199,0.35095215,1,90.774536,-7.0495605,1,93.33801,-11.0321045,1
296,114.91394,15.762329,1,107.162476,11.459351,1,110.975959777832,0.0814180374145508,1,93.97888,0.39672852,1,90.34729,-6.8969727,1,92.74292,-10.971069,1
297,115.20386,15.74707,1,107.34558,11.566162,1,110.928634643555,0.113574028015137,1,93.933105,0.50354004,1,90.0116,-6.5460205,1,92.178345,-10.894775,1
298,115.448,15.716553,1,107.57446,11.642456,1,110.973808288574,0.134005546569824,1,93.97888,0.5493164,1,89.660645,-6.4697266,1,91.61377,-10.83374,1
299,115.66162,15.686035,1,107.788086,11.642456,1,110.909278869629,0.0554742813110352,1,93.91785,0.5950928,1,89.43176,-6.0272217,1,91.00342,-10.818481,1
300,115.92102,15.625,1,107.95593,11.642456,1,111.078079223633,0.055729866027832,1,94.08569,0.5645752,1,89.12659,-5.9661865,1,90.43884,-10.757446,1
301,116.18042,15.594482,1,108.184814,11.611938,1,111.336303710938,0.0331602096557617,1,94.34509,0.579834,1,88.95874,-5.6762695,1,89.904785,-10.620117,1
302,116.47034,15.487671,1,108.4137,11.627197,1,111.690460205078,0.083247184753418,1,94.696045,0.5187988,1,88.86719,-5.4626465,1,89.401245,-10.513306,1
303,116.760254,15.457153,1,108.673096,11.611938,1,112.179656982422,0.135701179504395,1,95.184326,0.5340576,1,89.05029,-5.0964355,1,89.08081,-10.238647,1
304,116.97388,15.380859,1,109.00879,11.520386,1,112.829765319824,0.144968032836914,1,95.840454,0.74768066,1,89.58435,-4.5776367,1,88.638306,-10.025024,1
305,117.14172,15.396118,1,109.28345,11.428833,1,113.74471282959,0.288946151733398,1,96.7865,1.4801025,1,90.59143,-4.0740967,1,88.36365,-9.643555,1
306,117.43164,15.350342,1,109.60388,11.33728,1,114.751724243164,0.497550010681152,1,97.854614,2.3651123,1,92.37671,-3.692627,1,88.974,-8.972168,1
307,117.72156,15.380859,1,110.03113,11.428833,1,115.848693847656,0.933315277099609,1,98.99902,3.189087,1,94.58923,-3.3874512,1,91.156006,-8.743286,1
308,118.011475,15.426636,1,110.4126,11.611938,1,116.977439880371,1.56689548492432,1,100.14343,3.9367676,1,96.847534,-3.1280518,1,94.25354,-8.94165,1
309,118.30139,15.487671,1,110.87036,11.84082,1,118.008567810059,2.19478416442871,1,101.16577,4.501343,1,99.18213,-2.7770996,1,97.64099,-9.094238,1
310,118.57605,15.594482,1,111.09924,12.023926,1,118.254447937012,2.39049434661865,1,101.486206,5.1879883,1,101.379395,-2.5024414,1,101.10474,-9.048462,1
311,118.69812,15.777588,1,111.35864,12.191772,1,119.664611816406,3.53089237213135,1,102.72217,4.928589,1,103.34778,-2.2888184,1,103.95813,-8.834839,1
312,118.82019,16.00647,1,111.694336,12.34436,1,120.481300354004,4.1718864440918,1,103.48511,4.5318604,1,105.026245,-2.2735596,1,106.26221,-8.69751,1
313,118.896484,16.281128,1,111.831665,12.313843,1,121.008079528809,4.58121681213379,1,104.019165,3.9672852,1,106.50635,-2.380371,1,108.35266,-8.529663,1
314,118.91174,16.555786,1,111.90796,12.283325,1,121.54663848877,5.13518619537354,1,104.644775,3.3111572,1,107.91016,-2.6855469,1,110.47363,-8.4991455,1
315,118.86597,16.799927,1,112.03003,12.22229,1,121.995651245117,5.53750228881836,1,105.285645,2.4108887,1,109.26819,-3.036499,1,112.56409,-8.422852,1
316,118.86597,16.998291,1,112.1521,12.237549,1,122.288887023926,5.81528091430664,1,105.83496,1.5411377,1,110.580444,-3.463745,1,114.39514,-8.407593,1
317,118.80493,17.196655,1,112.13684,12.252808,1,122.265419006348,5.81759214401245,1,106.23169,0.16784668,1,111.78589,-3.8146973,1,116.07361,-8.285522,1
318,118.85071,17.364502,1,112.22839,12.268066,1,122.679153442383,6.37047958374023,1,107.07092,-0.36621094,1,112.77771,-4.043579,1,117.53845,-8.087158,1
319,118.7439,17.501831,1,112.25891,12.359619,1,123.079109191895,7.17084836959839,1,107.925415,-0.5340576,1,113.69324,-4.2266846,1,118.78967,-7.7819824,1
320,118.759155,17.623901,1,112.28943,12.374878,1,123.206878662109,7.39398002624512,1,108.291626,-0.76293945,1,114.471436,-4.3182373,1,119.81201,-7.4768066,1
321,118.759155,17.715454,1,112.27417,12.390137,1,123.416915893555,7.93600845336914,1,108.97827,-1.0375977,1,115.1886,-4.3792725,1,120.62073,-7.1868896,1
322,118.6676,17.852783,1,112.27417,12.4053955,1,123.574691772461,8.36830139160156,1,109.558105,-1.2512207,1,115.90576,-4.3945312,1,121.42944,-6.866455,1
323,118.69812,17.990112,1,112.28943,12.4053955,1,123.721305847168,8.75680923461914,1,110.183716,-1.5258789,1,116.607666,-4.4403076,1,122.32971,-6.6986084,1
324,118.65234,18.112183,1,112.350464,12.374878,1,123.904815673828,9.13498306274414,1,110.99243,-1.9226074,1,117.46216,-4.6081543,1,123.45886,-6.5460205,1
325,118.621826,18.295288,1,112.472534,12.390137,1,124.120948791504,9.50666236877441,1,111.92322,-2.3345947,1,118.54553,-4.7454834,1,124.64905,-6.30188,1
326,118.499756,18.463135,1,112.53357,12.359619,1,124.229042053223,9.67336273193359,1,113.1134,-3.189087,1,119.82727,-5.065918,1,126.12915,-6.134033,1
327,118.45398,18.630981,1,112.64038,12.283325,1,124.428153991699,10.0364570617676,1,114.486694,-3.753662,1,121.30737,-5.4473877,1,127.85339,-6.0272217,1
328,118.42346,18.814087,1,112.76245,12.191772,1,124.62589263916,10.3865928649902,1,116.04309,-4.2877197,1,122.94006,-5.8898926,1,129.54712,-6.0272217,1
329,118.28613,18.936157,1,112.960815,12.069702,1,124.853805541992,10.4707050323486,1,117.52319,-4.8675537,1,124.557495,-6.3323975,1,131.17981,-6.134033,1
330,118.270874,18.997192,1,113.05237,11.962891,1,124.975860595703,10.6100101470947,1,118.97278,-5.2948,1,126.068115,-6.668091,1,132.79724,-6.30188,1
331,118.2251,18.997192,1,113.26599,11.810303,1,125.208869934082,10.6408252716064,1,120.285034,-5.630493,1,127.48718,-7.0495605,1,134.26208,-6.439209,1
332,118.20984,18.920898,1,113.49487,11.611938,1,125.446311950684,10.5334548950195,1,121.414185,-5.9814453,1,128.61633,-7.4920654,1,135.36072,-6.713867,1
333,118.1488,18.76831,1,113.66272,11.398315,1,125.621444702148,10.4038314819336,1,122.23816,-6.2561035,1,129.47083,-8.19397,1,136.13892,-7.583618,1
334,118.34717,18.615723,1,113.76953,11.245728,1,125.724014282227,10.2014741897583,1,122.63489,-6.515503,1,129.82178,-9.033203,1,136.53564,-8.834839,1
335,118.515015,18.371582,1,113.93738,10.986328,1,125.870300292969,9.71932411193848,1,122.57385,-6.958008,1,129.62341,-10.101318,1,136.19995,-10.513306,1
336,118.60657,18.051147,1,114.04419,10.757446,1,125.919242858887,9.03027820587158,1,121.917725,-7.4920654,1,128.75366,-10.910034,1,135.3302,-11.611938,1
337,118.72864,17.700195,1,114.04419,10.4522705,1,125.887916564941,8.52197456359863,1,121.23108,-7.827759,1,127.91443,-11.169434,1,134.52148,-11.672974,1
338,118.82019,17.425537,1,113.95264,10.192871,1,125.812675476074,8.36544418334961,1,120.59021,-7.8125,1,127.22778,-11.21521,1,133.78906,-11.642456,1
339,118.78967,17.25769,1,113.83057,10.025024,1,125.709648132324,8.32576084136963,1,120.010376,-7.6904297,1,126.51062,-11.21521,1,133.08716,-11.688232,1
340,118.774414,17.227173,1,113.64746,10.009766,1,125.519088745117,8.25919628143311,1,119.35425,-7.583618,1,125.823975,-11.21521,1,132.38525,-11.688232,1
341,118.80493,17.181396,1,113.601685,10.08606,1,125.430053710938,8.06375694274902,1,118.71338,-7.5531006,1,125.09155,-11.199951,1,131.63757,-11.703491,1
342,118.86597,17.196655,1,113.43384,10.101318,1,125.244979858398,7.98071765899658,1,118.10303,-7.446289,1,124.46594,-11.21521,1,130.98145,-11.734009,1
343,118.95752,17.181396,1,113.3728,10.192871,1,125.132095336914,7.80142498016357,1,117.46216,-7.369995,1,123.82507,-11.245728,1,130.31006,-11.71875,1
344,119.04907,17.150879,1,113.29651,10.238647,1,125.075912475586,7.94832515716553,1,116.95862,-6.9885254,1,123.09265,-11.199951,1,129.60815,-11.688232,1
345,119.15588,17.089844,1,113.220215,10.238647,1,124.888732910156,7.4376392364502,1,116.19568,-7.171631,1,122.45178,-11.184692,1,128.87573,-11.672974,1
346,119.262695,17.028809,1,113.1897,10.299683,1,124.862968444824,7.51852989196777,1,115.7074,-6.80542,1,121.73462,-11.169434,1,128.15857,-11.688232,1
347,119.30847,16.952515,1,113.06763,10.3302,1,124.601341247559,7.0176043510437,1,114.94446,-6.9732666,1,121.04797,-11.154175,1,127.41089,-11.688232,1
348,119.30847,16.799927,1,112.976074,10.345459,1,124.49454498291,6.98023557662964,1,114.37988,-6.6833496,1,120.34607,-11.09314,1,126.708984,-11.688232,1
349,119.30847,16.75415,1,112.86926,10.360718,1,124.349342346191,6.86673879623413,1,113.845825,-6.500244,1,119.659424,-11.0321045,1,125.97656,-11.703491,1
350,119.33899,16.63208,1,112.68616,10.391235,1,124.128364562988,6.77515888214111,1,113.26599,-6.30188,1,119.018555,-11.016846,1,125.2594,-11.703491,1
351,119.277954,16.525269,1,112.54883,10.360718,1,123.807525634766,6.20840692520142,1,112.53357,-6.515503,1,118.392944,-10.971069,1,124.572754,-11.703491,1
352,119.24744,16.37268,1,112.48779,10.299683,1,123.772247314453,6.21788644790649,1,112.075806,-6.1187744,1,117.630005,-10.925293,1,123.85559,-11.734009,1
353,119.23218,16.174316,1,112.39624,10.314941,1,123.591423034668,5.99431896209717,1,111.465454,-5.92041,1,116.989136,-10.864258,1,123.13843,-11.703491,1
354,119.17114,15.991211,1,112.27417,10.20813,1,123.473350524902,5.89785671234131,1,111.00769,-5.6610107,1,116.2262,-10.757446,1,122.421265,-11.703491,1
355,119.09485,15.869141,1,112.12158,10.131836,1,123.259826660156,5.66646289825439,1,110.48889,-5.554199,1,115.57007,-10.681152,1,121.71936,-11.672974,1
356,119.07959,15.686035,1,111.968994,10.070801,1,123.036697387695,5.43333435058594,1,109.92432,-5.3863525,1,114.91394,-10.604858,1,121.06323,-11.627197,1
357,118.85071,15.579224,1,111.75537,9.963989,1,122.778930664063,5.22255802154541,1,109.375,-5.2337646,1,114.24255,-10.513306,1,120.31555,-11.642456,1
358,118.80493,15.411377,1,111.572266,9.933472,1,122.539276123047,5.06267166137695,1,108.84094,-5.004883,1,113.57117,-10.482788,1,119.56787,-11.642456,1
359,118.774414,15.319824,1,111.41968,9.933472,1,122.175720214844,4.6129903793335,1,108.20007,-5.065918,1,112.960815,-10.360718,1,118.881226,-11.611938,1
360,118.69812,15.258789,1,111.23657,9.979248,1,121.892959594727,4.46187496185303,1,107.71179,-4.91333,1,112.25891,-10.20813,1,118.1488,-11.59668,1
361,118.54553,15.197754,1,111.083984,10.009766,1,121.669281005859,4.35720062255859,1,107.25403,-4.6539307,1,111.75537,-10.238647,1,117.43164,-11.581421,1
362,118.515015,15.2282715,1,110.97717,10.08606,1,121.420654296875,4.17558765411377,1,106.76575,-4.4403076,1,111.16028,-10.1623535,1,116.72974,-11.535645,1
363,118.36243,15.197754,1,110.74829,10.08606,1,121.127555847168,4.06352710723877,1,106.277466,-4.211426,1,110.458374,-10.070801,1,116.01257,-11.550903,1
364,118.19458,15.2282715,1,110.687256,10.131836,1,120.917495727539,3.85949921607971,1,105.85022,-4.0130615,1,109.83276,-9.963989,1,115.29541,-11.550903,1
365,118.16406,15.258789,1,110.61096,10.192871,1,120.732513427734,3.74661064147949,1,105.48401,-3.768921,1,109.313965,-9.918213,1,114.593506,-11.535645,1
366,118.19458,15.258789,1,110.54993,10.238647,1,120.523048400879,3.56505441665649,1,105.07202,-3.5247803,1,108.64258,-9.780884,1,113.93738,-11.474609,1
367,118.118286,15.289307,1,110.53467,10.345459,1,120.353134155273,3.44634771347046,1,104.72107,-3.2348633,1,108.01697,-9.628296,1,113.220215,-11.428833,1
368,117.996216,15.335083,1,110.4126,10.421753,1,120.097137451172,3.33586597442627,1,104.32434,-3.0059814,1,107.3761,-9.536743,1,112.579346,-11.428833,1
369,117.889404,15.426636,1,110.35156,10.437012,1,119.867797851563,3.12665128707886,1,103.94287,-2.822876,1,106.84204,-9.384155,1,111.846924,-11.398315,1
370,117.874146,15.457153,1,110.27527,10.513306,1,119.663360595703,3.03910255432129,1,103.59192,-2.5024414,1,106.21643,-9.307861,1,111.206055,-11.383057,1
371,117.81311,15.50293,1,110.22949,10.559082,1,119.524154663086,2.96900939941406,1,103.34778,-2.2583008,1,105.68237,-9.216309,1,110.50415,-11.383057,1
372,117.67578,15.609741,1,110.21423,10.574341,1,119.394134521484,2.84585857391357,1,103.10364,-2.0141602,1,105.10254,-9.0789795,1,109.84802,-11.3220215,1
373,117.7063,15.686035,1,110.22949,10.604858,1,119.301681518555,2.75022411346436,1,102.90527,-1.739502,1,104.62952,-9.094238,1,109.20715,-11.3220215,1
374,117.614746,15.777588,1,110.22949,10.635376,1,119.168304443359,2.62927627563477,1,102.69165,-1.5563965,1,103.97339,-8.81958,1,108.551025,-11.306763,1
375,117.59949,15.884399,1,110.321045,10.665894,1,119.152786254883,2.54183006286621,1,102.58484,-1.2664795,1,103.48511,-8.850098,1,107.83386,-11.230469,1
376,117.67578,15.945435,1,110.47363,10.696411,1,119.071716308594,2.32545375823975,1,102.41699,-1.083374,1,102.98157,-8.81958,1,107.22351,-11.230469,1
377,117.73682,16.00647,1,110.61096,10.726929,1,118.949501037598,2.09740400314331,1,102.21863,-0.91552734,1,102.43225,-8.773804,1,106.52161,-11.230469,1
378,117.84363,16.113281,1,110.702515,10.818481,1,118.893013000488,2.04832315444946,1,102.127075,-0.76293945,1,101.94397,-8.621216,1,105.83496,-11.21521,1
379,117.93518,16.235352,1,110.99243,10.925293,1,118.892013549805,1.89220571517944,1,102.06604,-0.5340576,1,101.40991,-8.468628,1,105.148315,-11.184692,1
380,118.133545,16.38794,1,111.22131,11.09314,1,118.830421447754,1.81405448913574,1,101.95923,-0.2746582,1,100.84534,-8.19397,1,104.44641,-11.123657,1
381,118.43872,16.586304,1,111.465454,11.3220215,1,118.876365661621,1.88388204574585,1,101.989746,-0.076293945,1,100.3418,-8.026123,1,103.79028,-11.0321045,1
382,118.83545,16.815186,1,111.709595,11.657715,1,118.784393310547,1.96507835388184,1,101.882935,0.1373291,1,99.94507,-7.736206,1,103.16467,-11.001587,1
383,119.21692,17.028809,1,112.06055,11.932373,1,118.807769775391,2.00891208648682,1,101.882935,0.4119873,1,99.51782,-7.446289,1,102.5238,-10.940552,1
384,119.67468,17.211914,1,112.30469,12.176514,1,118.773132324219,2.06912899017334,1,101.83716,0.5950928,1,99.19739,-7.171631,1,101.95923,-10.848999,1
385,120.010376,17.39502,1,112.6709,12.451172,1,118.832046508789,2.15358829498291,1,101.882935,0.8392334,1,98.80066,-6.8969727,1,101.486206,-10.7421875,1
386,120.54443,17.456055,1,113.03711,12.680054,1,118.962089538574,2.24479532241821,1,102.005005,1.0375977,1,98.526,-6.576538,1,100.95215,-10.620117,1
387,120.94116,17.547607,1,113.29651,12.878418,1,119.177467346191,2.41828536987305,1,102.21863,1.2359619,1,98.29712,-6.2713623,1,100.5249,-10.528564,1
388,121.24634,17.63916,1,113.586426,13.000488,1,119.51936340332,2.56975269317627,1,102.55432,1.4801025,1,98.17505,-5.9814453,1,100.0061,-10.391235,1
389,121.50574,17.700195,1,113.92212,13.137817,1,119.8046875,2.67858982086182,1,102.82898,1.7700195,1,98.38867,-5.142212,1,99.609375,-10.299683,1
390,121.94824,17.715454,1,114.151,13.183594,1,120.833198547363,3.21623754501343,1,103.86658,2.1514893,1,98.75488,-4.486084,1,99.349976,-9.963989,1
391,122.2229,17.745972,1,114.56299,13.214111,1,119.88011932373,2.4564094543457,1,102.890015,3.036499,1,99.59412,-3.6621094,1,99.18213,-9.567261,1
392,122.46704,17.791748,1,114.95972,13.2751465,1,121.878189086914,3.47031402587891,1,104.888916,4.0740967,1,100.92163,-3.1738281,1,99.33472,-8.865356,1
393,122.81799,17.77649,1,115.26489,13.48877,1,123.207290649414,4.49330902099609,1,106.21643,5.050659,1,102.874756,-2.4719238,1,100.738525,-8.087158,1
394,123.10791,17.8833,1,115.58533,13.793945,1,123.950958251953,5.19067478179932,1,106.96411,5.859375,1,104.888916,-1.449585,1,103.31726,-7.5683594,1
395,123.413086,17.929077,1,115.9668,14.144897,1,124.706840515137,5.92227172851563,1,107.71179,6.3323975,1,106.68945,-1.2207031,1,106.21643,-7.293701,1
396,123.62671,17.990112,1,116.2262,14.251709,1,125.352516174316,6.46002578735352,1,108.35266,6.5307617,1,108.45947,-0.90026855,1,109.02405,-6.942749,1
397,123.85559,18.096924,1,116.4093,14.282227,1,125.789207458496,6.79775047302246,1,108.795166,6.3476562,1,109.98535,-0.64086914,1,111.328125,-6.591797,1
398,123.99292,18.157959,1,116.6687,14.205933,1,126.217674255371,6.93839454650879,1,109.25293,5.844116,1,111.26709,-0.62561035,1,113.03711,-6.42395,1
399,124.25232,18.249512,1,116.882324,13.99231,1,126.76293182373,7.18249034881592,1,109.87854,5.203247,1,112.39624,-0.8544922,1,114.68506,-6.576538,1
400,124.32861,18.325806,1,117.126465,13.73291,1,127.194000244141,7.20261573791504,1,110.443115,4.3029785,1,113.601685,-1.2664795,1,116.47034,-6.790161,1
401,124.52698,18.325806,1,117.43164,13.61084,1,127.699020385742,7.39949655532837,1,111.17554,3.40271,1,114.88342,-1.739502,1,118.46924,-6.92749,1
402,124.694824,18.341064,1,117.752075,13.48877,1,128.066207885742,7.35536336898804,1,111.80115,2.4108887,1,116.28723,-2.3498535,1,120.34607,-7.003784,1
403,124.72534,18.310547,1,117.85889,13.336182,1,128.415618896484,7.63044452667236,1,112.50305,1.6479492,1,117.492676,-2.9144287,1,122.039795,-6.9732666,1
404,124.923706,18.341064,1,118.02673,13.2751465,1,128.769241333008,7.92737007141113,1,113.29651,0.88500977,1,118.4845,-3.3111572,1,123.428345,-7.080078,1
405,124.98474,18.341064,1,118.2251,13.198853,1,129.085968017578,8.09577083587647,1,113.95264,0.35095215,1,119.4458,-3.6773682,1,124.52698,-7.080078,1
406,125.16785,18.371582,1,118.36243,13.1073,1,129.326293945313,8.22943496704102,1,114.50195,-0.091552734,1,120.25452,-3.8909912,1,125.442505,-7.0495605,1
407,125.15259,18.371582,1,118.46924,13.092041,1,129.454727172852,8.26307678222656,1,114.89868,-0.5187988,1,120.88013,-4.0130615,1,126.26648,-6.942749,1
408,125.2594,18.38684,1,118.59131,13.076782,1,129.659896850586,8.44144344329834,1,115.38696,-0.79345703,1,121.55151,-4.043579,1,127.02942,-6.7749023,1
409,125.35095,18.432617,1,118.68286,13.076782,1,129.87678527832,8.75289058685303,1,115.93628,-0.9765625,1,122.10083,-4.0283203,1,127.76184,-6.4849854,1
410,125.48828,18.508911,1,118.83545,13.046265,1,130.169982910156,9.1056489944458,1,116.607666,-1.1444092,1,122.7417,-4.0740967,1,128.54004,-6.3171387,1
411,125.48828,18.554688,1,119.03381,13.015747,1,130.475128173828,9.39687347412109,1,117.30957,-1.3580322,1,123.565674,-4.211426,1,129.47083,-6.30188,1
412,125.62561,18.630981,1,119.1864,12.9852295,1,130.691711425781,9.5752477645874,1,118.07251,-1.8157959,1,124.420166,-4.425049,1,130.44739,-6.286621,1
413,125.808716,18.676758,1,119.33899,13.000488,1,130.944244384766,9.94790172576904,1,119.04907,-2.1972656,1,125.320435,-4.6691895,1,131.48499,-6.3171387,1
414,125.91553,18.753052,1,119.53735,12.9852295,1,131.193572998047,10.1334648132324,1,120.010376,-2.670288,1,126.46484,-4.9591064,1,132.65991,-6.3323975,1
415,125.91553,18.814087,1,119.7052,12.893677,1,131.414657592773,10.2690353393555,1,121.04797,-3.2043457,1,127.593994,-5.279541,1,133.98743,-6.286621,1
416,125.930786,18.875122,1,119.85779,12.802124,1,131.633972167969,10.4952831268311,1,122.2229,-3.6621094,1,128.79944,-5.5999756,1,135.3302,-6.30188,1
417,125.823975,18.875122,1,119.91882,12.649536,1,131.739379882813,10.5820779800415,1,123.33679,-4.196167,1,130.00488,-5.92041,1,136.65771,-6.378174,1
418,125.701904,18.859863,1,119.99512,12.496948,1,131.852233886719,10.6506805419922,1,124.420166,-4.638672,1,131.28662,-6.2408447,1,137.9242,-6.378174,1
419,125.53406,18.798828,1,120.010376,12.237549,1,131.905181884766,10.6521797180176,1,125.50354,-5.0964355,1,132.43103,-6.591797,1,139.12964,-6.4086914,1
420,125.33569,18.692017,1,120.05615,11.947632,1,131.969039916992,10.5043382644653,1,126.434326,-5.569458,1,133.37708,-7.0648193,1,140.15198,-6.713867,1
421,125.21362,18.52417,1,119.9646,11.672974,1,131.885589599609,10.2982530593872,1,127.197266,-6.0424805,1,134.27734,-7.8582764,1,140.8844,-7.461548,1
422,124.938965,18.295288,1,119.85779,11.398315,1,131.767593383789,9.92986011505127,1,127.700806,-6.576538,1,134.7351,-8.94165,1,141.34216,-8.804321,1
423,124.801636,17.959595,1,119.766235,11.001587,1,131.654724121094,9.36943817138672,1,127.73132,-7.171631,1,134.70459,-10.192871,1,141.25061,-10.528564,1
424,124.572754,17.501831,1,119.58313,10.513306,1,131.445602416992,8.70173168182373,1,127.22778,-7.7667236,1,134.01794,-11.245728,1,140.51819,-11.932373,1
425,124.46594,16.998291,1,119.36951,9.94873,1,131.213470458984,8.0199089050293,1,126.40381,-8.285522,1,133.08716,-11.71875,1,139.61792,-12.237549,1
426,124.298096,16.571045,1,119.07959,9.490967,1,130.949142456055,7.72642707824707,1,125.73242,-8.453369,1,132.30896,-11.871338,1,138.96179,-12.268066,1
427,124.02344,16.204834,1,118.85071,9.094238,1,130.74528503418,7.50711917877197,1,125.061035,-8.514404,1,131.5918,-11.932373,1,138.16833,-12.283325,1
428,123.82507,15.960693,1,118.59131,8.865356,1,130.500869750977,7.39494132995606,1,124.38965,-8.468628,1,130.85938,-11.978149,1,137.49695,-12.34436,1
429,123.687744,15.762329,1,118.34717,8.743286,1,130.258117675781,7.28413152694702,1,123.71826,-8.407593,1,130.17273,-12.039185,1,136.8103,-12.34436,1
430,123.62671,15.579224,1,118.20984,8.590698,1,130.105682373047,7.01314544677734,1,123.01636,-8.43811,1,129.40979,-12.023926,1,136.07788,-12.34436,1
431,123.58093,15.426636,1,118.07251,8.392334,1,129.956069946289,6.72474479675293,1,122.32971,-8.468628,1,128.7384,-12.069702,1,135.26917,-12.313843,1
432,123.48938,15.258789,1,117.91992,8.270264,1,129.793746948242,6.53465461730957,1,121.658325,-8.392334,1,128.02124,-12.069702,1,134.56726,-12.313843,1
433,123.53516,15.106201,1,117.81311,8.148193,1,129.668930053711,6.29360103607178,1,121.0022,-8.331299,1,127.334595,-12.084961,1,133.8501,-12.313843,1
434,123.48938,14.953613,1,117.64526,8.026123,1,129.467071533203,5.96588611602783,1,120.269775,-8.331299,1,126.66321,-12.054443,1,133.13293,-12.34436,1
435,123.59619,14.801025,1,117.47742,7.965088,1,129.267303466797,5.72938394546509,1,119.68994,-8.31604,1,125.946045,-12.039185,1,132.46155,-12.298584,1
436,123.5199,14.602661,1,117.41638,7.9193115,1,129.144805908203,5.38078260421753,1,119.03381,-8.285522,1,125.28992,-12.008667,1,131.74438,-12.313843,1
437,123.53516,14.480591,1,117.29431,7.827759,1,128.987487792969,5.13150215148926,1,118.392944,-8.163452,1,124.557495,-11.978149,1,131.01196,-12.298584,1
438,123.550415,14.312744,1,117.111206,7.8125,1,128.743362426758,4.86411285400391,1,117.767334,-8.117676,1,123.85559,-11.962891,1,130.2948,-12.313843,1
439,123.565674,14.144897,1,117.06543,7.736206,1,128.610641479492,4.4638671875,1,117.111206,-8.056641,1,123.15369,-11.917114,1,129.57764,-12.313843,1
440,123.550415,14.007568,1,116.89758,7.6904297,1,128.377838134766,4.19706201553345,1,116.53137,-7.9956055,1,122.49756,-11.917114,1,128.86047,-12.329102,1
441,123.48938,13.870239,1,116.71448,7.7056885,1,128.098846435547,3.9114682674408,1,115.90576,-7.9345703,1,121.81091,-11.84082,1,128.15857,-12.298584,1
442,123.38257,13.73291,1,116.51611,7.6293945,1,127.87230682373,3.75165677070618,1,115.34119,-7.736206,1,121.1853,-11.825562,1,127.456665,-12.298584,1
443,123.306274,13.626099,1,116.4093,7.6446533,1,127.647834777832,3.43806481361389,1,114.730835,-7.6141357,1,120.49866,-11.779785,1,126.75476,-12.298584,1
444,123.184204,13.48877,1,116.19568,7.583618,1,127.379783630371,3.23437976837158,1,114.16626,-7.461548,1,119.84253,-11.734009,1,126.068115,-12.268066,1
445,123.07739,13.336182,1,115.9668,7.537842,1,127.089599609375,3.03414249420166,1,113.586426,-7.293701,1,119.17114,-11.703491,1,125.320435,-12.298584,1
446,122.83325,13.22937,1,115.72266,7.507324,1,126.811187744141,2.91990876197815,1,113.05237,-7.0648193,1,118.4845,-11.611938,1,124.66431,-12.298584,1
447,122.787476,13.153076,1,115.493774,7.507324,1,126.522514343262,2.77796268463135,1,112.53357,-6.881714,1,117.889404,-11.535645,1,123.97766,-12.283325,1
448,122.57385,13.061523,1,115.29541,7.522583,1,126.200744628906,2.51520895957947,1,111.953735,-6.7596436,1,117.126465,-11.474609,1,123.2605,-12.283325,1
449,122.406006,13.031006,1,115.097046,7.5683594,1,125.907012939453,2.3583083152771,1,111.43494,-6.5612793,1,116.45508,-11.383057,1,122.543335,-12.283325,1
450,122.13135,13.015747,1,114.89868,7.6141357,1,125.599220275879,2.18288326263428,1,110.88562,-6.3323975,1,115.78369,-11.291504,1,121.81091,-12.283325,1
451,122.00928,13.046265,1,114.65454,7.675171,1,125.268920898438,2.07740545272827,1,110.36682,-6.1035156,1,115.097046,-11.169434,1,121.09375,-12.283325,1
452,121.85669,13.061523,1,114.44092,7.8582764,1,124.8974609375,1.97093892097473,1,109.84802,-5.935669,1,114.593506,-11.09314,1,120.391846,-12.252808,1
453,121.62781,13.122559,1,114.151,7.9803467,1,124.511711120605,1.92595791816711,1,109.32922,-5.722046,1,113.95264,-11.001587,1,119.659424,-12.252808,1
454,121.414185,13.198853,1,113.92212,8.148193,1,124.227836608887,2.00065946578979,1,108.90198,-5.355835,1,113.26599,-10.879517,1,118.95752,-12.22229,1
455,121.20056,13.290405,1,113.601685,8.224487,1,123.874778747559,2.02257919311523,1,108.444214,-5.1116943,1,112.6709,-10.803223,1,118.255615,-12.22229,1
456,120.95642,13.320923,1,113.38806,8.422852,1,123.451103210449,1.88562822341919,1,107.91016,-5.004883,1,112.06055,-10.696411,1,117.53845,-12.22229,1
457,120.80383,13.397217,1,113.204956,8.4991455,1,123.20783996582,1.87024164199829,1,107.52869,-4.699707,1,111.40442,-10.650635,1,116.83655,-12.207031,1
458,120.55969,13.427734,1,113.02185,8.575439,1,122.878211975098,1.7305793762207,1,107.055664,-4.486084,1,110.74829,-10.5896,1,116.104126,-12.207031,1
459,120.529175,13.504028,1,112.80823,8.651733,1,122.550071716309,1.6448540687561,1,106.61316,-4.272461,1,110.1532,-10.467529,1,115.448,-12.130737,1
460,120.36133,13.534546,1,112.701416,8.666992,1,122.310333251953,1.47889709472656,1,106.20117,-3.9520264,1,109.51233,-10.345459,1,114.730835,-12.1154785,1
461,120.13245,13.580322,1,112.62512,8.743286,1,122.094367980957,1.37217473983765,1,105.88074,-3.7384033,1,108.947754,-10.269165,1,114.01367,-12.10022,1
462,120.010376,13.595581,1,112.579346,8.81958,1,121.947593688965,1.32052087783813,1,105.62134,-3.4179688,1,108.3374,-10.1623535,1,113.32703,-12.10022,1
463,119.9646,13.626099,1,112.48779,8.865356,1,121.732772827148,1.21484804153442,1,105.3009,-3.1433105,1,107.74231,-10.009766,1,112.6709,-12.039185,1
464,119.82727,13.641357,1,112.44202,8.865356,1,121.54638671875,1.04804134368896,1,105.01099,-2.89917,1,107.19299,-9.94873,1,112.03003,-12.084961,1
465,119.82727,13.565063,1,112.4115,8.834839,1,121.414680480957,0.901196479797363,1,104.79736,-2.6855469,1,106.674194,-9.857178,1,111.43494,-12.054443,1
466,119.61365,13.580322,1,112.350464,8.7890625,1,121.262664794922,0.753350734710693,1,104.56848,-2.456665,1,106.12488,-9.735107,1,110.71777,-12.023926,1
467,119.506836,13.519287,1,112.38098,8.850098,1,121.07568359375,0.579538822174072,1,104.30908,-2.2277832,1,105.545044,-9.689331,1,110.04639,-11.978149,1
468,119.400024,13.534546,1,112.350464,8.81958,1,120.942985534668,0.442914962768555,1,104.12598,-2.0446777,1,104.98047,-9.597778,1,109.42078,-11.962891,1
469,119.35425,13.549805,1,112.350464,8.804321,1,120.760375976563,0.24433422088623,1,103.897095,-1.9073486,1,104.49219,-9.552002,1,108.74939,-11.962891,1
470,119.35425,13.549805,1,112.335205,8.804321,1,120.569435119629,0.0752034187316895,1,103.66821,-1.7547607,1,103.94287,-9.429932,1,108.062744,-11.901855,1
471,119.32373,13.61084,1,112.44202,8.865356,1,120.41983795166,-0.0987005233764648,1,103.48511,-1.5869141,1,103.36304,-9.384155,1,107.421875,-11.886597,1
472,119.43054,13.671875,1,112.51831,8.94165,1,120.199485778809,-0.277875900268555,1,103.24097,-1.4648438,1,102.84424,-9.262085,1,106.71997,-11.886597,1
473,119.659424,13.73291,1,112.60986,9.033203,1,119.974494934082,-0.441091537475586,1,102.996826,-1.3122559,1,102.21863,-9.033203,1,106.0791,-11.810303,1
474,119.73572,13.824463,1,112.6709,9.155273,1,119.681381225586,-0.583988189697266,1,102.69165,-1.1749268,1,101.66931,-8.880615,1,105.3772,-11.779785,1
475,119.93408,13.839722,1,112.79297,9.216309,1,119.415199279785,-0.790989398956299,1,102.41699,-1.0375977,1,101.08948,-8.712769,1,104.73633,-11.734009,1
476,120.11719,13.824463,1,112.854004,9.231567,1,119.187942504883,-0.960647106170654,1,102.18811,-0.88500977,1,100.6012,-8.468628,1,104.034424,-11.59668,1
477,120.34607,13.748169,1,112.99133,9.231567,1,118.984245300293,-1.16482543945313,1,101.989746,-0.7324219,1,100.128174,-8.2092285,1,103.40881,-11.566162,1
478,120.55969,13.641357,1,113.14392,9.20105,1,118.770950317383,-1.39784336090088,1,101.79138,-0.5645752,1,99.63989,-8.087158,1,102.767944,-11.474609,1
479,120.83435,13.519287,1,113.31177,9.170532,1,118.549613952637,-1.62599229812622,1,101.59302,-0.4119873,1,99.12109,-7.873535,1,102.20337,-11.367798,1
480,120.98694,13.412476,1,113.41858,9.140015,1,118.306243896484,-1.81948852539063,1,101.379395,-0.24414062,1,98.724365,-7.6446533,1,101.54724,-11.3220215,1
481,121.276855,13.259888,1,113.64746,9.094238,1,118.29549407959,-1.96902370452881,1,101.40991,0,1,98.38867,-7.3394775,1,101.0437,-11.230469,1
482,121.414185,13.22937,1,113.73901,9.0789795,1,118.364707946777,-1.99363899230957,1,101.51672,0.2746582,1,98.19031,-6.9885254,1,100.55542,-11.047363,1
483,121.58203,13.198853,1,113.95264,9.094238,1,118.918228149414,-1.83017826080322,1,102.0813,0.5187988,1,98.14453,-6.6070557,1,100.17395,-10.910034,1
484,121.7041,13.214111,1,114.18152,9.170532,1,119.392440795898,-1.63901424407959,1,102.56958,0.8087158,1,98.19031,-6.134033,1,99.79248,-10.726929,1
485,121.84143,13.2751465,1,114.364624,9.140015,1,120.145050048828,-1.37600517272949,1,103.31726,1.0375977,1,98.43445,-5.6610107,1,99.44153,-10.482788,1
486,122.07031,13.381958,1,114.56299,9.32312,1,120.940719604492,-0.841748237609863,1,104.11072,1.5563965,1,98.83118,-5.050659,1,98.89221,-10.192871,1
487,122.20764,13.427734,1,114.715576,9.460449,1,121.652931213379,-0.331034660339355,1,104.8584,2.3040771,1,99.609375,-4.348755,1,98.57178,-9.735107,1
488,122.37549,13.458252,1,114.89868,9.674072,1,122.509757995605,0.396596908569336,1,105.72815,3.112793,1,100.84534,-3.90625,1,98.83118,-9.246826,1
489,122.57385,13.549805,1,115.05127,10.009766,1,122.949768066406,0.975729942321777,1,106.18591,3.7994385,1,102.35596,-3.4332275,1,100.18921,-8.911133,1
490,122.72644,13.641357,1,115.20386,10.375977,1,123.29061126709,1.51006698608398,1,106.52161,4.3029785,1,103.94287,-3.0212402,1,102.43225,-8.895874,1
491,122.787476,13.809204,1,115.1886,10.665894,1,123.637054443359,2.14393901824951,1,106.84204,4.776001,1,105.46875,-2.5024414,1,104.84314,-8.834839,1
492,122.787476,13.946533,1,115.28015,10.910034,1,123.908767700195,2.57055377960205,1,107.08618,5.0201416,1,106.8573,-2.090454,1,107.177734,-8.468628,1
493,122.787476,14.11438,1,115.32593,10.986328,1,124.034027099609,2.72987937927246,1,107.20825,5.1574707,1,108.01697,-1.739502,1,108.88672,-8.056641,1
494,122.75696,14.297485,1,115.34119,11.047363,1,124.412292480469,3.19146919250488,1,107.49817,4.8980713,1,108.947754,-1.6326904,1,110.13794,-7.797241,1
495,122.665405,14.465332,1,115.38696,11.016846,1,124.571243286133,3.29357242584229,1,107.60498,4.3640137,1,109.87854,-1.9073486,1,111.51123,-7.8582764,1
496,122.63489,14.694214,1,115.43274,10.986328,1,124.741271972656,3.41326999664307,1,107.74231,3.6010742,1,110.8551,-2.3345947,1,113.098145,-8.041382,1
497,122.49756,14.907837,1,115.40222,10.925293,1,124.960510253906,3.67001533508301,1,107.98645,2.7313232,1,111.81641,-2.8839111,1,114.70032,-8.255005,1
498,122.37549,15.090942,1,115.32593,10.757446,1,125.290298461914,4.07079601287842,1,108.45947,1.6784668,1,112.80823,-3.5095215,1,116.28723,-8.422852,1
499,122.36023,15.289307,1,115.34119,10.650635,1,125.447952270508,4.18122529983521,1,108.795166,0.76293945,1,113.73901,-3.9215088,1,117.767334,-8.514404,1
500,122.23816,15.472412,1,115.32593,10.620117,1,125.654296875,4.51070785522461,1,109.35974,-0.33569336,1,114.715576,-4.40979,1,119.140625,-8.560181,1
501,122.177124,15.640259,1,115.32593,10.528564,1,125.946464538574,4.94249439239502,1,110.01587,-0.9918213,1,115.66162,-4.776001,1,120.37659,-8.483887,1
502,122.10083,15.762329,1,115.493774,10.604858,1,126.190452575684,5.16601324081421,1,110.54993,-1.4953613,1,116.51611,-5.0811768,1,121.49048,-8.483887,1
503,122.11609,15.960693,1,115.43274,10.665894,1,126.37003326416,5.72872400283814,1,111.26709,-2.0751953,1,117.370605,-5.3100586,1,122.4823,-8.331299,1
504,122.10083,16.159058,1,115.53955,10.772705,1,126.61784362793,6.16061925888062,1,111.55701,-1.7242432,1,118.16406,-5.3100586,1,123.550415,-7.965088,1
505,122.10083,16.38794,1,115.55481,10.803223,1,126.854202270508,6.76296329498291,1,112.701416,-2.6550293,1,119.11011,-5.3100586,1,124.77112,-7.659912,1
506,122.024536,16.616821,1,115.66162,10.940552,1,127.105621337891,7.33016395568848,1,113.73901,-3.1738281,1,120.13245,-5.340576,1,126.0376,-7.3394775,1
507,122.05505,16.937256,1,115.81421,11.062622,1,127.393486022949,7.91295433044434,1,114.76135,-3.463745,1,121.23108,-5.432129,1,127.36511,-7.0495605,1
508,122.10083,17.211914,1,116.01257,11.123657,1,127.710540771484,8.44830226898193,1,115.92102,-3.7994385,1,122.4823,-5.554199,1,128.75366,-6.6986084,1
509,122.08557,17.471313,1,116.1499,11.245728,1,127.932273864746,8.97071170806885,1,117.14172,-4.1656494,1,123.74878,-5.6610107,1,130.24902,-6.454468,1
510,122.161865,17.730713,1,116.378784,11.367798,1,128.212814331055,9.37891864776611,1,118.4845,-4.562378,1,125.22888,-5.8898926,1,131.79016,-6.286621,1
511,122.23816,17.944336,1,116.53137,11.474609,1,128.406280517578,9.74649333953857,1,119.903564,-4.974365,1,126.64795,-6.2408447,1,133.37708,-6.225586,1
512,122.31445,18.096924,1,116.68396,11.413574,1,128.591674804688,9.92817783355713,1,121.30737,-5.432129,1,128.14331,-6.6986084,1,134.87244,-6.500244,1
513,122.37549,18.112183,1,116.83655,11.352539,1,128.749786376953,9.91212368011475,1,122.55859,-5.92041,1,129.53186,-7.4157715,1,136.27625,-7.156372,1
514,122.32971,17.974854,1,117.004395,11.169434,1,128.913696289063,9.69685649871826,1,123.38257,-6.378174,1,130.34058,-8.422852,1,137.146,-8.31604,1
515,122.31445,17.745972,1,117.05017,10.894775,1,128.930389404297,9.20348262786865,1,123.65723,-6.958008,1,130.58472,-9.506226,1,137.29858,-9.765625,1
516,122.36023,17.39502,1,117.09595,10.604858,1,128.927856445313,8.60333442687988,1,123.36731,-7.461548,1,130.23376,-10.726929,1,136.79504,-11.550903,1
517,122.43652,16.952515,1,117.06543,10.1623535,1,128.849258422852,7.89486598968506,1,122.65015,-7.9345703,1,129.21143,-11.474609,1,135.75745,-12.10022,1
518,122.421265,16.464233,1,116.95862,9.628296,1,128.739364624023,7.34488153457642,1,121.94824,-8.239746,1,128.3722,-11.749268,1,134.97925,-12.207031,1
519,122.23816,16.00647,1,116.867065,9.140015,1,128.680419921875,7.03177499771118,1,121.33789,-8.300781,1,127.63977,-11.84082,1,134.27734,-12.252808,1
520,122.299194,15.686035,1,116.6687,8.81958,1,128.500442504883,6.81712675094605,1,120.666504,-8.270264,1,126.87683,-11.825562,1,133.5144,-12.252808,1
521,122.299194,15.426636,1,116.53137,8.590698,1,128.353927612305,6.5347146987915,1,120.025635,-8.285522,1,126.25122,-11.932373,1,132.8125,-12.329102,1
522,122.25342,15.197754,1,116.4093,8.407593,1,128.221420288086,6.292396068573,1,119.400024,-8.239746,1,125.53406,-11.947632,1,132.1106,-12.329102,1
523,122.25342,14.99939,1,116.33301,8.239746,1,128.143142700195,6.11354827880859,1,118.774414,-8.071899,1,124.86267,-11.932373,1,131.45447,-12.359619,1
524,122.23816,14.846802,1,116.256714,8.148193,1,128.042327880859,5.88998651504517,1,118.1488,-7.9345703,1,124.191284,-11.901855,1,130.72205,-12.374878,1
525,122.32971,14.724731,1,116.21094,8.117676,1,127.943305969238,5.59744310379028,1,117.55371,-7.8582764,1,123.47412,-11.871338,1,130.0354,-12.313843,1
526,122.283936,14.602661,1,116.07361,8.117676,1,127.743286132813,5.32150554656982,1,116.91284,-7.7819824,1,122.81799,-11.871338,1,129.3335,-12.329102,1
527,122.25342,14.419556,1,115.997314,8.071899,1,127.588584899902,4.96667098999023,1,116.256714,-7.7056885,1,122.20764,-11.901855,1,128.63159,-12.283325,1
528,122.34497,14.23645,1,115.93628,8.056641,1,127.43058013916,4.60977268218994,1,115.600586,-7.598877,1,121.50574,-11.795044,1,127.86865,-12.329102,1
529,122.32971,14.053345,1,115.76843,7.9345703,1,127.212600708008,4.3247275352478,1,115.02075,-7.522583,1,120.84961,-11.795044,1,127.18201,-12.298584,1
530,122.421265,13.885498,1,115.64636,7.827759,1,127.028167724609,4.02583074569702,1,114.44092,-7.4005127,1,120.162964,-11.734009,1,126.4801,-12.268066,1
531,122.299194,13.717651,1,115.600586,7.8125,1,126.868515014648,3.68529486656189,1,113.87634,-7.2784424,1,119.4458,-11.688232,1,125.79346,-12.268066,1
532,122.43652,13.549805,1,115.55481,7.7056885,1,126.762184143066,3.41677570343018,1,113.342285,-7.019043,1,118.83545,-11.642456,1,125.09155,-12.268066,1
533,122.49756,13.412476,1,115.50903,7.6904297,1,126.631011962891,3.18471312522888,1,112.854004,-6.7749023,1,118.19458,-11.535645,1,124.35913,-12.268066,1
534,122.528076,13.290405,1,115.53955,7.7056885,1,126.461891174316,2.73552846908569,1,112.28943,-6.652832,1,117.507935,-11.489868,1,123.73352,-12.268066,1
535,122.71118,13.168335,1,115.493774,7.6293945,1,126.301528930664,2.41474843025208,1,111.77063,-6.4086914,1,116.882324,-11.352539,1,123.03162,-12.268066,1
536,122.71118,13.122559,1,115.41748,7.7056885,1,126.130393981934,2.29889178276062,1,111.34338,-6.088257,1,116.18042,-11.184692,1,122.34497,-12.237549,1
537,122.69592,13.046265,1,115.371704,7.751465,1,125.956108093262,2.09723019599915,1,110.90088,-5.79834,1,115.53955,-11.138916,1,121.61255,-12.237549,1
538,122.7417,12.954712,1,115.32593,7.8125,1,125.722846984863,1.82049322128296,1,110.42786,-5.5999756,1,114.88342,-11.001587,1,120.895386,-12.237549,1
539,122.71118,12.893677,1,115.234375,7.873535,1,125.479103088379,1.62488698959351,1,109.98535,-5.3710938,1,114.212036,-10.879517,1,120.20874,-12.22229,1
540,122.71118,12.8479,1,115.14282,7.888794,1,125.251953125,1.42307472229004,1,109.558105,-5.1116943,1,113.6322,-10.757446,1,119.506836,-12.22229,1
541,122.7417,12.741089,1,115.112305,7.9040527,1,125.069602966309,1.20686483383179,1,109.191895,-4.8675537,1,112.976074,-10.604858,1,118.78967,-12.22229,1
542,122.802734,12.680054,1,114.990234,7.965088,1,124.864639282227,1.14627647399902,1,108.84094,-4.5318604,1,112.54883,-10.604858,1,118.118286,-12.161255,1
543,122.7417,12.664795,1,114.95972,7.9803467,1,124.631080627441,0.876497268676758,1,108.444214,-4.3182373,1,111.86218,-10.467529,1,117.41638,-12.130737,1
544,122.72644,12.649536,1,114.9292,7.9956055,1,124.353652954102,0.56729793548584,1,108.01697,-4.135132,1,111.31287,-10.375977,1,116.69922,-12.10022,1
545,122.7417,12.588501,1,114.852905,8.041382,1,124.17448425293,0.484381198883057,1,107.72705,-3.8146973,1,110.76355,-10.253906,1,115.982056,-12.084961,1
546,122.787476,12.619019,1,114.852905,8.087158,1,123.99739074707,0.316808700561523,1,107.43713,-3.5247803,1,110.16846,-10.177612,1,115.31067,-12.054443,1
547,122.81799,12.664795,1,114.77661,8.19397,1,123.792922973633,0.275248527526855,1,107.162476,-3.250122,1,109.573364,-10.025024,1,114.68506,-12.054443,1
548,122.71118,12.741089,1,114.79187,8.31604,1,123.598861694336,0.165160179138184,1,106.903076,-3.036499,1,109.08508,-9.979248,1,114.04419,-12.054443,1
549,122.69592,12.832642,1,114.715576,8.377075,1,123.377456665039,0.0721464157104492,1,106.62842,-2.8381348,1,108.45947,-9.887695,1,113.38806,-12.008667,1
550,122.7417,12.939453,1,114.76135,8.4991455,1,123.136299133301,-0.0950560569763184,1,106.32324,-2.609253,1,107.940674,-9.780884,1,112.6709,-12.023926,1
551,122.69592,12.9852295,1,114.74609,8.590698,1,122.953239440918,-0.163893222808838,1,106.09436,-2.3498535,1,107.36084,-9.658813,1,112.03003,-11.932373,1
552,122.680664,12.9852295,1,114.715576,8.621216,1,122.77613067627,-0.268520832061768,1,105.88074,-2.1514893,1,106.8573,-9.58252,1,111.3739,-11.947632,1
553,122.665405,13.076782,1,114.68506,8.728027,1,122.602279663086,-0.289600849151611,1,105.68237,-1.9378662,1,106.277466,-9.44519,1,110.672,-11.947632,1
554,122.65015,13.1073,1,114.715576,8.773804,1,122.390480041504,-0.450937747955322,1,105.43823,-1.7242432,1,105.75867,-9.338379,1,110.061646,-11.886597,1
555,122.51282,13.183594,1,114.70032,8.880615,1,122.232063293457,-0.461374759674072,1,105.270386,-1.6021729,1,105.22461,-9.292603,1,109.46655,-11.886597,1
556,122.299194,13.22937,1,114.70032,8.911133,1,122.064186096191,-0.563751697540283,1,105.08728,-1.449585,1,104.69055,-9.140015,1,108.77991,-11.810303,1
557,122.08557,13.259888,1,114.57825,8.880615,1,121.877517700195,-0.644122123718262,1,104.888916,-1.2664795,1,104.11072,-9.048462,1,108.09326,-11.810303,1
558,121.94824,13.198853,1,114.50195,8.880615,1,121.700889587402,-0.720181465148926,1,104.70581,-1.1291504,1,103.60718,-8.987427,1,107.3761,-11.810303,1
559,121.780396,13.198853,1,114.50195,8.865356,1,121.415634155273,-0.942858695983887,1,104.41589,-1.0375977,1,103.012085,-8.850098,1,106.73523,-11.749268,1
560,121.520996,13.198853,1,114.4104,8.804321,1,121.170959472656,-1.11005258560181,1,104.17175,-0.9460449,1,102.493286,-8.712769,1,106.06384,-11.71875,1
561,121.33789,13.168335,1,114.31885,8.804321,1,120.830467224121,-1.27530288696289,1,103.83606,-0.8392334,1,101.91345,-8.605957,1,105.392456,-11.764526,1
562,121.24634,13.153076,1,114.24255,8.7890625,1,120.533050537109,-1.43002128601074,1,103.54614,-0.76293945,1,101.33362,-8.514404,1,104.75159,-11.688232,1
563,121.1853,13.183594,1,114.151,8.773804,1,120.156181335449,-1.61551094055176,1,103.17993,-0.7171631,1,100.83008,-8.392334,1,104.00391,-11.672974,1
564,121.10901,13.22937,1,114.05945,8.865356,1,119.749221801758,-1.69998836517334,1,102.7832,-0.62561035,1,100.234985,-8.224487,1,103.45459,-11.627197,1
565,121.10901,13.320923,1,113.93738,8.987427,1,119.392143249512,-1.70114421844482,1,102.43225,-0.5340576,1,99.68567,-8.117676,1,102.73743,-11.566162,1
566,121.04797,13.381958,1,113.845825,9.048462,1,119.07901763916,-1.75031757354736,1,102.127075,-0.47302246,1,99.12109,-7.9803467,1,102.0813,-11.520386,1
567,121.09375,13.381958,1,113.76953,9.048462,1,118.722312927246,-1.8817663192749,1,101.79138,-0.35095215,1,98.57178,-7.827759,1,101.486206,-11.459351,1
568,121.07849,13.397217,1,113.75427,9.109497,1,118.387191772461,-1.96010446548462,1,101.47095,-0.2746582,1,98.098755,-7.6293945,1,100.81482,-11.398315,1
569,121.154785,13.305664,1,113.73901,9.0789795,1,118.170623779297,-2.07274055480957,1,101.27258,-0.21362305,1,97.62573,-7.4920654,1,100.234985,-11.33728,1
570,121.20056,13.198853,1,113.67798,8.987427,1,117.895095825195,-2.24715900421143,1,101.02844,-0.12207031,1,97.18323,-7.3547363,1,99.67041,-11.291504,1
571,121.32263,13.031006,1,113.67798,8.850098,1,117.745567321777,-2.43948650360107,1,100.90637,-0.10681152,1,96.66443,-7.232666,1,99.06006,-11.21521,1
572,121.42944,12.893677,1,113.73901,8.804321,1,117.471496582031,-2.60043811798096,1,100.66223,-0.061035156,1,96.29822,-7.019043,1,98.464966,-11.108398,1
573,121.38367,12.771606,1,113.75427,8.651733,1,117.386734008789,-2.7852783203125,1,100.616455,0,1,95.91675,-6.8511963,1,97.86987,-11.062622,1
574,121.55151,12.634277,1,113.845825,8.529663,1,117.257064819336,-2.97526741027832,1,100.5249,0.030517578,1,95.64209,-6.6223145,1,97.3053,-10.925293,1
575,121.64307,12.512207,1,113.90686,8.483887,1,117.277084350586,-3.03312587738037,1,100.55542,0.030517578,1,95.3064,-6.4849854,1,96.75598,-10.848999,1
576,121.7041,12.466431,1,113.99841,8.43811,1,117.459541320801,-3.05190944671631,1,100.738525,0.015258789,1,95.062256,-6.225586,1,96.17615,-10.83374,1
577,121.85669,12.420654,1,114.13574,8.468628,1,117.74626159668,-2.97532892227173,1,100.997925,-0.061035156,1,95.03174,-5.9661865,1,95.67261,-10.696411,1
578,121.93298,12.435913,1,114.25781,8.514404,1,117.984313964844,-2.89231204986572,1,101.21155,-0.12207031,1,94.98596,-5.706787,1,95.184326,-10.5896,1
579,122.10083,12.481689,1,114.33411,8.4991455,1,118.608810424805,-2.71365547180176,1,101.79138,-0.22888184,1,94.74182,-5.630493,1,94.5282,-10.437012,1
580,122.20764,12.557983,1,114.486694,8.529663,1,118.774185180664,-2.67825508117676,1,101.97449,-0.076293945,1,95.062256,-5.203247,1,93.96362,-10.223389,1
581,122.299194,12.649536,1,114.65454,8.605957,1,119.650451660156,-2.30462551116943,1,102.82898,0.15258789,1,95.71838,-4.8065186,1,93.688965,-10.055542,1
582,122.46704,12.741089,1,114.82239,8.712769,1,120.581832885742,-1.81475162506104,1,103.79028,0.8392334,1,96.66443,-4.6539307,1,93.673706,-9.735107,1
583,122.60437,12.878418,1,114.95972,8.956909,1,121.157836914063,-1.31846332550049,1,104.44641,1.8005371,1,98.43445,-4.1046143,1,94.7113,-9.262085,1
584,122.680664,12.9852295,1,115.21912,9.307861,1,122.280654907227,-0.394444465637207,1,105.59082,2.8381348,1,100.357056,-3.6010742,1,96.98486,-9.124756,1
585,122.77222,13.137817,1,115.234375,9.689331,1,122.360366821289,0.0342674255371094,1,105.75867,3.692627,1,102.15759,-3.2348633,1,99.70093,-9.231567,1
586,122.84851,13.290405,1,115.29541,10.025024,1,122.945266723633,0.779501914978027,1,106.30798,4.272461,1,103.897095,-2.8076172,1,102.508545,-9.140015,1
587,122.909546,13.366699,1,115.31067,10.269165,1,123.277854919434,1.29564952850342,1,106.62842,4.7302246,1,105.45349,-2.4108887,1,104.93469,-8.880615,1
588,122.787476,13.504028,1,115.29541,10.391235,1,123.482841491699,1.61820793151855,1,106.796265,4.8675537,1,106.70471,-2.0446777,1,106.71997,-8.514404,1
589,122.69592,13.671875,1,115.38696,10.467529,1,123.716667175293,1.82947540283203,1,106.97937,4.8065186,1,107.681274,-1.9683838,1,107.95593,-8.270264,1
590,122.63489,13.778687,1,115.356445,10.467529,1,123.806221008301,1.9468936920166,1,106.99463,4.470825,1,108.48999,-2.105713,1,109.25293,-8.270264,1
591,122.63489,13.870239,1,115.32593,10.421753,1,124.08438873291,2.21874332427979,1,107.177734,3.9978027,1,109.25293,-2.4871826,1,110.565186,-8.453369,1
592,122.406006,13.977051,1,115.32593,10.299683,1,124.284042358398,2.31518840789795,1,107.31506,3.3416748,1,110.1532,-2.960205,1,112.04529,-8.728027,1
593,122.2229,14.11438,1,115.24963,10.177612,1,124.543655395508,2.58675098419189,1,107.543945,2.4871826,1,111.12976,-3.4179688,1,113.64746,-8.865356,1
594,122.039795,14.23645,1,115.112305,9.963989,1,124.776100158691,2.8498387336731,1,107.83386,1.449585,1,112.091064,-3.90625,1,115.28015,-9.063721,1
595,121.99402,14.343262,1,115.00549,9.841919,1,124.915817260742,3.07542419433594,1,108.09326,0.62561035,1,112.99133,-4.40979,1,116.59241,-9.140015,1
596,121.780396,14.480591,1,115.00549,9.70459,1,125.143737792969,3.28461217880249,1,108.52051,-0.2746582,1,113.78479,-4.8217773,1,117.79785,-9.140015,1
597,121.64307,14.633179,1,114.94446,9.643555,1,125.034965515137,3.14881563186645,1,108.566284,-1.0681152,1,114.51721,-5.1574707,1,118.896484,-9.185791,1
598,121.4447,14.831543,1,114.88342,9.613037,1,125.438201904297,3.9037013053894,1,109.35974,-1.6174316,1,115.29541,-5.432129,1,119.97986,-8.987427,1
599,121.32263,14.99939,1,114.82239,9.597778,1,125.676712036133,4.48079061508179,1,109.98535,-2.0599365,1,116.05835,-5.493164,1,121.07849,-8.636475,1
600,121.21582,15.167236,1,114.79187,9.658813,1,125.786468505859,4.85060977935791,1,110.47363,-2.532959,1,116.79077,-5.508423,1,122.10083,-8.255005,1
601,121.017456,15.335083,1,114.6698,9.689331,1,125.899528503418,5.45930004119873,1,111.05347,-2.822876,1,117.47742,-5.5236816,1,122.89429,-7.9803467,1
602,120.94116,15.548706,1,114.68506,9.765625,1,126.08666229248,6.02351093292236,1,111.66382,-2.9754639,1,118.1488,-5.4779053,1,123.71826,-7.659912,1
603,120.83435,15.838623,1,114.70032,9.918213,1,126.217666625977,6.54916191101074,1,112.30469,-3.2196045,1,118.896484,-5.432129,1,124.58801,-7.3242188,1
604,120.72754,16.12854,1,114.68506,10.009766,1,126.336151123047,7.13712167739868,1,113.082886,-3.5095215,1,119.84253,-5.4016113,1,125.73242,-6.958008,1
605,120.59021,16.433716,1,114.715576,10.147095,1,126.465850830078,7.7117280960083,1,113.99841,-3.8452148,1,120.75806,-5.340576,1,126.96838,-6.439209,1
606,120.513916,16.738892,1,114.76135,10.269165,1,126.601715087891,8.31828212738037,1,115.112305,-4.211426,1,121.88721,-5.355835,1,128.20435,-5.92041,1
607,120.407104,16.998291,1,114.868164,10.375977,1,126.762802124023,8.78929805755615,1,116.31775,-4.623413,1,122.98584,-5.4626465,1,129.50134,-5.493164,1
608,120.31555,17.303467,1,114.91394,10.482788,1,126.853660583496,9.28148937225342,1,117.56897,-4.9591064,1,124.38965,-5.706787,1,130.8899,-5.2337646,1
609,120.269775,17.532349,1,115.00549,10.559082,1,126.968444824219,9.61684226989746,1,118.80493,-5.2948,1,125.74768,-6.0424805,1,132.33948,-5.1879883,1
610,120.11719,17.654419,1,115.05127,10.559082,1,127.028106689453,9.81386661529541,1,119.85779,-5.5999756,1,126.80054,-6.4697266,1,133.49915,-5.432129,1
611,120.11719,17.684937,1,115.097046,10.498047,1,127.078796386719,9.83643913269043,1,120.773315,-5.9509277,1,127.76184,-7.156372,1,134.47571,-6.225586,1
612,120.04089,17.608643,1,115.097046,10.406494,1,127.078514099121,9.73982810974121,1,121.32263,-6.2561035,1,128.479,-7.9956055,1,135.13184,-7.3242188,1
613,119.85779,17.440796,1,115.08179,10.253906,1,127.045532226563,9.32175445556641,1,121.4447,-6.729126,1,128.60107,-8.956909,1,135.20813,-8.682251,1
614,119.82727,17.150879,1,114.94446,9.994507,1,126.900337219238,8.9664478302002,1,121.20056,-7.0495605,1,128.1128,-10.040283,1,134.70459,-10.345459,1
615,119.67468,16.784668,1,114.77661,9.689331,1,126.691596984863,8.26348972320557,1,120.49866,-7.5683594,1,127.075195,-11.108398,1,133.60596,-11.810303,1
616,119.59839,16.326904,1,114.608765,9.262085,1,126.466659545898,7.42080307006836,1,119.67468,-8.163452,1,126.14441,-11.581421,1,132.7362,-12.10022,1
617,119.61365,15.914917,1,114.39514,8.834839,1,126.264709472656,7.07035732269287,1,119.003296,-8.300781,1,125.39673,-11.703491,1,131.97327,-12.145996,1
618,119.33899,15.563965,1,114.105225,8.560181,1,125.997627258301,6.95684623718262,1,118.377686,-8.239746,1,124.679565,-11.749268,1,131.27136,-12.145996,1
619,119.1864,15.380859,1,113.845825,8.31604,1,125.736297607422,6.69843864440918,1,117.7063,-8.285522,1,123.99292,-11.779785,1,130.61523,-12.145996,1
620,119.07959,15.213013,1,113.73901,8.2092285,1,125.619361877441,6.5188193321228,1,117.05017,-8.163452,1,123.291016,-11.810303,1,129.88281,-12.161255,1
621,119.07959,15.045166,1,113.49487,8.087158,1,125.354194641113,6.25505495071411,1,116.34827,-8.163452,1,122.60437,-11.795044,1,129.10461,-12.130737,1
622,119.07959,14.877319,1,113.32703,8.056641,1,125.164047241211,6.08560705184937,1,115.7074,-8.041382,1,121.87195,-11.779785,1,128.35693,-12.145996,1
623,119.09485,14.73999,1,113.204956,7.9803467,1,125.020401000977,5.88384199142456,1,115.097046,-7.9193115,1,121.1853,-11.764526,1,127.65503,-12.176514,1
624,119.04907,14.602661,1,113.05237,7.873535,1,124.844169616699,5.64791870117188,1,114.44092,-7.797241,1,120.46814,-11.734009,1,126.96838,-12.145996,1
625,119.03381,14.526367,1,112.960815,7.9193115,1,124.711418151855,5.48552560806274,1,113.87634,-7.6141357,1,119.82727,-11.688232,1,126.26648,-12.161255,1
626,119.04907,14.450073,1,112.80823,7.9040527,1,124.518173217773,5.28162145614624,1,113.26599,-7.461548,1,119.21692,-11.672974,1,125.564575,-12.176514,1
627,119.15588,14.3585205,1,112.73193,7.9803467,1,124.351272583008,4.98187589645386,1,112.6709,-7.369995,1,118.53027,-11.611938,1,124.84741,-12.176514,1
628,119.21692,14.297485,1,112.68616,8.041382,1,124.256004333496,4.857262134552,1,112.16736,-7.095337,1,117.84363,-11.535645,1,124.11499,-12.207031,1
629,119.20166,14.23645,1,112.594604,8.056641,1,124.051956176758,4.48885297775269,1,111.51123,-6.9885254,1,117.17224,-11.459351,1,123.36731,-12.1154785,1
630,119.32373,14.175415,1,112.54883,8.148193,1,123.930725097656,4.34654188156128,1,111.00769,-6.6986084,1,116.42456,-11.383057,1,122.680664,-12.1154785,1
631,119.35425,14.129639,1,112.44202,8.239746,1,123.749198913574,4.22133207321167,1,110.51941,-6.454468,1,115.82947,-11.291504,1,122.00928,-12.1154785,1
632,119.30847,14.099121,1,112.38098,8.331299,1,123.562210083008,3.9746789932251,1,109.98535,-6.2561035,1,115.12756,-11.199951,1,121.30737,-12.10022,1
633,119.35425,14.0686035,1,112.36572,8.361816,1,123.37419128418,3.58545565605164,1,109.40552,-6.1035156,1,114.45618,-11.108398,1,120.55969,-12.10022,1
634,119.36951,13.99231,1,112.25891,8.422852,1,123.219940185547,3.53859543800354,1,108.99353,-5.7678223,1,113.76953,-10.971069,1,119.82727,-12.10022,1
635,119.36951,13.931274,1,112.075806,8.529663,1,122.927200317383,3.40645480155945,1,108.48999,-5.569458,1,113.15918,-10.894775,1,119.140625,-12.054443,1
636,119.33899,13.885498,1,112.04529,8.529663,1,122.736724853516,3.08050656318665,1,107.98645,-5.3710938,1,112.4115,-10.7421875,1,118.43872,-12.039185,1
637,119.23218,13.824463,1,111.87744,8.575439,1,122.493858337402,2.98152995109558,1,107.543945,-5.1116943,1,111.80115,-10.635376,1,117.7063,-12.023926,1
638,119.21692,13.763428,1,111.75537,8.590698,1,122.282035827637,2.82967495918274,1,107.1167,-4.852295,1,111.35864,-10.574341,1,117.004395,-12.023926,1
639,119.15588,13.687134,1,111.709595,8.636475,1,122.021629333496,2.49953937530518,1,106.62842,-4.714966,1,110.54993,-10.437012,1,116.27197,-12.023926,1
640,119.07959,13.626099,1,111.55701,8.728027,1,121.787185668945,2.45558643341064,1,106.26221,-4.470825,1,110.01587,-10.391235,1,115.615845,-11.962891,1
641,119.12537,13.61084,1,111.450195,8.69751,1,121.514991760254,2.16299295425415,1,105.773926,-4.257202,1,109.32922,-10.238647,1,114.9292,-11.932373,1
642,119.04907,13.61084,1,111.450195,8.850098,1,121.273246765137,1.95751810073853,1,105.36194,-4.0283203,1,108.77991,-10.223389,1,114.19678,-11.901855,1
643,119.23218,13.565063,1,111.41968,8.911133,1,121.045783996582,1.7460732460022,1,104.96521,-3.768921,1,108.03223,-9.94873,1,113.51013,-11.901855,1
644,119.140625,13.61084,1,111.28235,9.002686,1,120.813293457031,1.71152448654175,1,104.644775,-3.540039,1,107.6355,-10.101318,1,112.82349,-11.886597,1
645,118.97278,13.671875,1,111.25183,9.048462,1,120.626052856445,1.55687141418457,1,104.32434,-3.2653809,1,106.8573,-9.811401,1,112.12158,-11.856079,1
646,119.03381,13.671875,1,111.22131,9.0789795,1,120.354354858398,1.29517936706543,1,103.92761,-3.0822754,1,106.414795,-9.902954,1,111.38916,-11.825562,1
647,118.97278,13.687134,1,111.14502,9.155273,1,120.164268493652,1.23989772796631,1,103.66821,-2.8686523,1,105.667114,-9.506226,1,110.77881,-11.84082,1
648,118.95752,13.717651,1,111.083984,9.155273,1,119.970634460449,1.09131574630737,1,103.378296,-2.609253,1,105.20935,-9.628296,1,110.1532,-11.84082,1
649,118.94226,13.702393,1,111.14502,9.216309,1,119.788627624512,0.892363548278809,1,103.10364,-2.3651123,1,104.599,-9.32312,1,109.48181,-11.779785,1
650,119.06433,13.656616,1,111.1145,9.231567,1,119.550262451172,0.697054862976074,1,102.79846,-2.1972656,1,104.12598,-9.44519,1,108.77991,-11.779785,1
651,119.018555,13.671875,1,111.12976,9.231567,1,119.337882995605,0.47790002822876,1,102.5238,-2.029419,1,103.46985,-9.155273,1,108.09326,-11.749268,1
652,119.003296,13.671875,1,111.09924,9.231567,1,119.208702087402,0.386415004730225,1,102.35596,-1.8463135,1,103.05786,-9.216309,1,107.43713,-11.672974,1
653,119.003296,13.656616,1,111.16028,9.20105,1,119.131416320801,0.231046199798584,1,102.23389,-1.6326904,1,102.56958,-9.185791,1,106.781006,-11.703491,1
654,119.018555,13.641357,1,111.34338,9.246826,1,118.94384765625,-0.0393471717834473,1,102.005005,-1.4801025,1,102.005005,-9.0789795,1,106.09436,-11.657715,1
655,119.04907,13.702393,1,111.3739,9.231567,1,118.903678894043,-0.11201000213623,1,101.94397,-1.2817383,1,101.47095,-8.972168,1,105.43823,-11.59668,1
656,118.95752,13.778687,1,111.465454,9.20105,1,118.818283081055,-0.282407283782959,1,101.83716,-1.083374,1,100.92163,-8.804321,1,104.766846,-11.550903,1
657,119.018555,13.793945,1,111.54175,9.246826,1,118.60285949707,-0.455789566040039,1,101.60828,-0.88500977,1,100.41809,-8.590698,1,104.06494,-11.505127,1
