LauraSchoenhals/autogait_trial/WT_Levelwalk_DLC_for_AutoGaitA/WT_Mouse501_levelwalk_Run1-6DLC-JointTracking.csv
scorer,DLC_JointTracking,DLC_JointTracking,DLC_JointTracking,DLC_JointTracking,DLC_JointTracking,DLC_JointTracking,DLC_JointTracking,DLC_JointTracking,DLC_JointTracking,DLC_JointTracking,DLC_JointTracking,DLC_JointTracking,DLC_JointTracking,DLC_JointTracking,DLC_JointTracking,DLC_JointTracking,DLC_JointTracking,DLC_JointTracking
bodyparts,Crest,Crest,Crest,Hip,Hip,Hip,Knee,Knee,Knee,Ankle,Ankle,Ankle,Metatarsal,Metatarsal,Metatarsal,ToeTip,ToeTip,ToeTip
coords,x,y,likelihood,x,y,likelihood,x,y,likelihood,x,y,likelihood,x,y,likelihood,x,y,likelihood
0,34.576416,18.310547,1,26.306152,10.360718,1,35.9120407104492,3.16857624053955,1,20.324707,-3.616333,1,23.345947,-8.956909,1,27.648926,-10.620117,1
1,34.606934,18.26477,1,26.153564,10.421753,1,35.6001052856445,3.02156162261963,1,19.866943,-3.4179688,1,22.857666,-8.865356,1,27.297974,-10.696411,1
2,34.51538,18.249512,1,26.07727,10.482788,1,35.45068359375,2.99018049240112,1,19.607544,-3.1738281,1,22.29309,-8.804321,1,26.58081,-10.620117,1
3,34.576416,18.218994,1,26.016235,10.543823,1,35.2227935791016,2.84711694717407,1,19.256592,-2.9907227,1,21.865845,-8.7890625,1,26.2146,-10.7421875,1
4,34.591675,18.234253,1,25.924683,10.635376,1,34.9962425231934,2.7800087928772,1,18.951416,-2.8381348,1,21.362305,-8.743286,1,25.390625,-10.559082,1
5,34.683228,18.249512,1,25.909424,10.681152,1,34.7826347351074,2.60240793228149,1,18.630981,-2.7008057,1,20.843506,-8.69751,1,25.07019,-10.71167,1
6,34.75952,18.234253,1,25.863647,10.7421875,1,34.5520133972168,2.46497201919556,1,18.28003,-2.456665,1,20.370483,-8.69751,1,24.475098,-10.726929,1
7,34.835815,18.188477,1,25.848389,10.803223,1,34.3749809265137,2.35945415496826,1,18.035889,-2.3345947,1,19.821167,-8.621216,1,24.06311,-10.787964,1
8,34.866333,18.1427,1,25.848389,10.818481,1,34.1583824157715,2.16145944595337,1,17.730713,-2.2125244,1,19.302368,-8.590698,1,23.101807,-10.574341,1
9,34.92737,18.081665,1,25.848389,10.894775,1,33.9652709960937,2.05643749237061,1,17.456055,-1.9989014,1,18.78357,-8.514404,1,22.644043,-10.635376,1
10,35.01892,18.081665,1,25.817871,10.925293,1,33.772891998291,1.94099473953247,1,17.196655,-1.8310547,1,18.295288,-8.483887,1,22.262573,-10.71167,1
11,35.095215,18.02063,1,25.939941,10.910034,1,33.636962890625,1.70373821258545,1,16.983032,-1.7089844,1,17.77649,-8.407593,1,21.453857,-10.543823,1
12,35.369873,18.035889,1,26.062012,10.955811,1,33.5186538696289,1.55376243591309,1,16.799927,-1.5258789,1,17.37976,-8.361816,1,21.240234,-10.7421875,1
13,35.53772,17.944336,1,26.2146,11.001587,1,33.3552436828613,1.35735511779785,1,16.571045,-1.3427734,1,16.87622,-8.270264,1,20.324707,-10.498047,1
14,35.7666,17.974854,1,26.33667,10.971069,1,33.2722587585449,1.17833614349365,1,16.448975,-1.2664795,1,16.37268,-8.224487,1,19.866943,-10.528564,1
15,35.964966,17.929077,1,26.565552,11.001587,1,33.1046981811523,0.939800262451172,1,16.220093,-1.0375977,1,15.960693,-8.102417,1,19.210815,-10.4522705,1
16,36.17859,17.868042,1,26.763916,10.971069,1,32.9865989685059,0.710550308227539,1,16.067505,-0.9460449,1,15.50293,-8.102417,1,18.936157,-10.650635,1
17,36.27014,17.807007,1,26.96228,10.971069,1,32.7885131835937,0.480357170104981,1,15.838623,-0.8239746,1,14.984131,-8.026123,1,18.157959,-10.467529,1
18,36.392212,17.76123,1,27.145386,10.894775,1,32.6592636108398,0.236577987670898,1,15.686035,-0.7171631,1,14.556885,-7.9040527,1,17.684937,-10.5896,1
19,36.514282,17.669678,1,27.267456,10.910034,1,32.4118232727051,0.0686559677124023,1,15.426636,-0.64086914,1,14.053345,-7.827759,1,17.01355,-10.467529,1
20,36.712646,17.669678,1,27.404785,10.910034,1,32.1748695373535,-0.101157188415527,1,15.182495,-0.61035156,1,13.565063,-7.797241,1,16.75415,-10.726929,1
21,36.758423,17.669678,1,27.511597,11.001587,1,31.8738918304443,-0.177428245544434,1,14.877319,-0.5187988,1,13.031006,-7.751465,1,15.914917,-10.528564,1
22,36.91101,17.76123,1,27.542114,11.077881,1,31.6768035888672,-0.187301635742188,1,14.678955,-0.45776367,1,12.573242,-7.675171,1,15.701294,-10.726929,1
23,37.017822,17.76123,1,27.664185,11.306763,1,31.4030094146729,-0.095921516418457,1,14.404297,-0.30517578,1,12.145996,-7.583618,1,14.785767,-10.421753,1
24,37.139893,17.959595,1,28.015137,11.245728,1,31.2515182495117,-0.309611320495605,1,14.251709,-0.22888184,1,11.749268,-7.4005127,1,14.389038,-10.543823,1
25,37.27722,18.157959,1,28.289795,11.474609,1,31.2514533996582,-0.154173851013184,1,14.251709,-0.061035156,1,11.428833,-7.1411133,1,13.793945,-10.360718,1
26,37.490845,18.38684,1,28.533936,11.71875,1,31.2669448852539,0.0341176986694336,1,14.266968,0.061035156,1,11.138916,-6.881714,1,13.412476,-10.253906,1
27,37.719727,18.64624,1,28.793335,12.176514,1,31.2349052429199,0.427525520324707,1,14.23645,0.19836426,1,10.83374,-6.6375732,1,12.893677,-10.20813,1
28,37.91809,18.981934,1,28.9917,12.481689,1,31.2654628753662,0.699076652526856,1,14.266968,0.47302246,1,10.528564,-6.362915,1,12.527466,-10.116577,1
29,38.146973,19.363403,1,29.266357,12.954712,1,31.368127822876,1.14020538330078,1,14.373779,0.7019043,1,10.391235,-6.0272217,1,12.039185,-9.857178,1
30,38.43689,19.744873,1,29.47998,13.2751465,1,31.6832904815674,1.47915363311768,1,14.694214,0.869751,1,10.253906,-5.706787,1,11.550903,-9.82666,1
31,38.726807,20.126343,1,29.693604,13.641357,1,31.9477157592773,1.85496711730957,1,14.968872,1.0070801,1,10.055542,-5.5389404,1,11.016846,-9.796143,1
32,38.986206,20.462036,1,29.876709,13.85498,1,32.0950126647949,2.0617995262146,1,15.12146,1.1138916,1,9.872437,-5.355835,1,10.528564,-9.796143,1
33,39.30664,20.614624,1,30.075073,14.038086,1,32.2304000854492,2.23323249816895,1,15.258789,1.2512207,1,9.750366,-5.0354004,1,10.055542,-9.44519,1
34,39.657593,20.6604,1,30.532837,14.205933,1,32.484375,2.36568307876587,1,15.50293,1.5716553,1,9.841919,-4.6539307,1,9.689331,-9.0789795,1
35,40.06958,20.629883,1,30.944824,14.11438,1,33.174129486084,2.32327175140381,1,16.174316,2.243042,1,10.437012,-4.0740967,1,9.674072,-8.682251,1
36,40.481567,20.614624,1,31.61621,14.099121,1,34.3699836730957,2.41936302185059,1,17.39502,3.3416748,1,11.993408,-3.0212402,1,10.269165,-7.873535,1
37,40.924072,20.736694,1,32.165527,13.839722,1,36.0219345092773,2.47626686096191,1,19.180298,4.79126,1,14.160156,-1.6479492,1,11.947632,-6.454468,1
38,41.3208,20.828247,1,32.76062,13.793945,1,37.7322082519531,2.87225437164307,1,21.072388,6.2561035,1,16.693115,-0.061035156,1,14.587402,-5.1116943,1
39,41.71753,20.996094,1,33.233643,13.900757,1,39.3742218017578,3.59089374542236,1,22.842407,7.5531006,1,19.180298,1.2359619,1,17.410278,-3.7841797,1
40,41.992188,21.194458,1,33.66089,14.129639,1,40.7438812255859,4.44298458099365,1,24.261475,8.605957,1,21.66748,2.2277832,1,20.263672,-2.7923584,1
41,42.266846,21.499634,1,34.14917,14.419556,1,41.7886276245117,5.16544151306152,1,25.238037,9.048462,1,24.18518,2.7770996,1,23.498535,-2.5024414,1
42,42.373657,21.774292,1,34.454346,14.73999,1,42.5183906555176,5.85341739654541,1,25.83313,9.109497,1,26.473999,3.0822754,1,26.96228,-2.1972656,1
43,42.46521,22.125244,1,34.683228,14.907837,1,43.1258354187012,6.38009738922119,1,26.290894,8.743286,1,28.366089,3.250122,1,30.059814,-2.6245117,1
44,42.556763,22.399902,1,34.89685,14.99939,1,43.6945266723633,6.83845520019531,1,26.748657,8.19397,1,29.73938,3.2196045,1,32.25708,-2.1514893,1
45,42.556763,22.644043,1,35.186768,14.99939,1,44.2017707824707,7.07917881011963,1,27.20642,7.4768066,1,30.86853,3.0059814,1,34.103394,-1.9226074,1
46,42.526245,22.827148,1,35.26306,14.984131,1,44.6408767700195,7.49703216552734,1,27.664185,6.6070557,1,31.814575,2.670288,1,35.55298,-1.4343262,1
47,42.526245,23.010254,1,35.446167,14.984131,1,45.0180282592774,7.7467622756958,1,28.137207,5.7373047,1,32.77588,2.3498535,1,37.078857,-1.2817383,1
48,42.48047,23.132324,1,35.507202,14.9383545,1,45.3672370910645,8.09878444671631,1,28.671265,4.8980713,1,33.5083,2.2735596,1,38.146973,-0.5493164,1
49,42.46521,23.254395,1,35.507202,14.953613,1,45.6842384338379,8.59531879425049,1,29.251099,4.2419434,1,34.25598,2.1820068,1,39.30664,-0.19836426,1
50,42.541504,23.361206,1,35.690308,14.923096,1,46.1532783508301,9.04719257354736,1,29.98352,3.7994385,1,34.75952,2.166748,1,39.993286,0.18310547,1
51,42.663574,23.4375,1,35.858154,14.862061,1,46.5992202758789,9.51140785217285,1,30.74646,3.3721924,1,35.41565,2.0446777,1,40.71045,0.35095215,1
52,42.770386,23.55957,1,36.026,14.9383545,1,46.9722862243652,10.0211572647095,1,31.49414,2.9907227,1,36.209106,1.8157959,1,41.381836,0.24414062,1
53,42.816162,23.712158,1,36.16333,14.953613,1,47.3807067871094,10.6909332275391,1,32.51648,2.4414062,1,37.078857,1.3275146,1,42.434692,-0.030517578,1
54,42.73987,23.925781,1,36.30066,14.953613,1,47.6662864685059,11.1036052703857,1,33.477783,1.739502,1,38.16223,0.77819824,1,43.533325,-0.22888184,1
55,42.648315,24.06311,1,36.392212,14.984131,1,47.9044456481934,11.5976152420044,1,34.5459,1.083374,1,39.276123,0.15258789,1,44.525146,-0.61035156,1
56,42.48047,24.215698,1,36.40747,14.99939,1,48.0823097229004,12.2248258590698,1,35.827637,0.44250488,1,40.359497,-0.44250488,1,45.669556,-1.1901855,1
57,42.312622,24.291992,1,36.392212,14.984131,1,48.1649589538574,12.6598262786865,1,36.956787,-0.12207031,1,41.519165,-1.1444092,1,46.75293,-1.7547607,1
58,42.099,24.459839,1,36.331177,14.892578,1,48.17041015625,12.9348745346069,1,38.04016,-0.7171631,1,42.73987,-1.7242432,1,48.034668,-2.3651123,1
59,41.870117,24.505615,1,36.346436,14.801025,1,48.238883972168,13.1979856491089,1,39.18457,-1.1901855,1,44.052124,-2.380371,1,49.224854,-2.89917,1
60,41.641235,24.459839,1,36.346436,14.556885,1,48.2709579467773,13.2131128311157,1,40.267944,-1.7852783,1,45.34912,-2.9754639,1,50.53711,-3.5858154,1
61,41.35132,24.368286,1,36.40747,14.266968,1,48.3617630004883,13.2205505371094,1,41.366577,-2.2735596,1,46.6156,-3.6621094,1,51.757812,-4.2877197,1
62,41.305542,24.124146,1,36.514282,13.931274,1,48.4806823730469,13.0339431762695,1,42.312622,-2.8076172,1,47.88208,-4.333496,1,52.978516,-4.974365,1
63,41.229248,23.849487,1,36.8042,13.504028,1,48.7809410095215,12.7572345733643,1,43.319702,-3.3416748,1,49.01123,-5.0354004,1,54.19922,-5.706787,1
64,41.122437,23.529053,1,36.987305,13.046265,1,48.9657287597656,12.3269863128662,1,44.067383,-3.9520264,1,49.972534,-5.9814453,1,55.19104,-6.80542,1
65,41.046143,23.117065,1,37.17041,12.588501,1,49.1475257873535,11.8477649688721,1,44.708252,-4.562378,1,50.811768,-7.2631836,1,55.725098,-8.178711,1
66,40.924072,22.67456,1,37.200928,11.978149,1,49.1788864135742,11.2511653900146,1,44.906616,-5.203247,1,50.994873,-8.43811,1,55.95398,-9.933472,1
67,40.756226,22.094727,1,37.109375,11.444092,1,49.0776786804199,10.5724716186523,1,44.387817,-5.7678223,1,50.27771,-8.605957,1,56.96106,-10.879517,1
68,40.618896,21.54541,1,36.94153,10.925293,1,48.9171752929687,10.1611337661743,1,43.823242,-6.0577393,1,49.606323,-8.7890625,1,56.33545,-10.971069,1
69,40.359497,21.118164,1,36.727905,10.513306,1,48.7145004272461,9.94627189636231,1,43.24341,-6.149292,1,49.02649,-8.911133,1,53.848267,-9.979248,1
70,40.100098,20.812988,1,36.331177,10.192871,1,48.3192481994629,9.65792369842529,1,42.633057,-6.362915,1,48.446655,-9.033203,1,53.55835,-10.192871,1
71,39.871216,20.462036,1,36.05652,9.841919,1,48.0471534729004,9.36798095703125,1,42.06848,-6.5460205,1,47.805786,-9.0789795,1,52.719116,-10.147095,1
72,39.718628,20.095825,1,35.78186,9.475708,1,47.7764053344727,9.11397075653076,1,41.534424,-6.6986084,1,47.225952,-9.170532,1,52.1698,-10.192871,1
73,39.55078,19.744873,1,35.629272,9.155273,1,47.626651763916,8.90457153320313,1,40.985107,-6.744385,1,46.676636,-9.262085,1,51.55945,-10.192871,1
74,39.44397,19.40918,1,35.491943,8.834839,1,47.4907722473145,8.66709232330322,1,40.481567,-6.8206787,1,46.066284,-9.307861,1,51.16272,-10.421753,1
75,39.505005,19.16504,1,35.41565,8.666992,1,47.4138488769531,8.45900535583496,1,39.993286,-6.8359375,1,45.547485,-9.307861,1,50.41504,-10.284424,1
76,39.505005,18.936157,1,35.38513,8.43811,1,47.3824195861816,8.18302345275879,1,39.505005,-6.881714,1,44.937134,-9.32312,1,50.03357,-10.406494,1
77,39.44397,18.707275,1,35.308838,8.239746,1,47.3049736022949,7.93530368804932,1,38.970947,-6.881714,1,44.433594,-9.353638,1,49.28589,-10.3302,1
78,39.42871,18.554688,1,35.04944,8.132935,1,47.0456657409668,7.83210372924805,1,38.45215,-6.8359375,1,43.823242,-9.3688965,1,48.8739,-10.4522705,1
79,39.276123,18.371582,1,34.820557,7.9193115,1,46.8170127868652,7.62770080566406,1,37.93335,-6.866455,1,43.182373,-9.44519,1,48.14148,-10.391235,1
80,39.001465,18.157959,1,34.561157,7.797241,1,46.5548248291016,7.40744781494141,1,37.368774,-6.8969727,1,42.648315,-9.460449,1,47.576904,-10.4522705,1
81,38.78784,17.944336,1,34.194946,7.6141357,1,46.1899223327637,7.26688003540039,1,36.834717,-6.92749,1,42.08374,-9.506226,1,47.1344,-10.498047,1
82,38.467407,17.76123,1,33.78296,7.4920654,1,45.7795219421387,7.20485877990723,1,36.2854,-6.8969727,1,41.503906,-9.552002,1,46.554565,-10.513306,1
83,38.17749,17.578125,1,33.462524,7.3394775,1,45.4597778320313,7.08267688751221,1,35.720825,-6.8511963,1,40.95459,-9.536743,1,45.98999,-10.574341,1
84,37.963867,17.456055,1,33.15735,7.247925,1,45.153938293457,6.96189785003662,1,35.202026,-6.8206787,1,40.32898,-9.536743,1,45.25757,-10.528564,1
85,37.872314,17.27295,1,32.88269,7.2631836,1,44.879524230957,6.98757362365723,1,34.77478,-6.6833496,1,39.82544,-9.536743,1,44.937134,-10.620117,1
86,37.78076,17.242432,1,32.791138,7.2631836,1,44.7840042114258,6.84957885742188,1,34.317017,-6.5460205,1,39.30664,-9.44519,1,44.174194,-10.559082,1
87,37.872314,17.211914,1,32.684326,7.217407,1,44.6767692565918,6.79162216186523,1,33.88977,-6.3476562,1,38.78784,-9.429932,1,43.685913,-10.5896,1
88,37.826538,17.25769,1,32.65381,7.3394775,1,44.6314811706543,6.60779571533203,1,33.447266,-6.1950684,1,38.238525,-9.338379,1,43.060303,-10.543823,1
89,37.79602,17.364502,1,32.485962,7.369995,1,44.4643707275391,6.65046119689941,1,33.02002,-5.92041,1,37.79602,-9.353638,1,42.510986,-10.574341,1
90,37.67395,17.410278,1,32.302856,7.537842,1,44.2644577026367,6.57863521575928,1,32.562256,-5.7525635,1,37.15515,-9.32312,1,41.778564,-10.574341,1
91,37.597656,17.501831,1,32.104492,7.7056885,1,44.0466613769531,6.52901935577393,1,32.13501,-5.5999756,1,36.636353,-9.307861,1,41.44287,-10.726929,1
92,37.41455,17.593384,1,31.936646,8.102417,1,43.8161125183106,6.40587949752808,1,31.585693,-5.4016113,1,36.117554,-9.277344,1,40.725708,-10.696411,1
93,37.368774,17.578125,1,31.585693,8.163452,1,43.4741744995117,6.53125476837158,1,31.173706,-5.203247,1,35.55298,-9.292603,1,40.17639,-10.7421875,1
94,37.200928,17.654419,1,31.448364,8.346558,1,43.2840728759766,6.36765813827515,1,30.731201,-5.0964355,1,34.988403,-9.292603,1,39.489746,-10.818481,1
95,37.109375,17.700195,1,31.173706,8.346558,1,43.0177001953125,6.41786766052246,1,30.303955,-4.8675537,1,34.454346,-9.231567,1,39.18457,-10.940552,1
96,36.92627,17.684937,1,31.021118,8.483887,1,42.8397216796875,6.40529584884644,1,29.876709,-4.5928955,1,33.90503,-9.216309,1,38.513184,-10.848999,1
97,36.849976,17.730713,1,30.88379,8.392334,1,42.7020225524902,6.31161451339722,1,29.571533,-4.486084,1,33.477783,-9.170532,1,38.131714,-10.940552,1
98,36.819458,17.822266,1,30.838013,8.605957,1,42.6233596801758,6.34640121459961,1,29.251099,-4.1503906,1,32.974243,-9.124756,1,37.506104,-10.955811,1
99,36.880493,17.944336,1,30.715942,8.621216,1,42.494499206543,6.32653188705444,1,28.930664,-3.9215088,1,32.455444,-9.048462,1,37.200928,-11.016846,1
100,36.849976,18.112183,1,30.685425,8.850098,1,42.4114265441895,6.30040740966797,1,28.625488,-3.6468506,1,31.87561,-8.94165,1,36.65161,-11.001587,1
101,36.743164,18.310547,1,30.593872,9.033203,1,42.2760314941406,6.28964900970459,1,28.320312,-3.4179688,1,31.38733,-8.926392,1,35.858154,-10.925293,1
102,36.77368,18.463135,1,30.441284,9.20105,1,42.0960388183594,6.34330701828003,1,28.030396,-3.2043457,1,30.899048,-8.81958,1,35.232544,-10.864258,1
103,36.743164,18.615723,1,30.319214,9.460449,1,41.9119720458984,6.36077451705933,1,27.72522,-3.0059814,1,30.395508,-8.773804,1,34.729004,-10.879517,1
104,36.66687,18.844604,1,30.227661,9.674072,1,41.7502365112305,6.32291793823242,1,27.420044,-2.822876,1,29.891968,-8.728027,1,34.194946,-10.894775,1
105,36.727905,18.997192,1,30.151367,9.918213,1,41.5826263427734,6.2676854133606,1,27.08435,-2.609253,1,29.388428,-8.666992,1,33.64563,-10.940552,1
106,36.819458,19.28711,1,30.12085,10.147095,1,41.4332427978516,6.14337348937988,1,26.733398,-2.39563,1,28.85437,-8.636475,1,32.943726,-10.848999,1
107,36.895752,19.454956,1,30.12085,10.437012,1,41.2838897705078,6.03400039672852,1,26.443481,-2.2583008,1,28.335571,-8.605957,1,32.50122,-10.864258,1
108,37.03308,19.699097,1,30.12085,10.635376,1,41.1284675598145,5.85705375671387,1,26.09253,-2.0751953,1,27.832031,-8.560181,1,32.01294,-10.894775,1
109,37.124634,19.821167,1,30.227661,10.71167,1,41.0850677490234,5.60121202468872,1,25.83313,-1.9073486,1,27.313232,-8.4991455,1,31.311035,-10.818481,1
110,37.30774,19.79065,1,30.319214,10.650635,1,41.0464591979981,5.27232551574707,1,25.57373,-1.7700195,1,26.809692,-8.453369,1,30.776978,-10.818481,1
111,37.399292,19.683838,1,30.380249,10.665894,1,40.9668350219727,5.01574802398682,1,25.314331,-1.6174316,1,26.290894,-8.392334,1,29.937744,-10.5896,1
112,37.521362,19.66858,1,30.426025,10.681152,1,40.8090896606445,4.66517210006714,1,24.871826,-1.2512207,1,25.787354,-8.239746,1,29.60205,-10.803223,1
113,37.65869,19.607544,1,30.578613,10.757446,1,40.7719879150391,4.42537260055542,1,24.658203,-0.9918213,1,25.32959,-8.117676,1,29.067993,-10.787964,1
114,37.704468,19.683838,1,30.654907,10.772705,1,40.7866134643555,4.34242248535156,1,24.505615,-0.5493164,1,24.917603,-7.7667236,1,28.61023,-10.7421875,1
115,37.704468,19.729614,1,30.807495,10.879517,1,40.9306373596191,4.43576431274414,1,24.475098,0.16784668,1,24.551392,-7.247925,1,27.84729,-10.314941,1
116,37.79602,19.927979,1,30.88379,11.0321045,1,41.0293235778809,4.62366247177124,1,24.398804,1.0986328,1,24.490356,-6.5307617,1,27.648926,-10.1623535,1
117,37.902832,20.095825,1,30.944824,11.291504,1,41.0847473144531,4.87418365478516,1,24.291992,2.2277832,1,24.719238,-5.5236816,1,27.267456,-9.58252,1
118,37.91809,20.431519,1,30.944824,11.657715,1,41.0903968811035,5.24933195114136,1,24.215698,3.189087,1,25.283813,-4.4555664,1,27.252197,-8.7890625,1
119,37.94861,20.721436,1,30.944824,12.145996,1,41.0474891662598,5.67018508911133,1,24.108887,4.2266846,1,25.817871,-3.0670166,1,27.862549,-7.5531006,1
120,38.009644,21.072388,1,30.853271,12.619019,1,41.0335731506348,6.26595497131348,1,24.06311,5.264282,1,26.489258,-1.4648438,1,28.961182,-5.935669,1
121,37.979126,21.362305,1,30.792236,13.061523,1,41.0231742858887,6.79032421112061,1,24.047852,5.874634,1,27.069092,0.091552734,1,29.830933,-4.135132,1
122,37.902832,21.652222,1,30.792236,13.48877,1,41.1042785644531,7.35185289382935,1,24.169922,5.859375,1,27.633667,0.9613037,1,30.60913,-2.9296875,1
123,37.78076,22.04895,1,30.761719,13.702393,1,41.2317237854004,7.83903169631958,1,24.414062,5.355835,1,28.121948,1.1901855,1,31.570435,-2.380371,1
124,37.55188,22.415161,1,30.853271,13.809204,1,41.3721466064453,8.03397941589356,1,24.749756,4.470825,1,28.915405,1.0070801,1,32.989502,-2.090454,1
125,37.261963,22.705078,1,30.822754,13.778687,1,41.6136360168457,8.52922534942627,1,25.390625,3.4484863,1,29.876709,0.7324219,1,34.40857,-1.7242432,1
126,36.987305,22.93396,1,30.822754,13.763428,1,41.8461151123047,9.02154064178467,1,26.184082,2.4108887,1,30.838013,0.22888184,1,35.980225,-1.5716553,1
127,36.621094,23.07129,1,30.670166,13.73291,1,41.9359283447266,9.59979724884033,1,27.08435,1.3275146,1,31.738281,-0.30517578,1,37.0636,-1.5869141,1
128,36.209106,23.162842,1,30.36499,13.595581,1,41.9119491577149,10.3294315338135,1,28.060913,0.47302246,1,32.669067,-0.93078613,1,38.05542,-1.8920898,1
129,35.812378,23.19336,1,30.075073,13.458252,1,41.8044395446777,10.9240970611572,1,29.067993,-0.33569336,1,33.53882,-1.6326904,1,38.83362,-2.3651123,1
130,35.339355,23.19336,1,29.724121,13.290405,1,41.5611000061035,11.3191289901733,1,29.98352,-1.1291504,1,34.347534,-2.4414062,1,39.611816,-3.0517578,1
131,34.89685,23.19336,1,29.373169,13.168335,1,41.2697944641113,11.5966215133667,1,30.74646,-1.7547607,1,35.125732,-3.2043457,1,40.267944,-3.8757324,1
132,34.469604,23.1781,1,29.006958,13.046265,1,40.9422454833984,11.8017101287842,1,31.341553,-2.2277832,1,35.842896,-3.9367676,1,40.802002,-4.7302246,1
133,34.118652,23.101807,1,28.686523,12.863159,1,40.6389923095703,11.7961616516113,1,31.860352,-2.7618408,1,36.392212,-4.699707,1,41.35132,-5.569458,1
134,33.843994,23.010254,1,28.442383,12.710571,1,40.4013595581055,11.7191667556763,1,32.287598,-3.2196045,1,36.987305,-5.3100586,1,41.809082,-6.210327,1
135,33.53882,22.857666,1,28.152466,12.573242,1,40.1146278381348,11.6210336685181,1,32.63855,-3.6468506,1,37.44507,-5.783081,1,42.44995,-6.668091,1
136,33.2489,22.705078,1,27.938843,12.313843,1,39.9018020629883,11.3717412948608,1,32.86743,-4.1046143,1,37.887573,-6.2408447,1,42.938232,-7.1411133,1
137,33.02002,22.476196,1,27.664185,12.069702,1,39.6239013671875,11.0872535705566,1,33.02002,-4.5776367,1,38.208008,-6.7596436,1,43.24341,-7.6446533,1
138,32.730103,22.29309,1,27.496338,11.856079,1,39.4473876953125,10.7733011245728,1,33.081055,-4.989624,1,38.375854,-7.293701,1,43.35022,-8.178711,1
139,32.546997,22.018433,1,27.252197,11.611938,1,39.1979827880859,10.4725503921509,1,33.03528,-5.3710938,1,38.42163,-7.7667236,1,43.395996,-8.682251,1
140,32.333374,21.80481,1,27.08435,11.367798,1,39.0309600830078,10.2370748519897,1,33.050537,-5.6762695,1,38.406372,-8.2092285,1,43.273926,-9.155273,1
141,32.318115,21.54541,1,26.96228,11.09314,1,38.9031219482422,9.90306377410889,1,33.050537,-6.0577393,1,38.43689,-8.712769,1,43.304443,-9.765625,1
142,32.196045,21.270752,1,26.901245,10.864258,1,38.8356628417969,9.61138725280762,1,33.02002,-6.362915,1,38.391113,-9.353638,1,43.19763,-10.5896,1
143,32.27234,21.011353,1,26.885986,10.635376,1,38.8032760620117,9.2288990020752,1,32.699585,-6.6375732,1,38.04016,-9.552002,1,42.633057,-11.108398,1
144,32.24182,20.751953,1,26.794434,10.437012,1,38.6925201416016,8.87640285491943,1,32.165527,-6.8206787,1,37.41455,-9.643555,1,42.06848,-11.077881,1
145,32.302856,20.553589,1,26.748657,10.192871,1,38.6230850219727,8.46141624450684,1,31.63147,-7.0343018,1,36.78894,-9.796143,1,41.534424,-11.138916,1
146,32.302856,20.339966,1,26.641846,10.101318,1,38.5054550170898,8.29722595214844,1,31.097412,-7.003784,1,36.14807,-9.82666,1,40.924072,-11.199951,1
147,32.37915,20.217896,1,26.626587,10.070801,1,38.4619216918945,8.08966064453125,1,30.639648,-7.003784,1,35.614014,-9.857178,1,40.283203,-11.199951,1
148,32.485962,20.126343,1,26.626587,10.08606,1,38.4357681274414,7.95457983016968,1,30.136108,-6.881714,1,35.095215,-9.82666,1,39.79492,-11.21521,1
149,32.63855,20.080566,1,26.626587,10.101318,1,38.3897323608398,7.72889566421509,1,29.647827,-6.8511963,1,34.51538,-9.902954,1,39.245605,-11.21521,1
150,32.76062,20.004272,1,26.687622,10.177612,1,38.4106140136719,7.61411857604981,1,29.190063,-6.668091,1,33.950806,-9.841919,1,38.711548,-11.245728,1
151,32.928467,19.973755,1,26.687622,10.238647,1,38.352668762207,7.42320013046265,1,28.686523,-6.5612793,1,33.37097,-9.918213,1,38.269043,-11.276245,1
152,33.14209,19.927979,1,26.687622,10.314941,1,38.3009757995605,7.29334831237793,1,28.259277,-6.42395,1,32.806396,-9.857178,1,37.628174,-11.260986,1
153,33.355713,19.836426,1,26.748657,10.345459,1,38.2955474853516,7.07906198501587,1,27.770996,-6.2713623,1,32.25708,-9.841919,1,37.216187,-11.33728,1
154,33.52356,19.77539,1,26.824951,10.406494,1,38.284797668457,6.84673166275024,1,27.34375,-6.164551,1,31.661987,-9.82666,1,36.743164,-11.291504,1
155,33.691406,19.714355,1,26.794434,10.4522705,1,38.1947937011719,6.7063627243042,1,26.931763,-6.0272217,1,31.11267,-9.765625,1,35.827637,-11.199951,1
156,33.78296,19.683838,1,26.824951,10.437012,1,38.1653747558594,6.51339292526245,1,26.45874,-5.8135986,1,30.60913,-9.735107,1,35.308838,-11.230469,1
157,33.87451,19.622803,1,26.885986,10.528564,1,38.1276206970215,6.3302698135376,1,26.107788,-5.6915283,1,30.014038,-9.70459,1,34.805298,-11.276245,1
158,33.920288,19.546509,1,26.733398,10.559082,1,37.9438095092773,6.27811574935913,1,25.634766,-5.4473877,1,29.464722,-9.658813,1,34.057617,-11.245728,1
159,34.072876,19.485474,1,26.916504,10.498047,1,38.0025749206543,5.90468168258667,1,25.253296,-5.340576,1,28.930664,-9.643555,1,33.676147,-11.291504,1
160,34.301758,19.439697,1,26.779175,10.604858,1,37.8294563293457,5.92604398727417,1,24.887085,-5.0964355,1,28.442383,-9.643555,1,32.89795,-11.291504,1
161,34.454346,19.378662,1,27.053833,10.5896,1,37.9596328735352,5.58324337005615,1,24.551392,-4.8675537,1,27.938843,-9.58252,1,32.39441,-11.291504,1
162,34.66797,19.28711,1,26.901245,10.681152,1,37.7499771118164,5.55231285095215,1,24.154663,-4.6539307,1,27.450562,-9.552002,1,32.104492,-11.398315,1
163,34.973145,19.16504,1,27.130127,10.650635,1,37.8017501831055,5.16279029846191,1,23.742676,-4.3945312,1,26.947021,-9.536743,1,31.265259,-11.352539,1
164,35.202026,19.058228,1,27.267456,10.681152,1,37.7962493896484,4.9240255355835,1,23.498535,-4.272461,1,26.412964,-9.460449,1,30.792236,-11.33728,1
165,35.369873,18.951416,1,27.389526,10.620117,1,37.8006439208984,4.65281581878662,1,23.19336,-4.043579,1,25.924683,-9.429932,1,30.014038,-11.291504,1
166,35.583496,18.798828,1,27.450562,10.528564,1,37.7335586547852,4.343101978302,1,22.827148,-3.829956,1,25.405884,-9.399414,1,29.708862,-11.352539,1
167,35.7666,18.630981,1,27.542114,10.4522705,1,37.672233581543,4.01949024200439,1,22.506714,-3.6621094,1,24.887085,-9.399414,1,29.11377,-11.367798,1
168,35.873413,18.569946,1,27.58789,10.421753,1,37.5604133605957,3.74726867675781,1,22.201538,-3.540039,1,24.398804,-9.353638,1,28.717041,-11.398315,1
169,36.026,18.508911,1,27.694702,10.421753,1,37.4705429077148,3.46237087249756,1,21.911621,-3.3874512,1,23.910522,-9.292603,1,27.999878,-11.306763,1
170,36.102295,18.52417,1,27.679443,10.437012,1,37.347053527832,3.32805252075195,1,21.652222,-3.2043457,1,23.422241,-9.262085,1,27.435303,-11.352539,1
171,36.27014,18.508911,1,27.832031,10.513306,1,37.2900047302246,3.12772798538208,1,21.42334,-2.9754639,1,22.93396,-9.124756,1,26.901245,-11.230469,1
172,36.40747,18.52417,1,27.923584,10.5896,1,37.2455673217773,3.03310537338257,1,21.28601,-2.822876,1,22.55249,-9.094238,1,26.245117,-11.169434,1
173,36.621094,18.615723,1,28.060913,10.71167,1,37.1885299682617,2.9215087890625,1,21.102905,-2.5787354,1,22.04895,-8.972168,1,25.619507,-11.123657,1
174,36.834717,18.630981,1,28.198242,10.7421875,1,37.0894241333008,2.68322372436523,1,20.904541,-2.5177002,1,21.575928,-8.972168,1,25.268555,-11.3220215,1
175,36.972046,18.64624,1,28.305054,10.757446,1,36.9608459472656,2.44617176055908,1,20.6604,-2.380371,1,21.026611,-8.880615,1,24.749756,-11.306763,1
176,37.03308,18.554688,1,28.366089,10.71167,1,36.752010345459,2.12817621231079,1,20.339966,-2.3040771,1,20.553589,-8.850098,1,24.261475,-11.3220215,1
177,37.15515,18.417358,1,28.381348,10.5896,1,36.5322761535645,1.78264904022217,1,20.019531,-2.2583008,1,20.004272,-8.804321,1,23.773193,-11.352539,1
178,37.17041,18.310547,1,28.335571,10.528564,1,36.2311210632324,1.49195671081543,1,19.622803,-2.1362305,1,19.515991,-8.7890625,1,23.269653,-11.383057,1
179,37.124634,18.249512,1,28.320312,10.543823,1,35.9624824523926,1.29194450378418,1,19.302368,-2.090454,1,19.042969,-8.7890625,1,22.628784,-11.306763,1
180,37.0636,18.188477,1,28.09143,10.543823,1,35.6862335205078,1.25302124023438,1,18.997192,-1.9836426,1,18.478394,-8.712769,1,22.018433,-11.245728,1
181,36.987305,18.203735,1,28.060913,10.665894,1,35.3985824584961,1.1707010269165,1,18.676758,-1.8920898,1,17.974854,-8.682251,1,21.16394,-11.077881,1
182,36.94153,18.26477,1,27.954102,10.696411,1,35.1036148071289,1.05875110626221,1,18.356323,-1.8615723,1,17.456055,-8.621216,1,20.889282,-11.260986,1
183,36.987305,18.295288,1,27.96936,10.787964,1,34.8396034240723,0.949277877807617,1,18.051147,-1.7242432,1,16.937256,-8.590698,1,20.141602,-11.169434,1
184,36.987305,18.295288,1,27.938843,10.83374,1,34.6255912780762,0.869433879852295,1,17.822266,-1.7089844,1,16.433716,-8.514404,1,19.561768,-11.169434,1
185,37.04834,18.356323,1,27.954102,10.894775,1,34.4283828735352,0.791129589080811,1,17.593384,-1.5716553,1,15.960693,-8.422852,1,19.058228,-11.21521,1
186,37.094116,18.432617,1,28.030396,10.971069,1,34.1664695739746,0.658522605895996,1,17.303467,-1.4953613,1,15.457153,-8.31604,1,18.325806,-11.077881,1
187,37.109375,18.463135,1,28.22876,11.001587,1,33.9395790100098,0.447604656219482,1,17.044067,-1.4343262,1,15.029907,-8.346558,1,17.8833,-11.230469,1
188,37.15515,18.600464,1,28.396606,11.062622,1,33.6203231811523,0.259252071380615,1,16.693115,-1.3122559,1,14.49585,-8.255005,1,17.196655,-11.062622,1
189,37.261963,18.722534,1,28.549194,11.199951,1,33.3597297668457,0.206374168395996,1,16.418457,-1.2054443,1,14.0686035,-8.132935,1,17.028809,-11.367798,1
190,37.246704,18.798828,1,28.59497,11.398315,1,32.9950141906738,0.234103679656982,1,16.052246,-1.159668,1,13.580322,-8.132935,1,16.12854,-11.09314,1
191,37.399292,18.936157,1,28.747559,11.566162,1,32.7185821533203,0.242249965667725,1,15.762329,-0.9765625,1,13.092041,-8.056641,1,15.823364,-11.3220215,1
192,37.460327,19.02771,1,28.884888,11.856079,1,32.4299774169922,0.391683578491211,1,15.472412,-0.8087158,1,12.6953125,-7.827759,1,15.106201,-11.001587,1
193,37.53662,19.241333,1,28.900146,11.993408,1,32.2866821289062,0.481180667877197,1,15.319824,-0.579834,1,12.34436,-7.537842,1,14.816284,-11.062622,1
194,37.65869,19.363403,1,29.067993,12.313843,1,32.194938659668,0.728410720825195,1,15.2282715,-0.33569336,1,12.054443,-7.080078,1,14.205933,-10.543823,1
195,37.841797,19.592285,1,29.174805,12.466431,1,32.2962608337402,0.879518985748291,1,15.319824,-0.015258789,1,11.856079,-6.6986084,1,14.11438,-10.818481,1
196,38.009644,19.77539,1,29.388428,12.649536,1,32.5550079345703,1.07487630844116,1,15.579224,0.16784668,1,11.734009,-6.286621,1,13.336182,-10.345459,1
197,38.16223,19.958496,1,29.510498,12.741089,1,32.8874168395996,1.22603559494019,1,15.914917,0.2593994,1,11.688232,-6.0424805,1,12.832642,-10.299683,1
198,38.391113,20.080566,1,29.73938,12.863159,1,33.1519927978516,1.35863590240479,1,16.189575,0.22888184,1,11.581421,-5.79834,1,12.283325,-9.979248,1
199,38.589478,20.15686,1,29.922485,12.924194,1,33.393913269043,1.43728065490723,1,16.433716,0.2746582,1,11.520386,-5.630493,1,11.825562,-9.780884,1
200,38.772583,20.17212,1,30.151367,12.832642,1,33.7108535766602,1.37270975112915,1,16.738892,0.39672852,1,11.627197,-5.340576,1,11.474609,-9.597778,1
201,38.970947,20.202637,1,30.426025,12.741089,1,34.0814819335937,1.31140613555908,1,17.089844,0.77819824,1,11.993408,-4.928589,1,11.367798,-9.292603,1
202,39.30664,20.15686,1,30.86853,12.802124,1,34.8523254394531,1.48269939422607,1,17.852783,1.3580322,1,12.954712,-4.3792725,1,11.627197,-8.7890625,1
203,39.56604,20.202637,1,31.37207,12.802124,1,35.8789443969727,1.68060970306396,1,18.89038,2.3040771,1,14.328003,-3.3874512,1,12.466431,-7.9345703,1
204,39.901733,20.324707,1,31.75354,12.8479,1,37.199405670166,2.15479278564453,1,20.263672,3.6315918,1,16.26587,-2.1209717,1,14.3585205,-6.7749023,1
205,40.237427,20.41626,1,32.25708,13.031006,1,38.5155143737793,2.79225635528564,1,21.652222,4.9438477,1,18.417358,-0.7019043,1,16.952515,-5.5999756,1
206,40.57312,20.599365,1,32.62329,13.259888,1,39.7518692016602,3.60673236846924,1,22.93396,6.088257,1,20.690918,0.45776367,1,19.622803,-4.3945312,1
207,40.802002,20.751953,1,32.86743,13.549805,1,40.8314666748047,4.5734977722168,1,23.986816,6.866455,1,22.903442,1.3885498,1,22.323608,-3.479004,1
208,40.924072,20.935059,1,33.081055,13.85498,1,41.4583549499512,5.26307201385498,1,24.58191,7.30896,1,24.993896,2.0446777,1,25.177002,-2.8686523,1
209,41.015625,21.057129,1,33.15735,14.022827,1,41.8270568847656,5.72607231140137,1,24.902344,7.3242188,1,26.45874,2.3040771,1,27.526855,-2.746582,1
210,40.93933,21.1792,1,33.218384,14.0686035,1,42.0483703613281,5.94263744354248,1,25.08545,7.0648193,1,27.389526,2.2125244,1,29.205322,-3.5552979,1
211,40.893555,21.377563,1,33.218384,14.083862,1,42.2160491943359,6.14395904541016,1,25.222778,6.6223145,1,27.954102,1.9226074,1,30.273438,-3.4942627,1
212,40.83252,21.560669,1,33.26416,14.144897,1,42.298469543457,6.24671649932861,1,25.299072,6.1035156,1,28.35083,1.7089844,1,31.25,-3.5095215,1
213,40.71045,21.759033,1,33.26416,14.23645,1,42.4283790588379,6.4893798828125,1,25.45166,5.5999756,1,28.945923,1.5869141,1,32.25708,-3.250122,1
214,40.603638,21.987915,1,33.26416,14.328003,1,42.6141662597656,6.8062105178833,1,25.6958,5.142212,1,29.510498,1.663208,1,33.26416,-2.6245117,1
215,40.649414,22.155762,1,33.340454,14.3585205,1,42.8678817749023,7.06275987625122,1,26.016235,4.8217773,1,30.10559,1.953125,1,34.210205,-1.6021729,1
216,40.603638,22.338867,1,33.447266,14.49585,1,43.1507339477539,7.43591260910034,1,26.382446,4.638672,1,30.792236,2.2735596,1,35.53772,-1.083374,1
217,40.756226,22.491455,1,33.63037,14.61792,1,43.4526596069336,7.72425603866577,1,26.763916,4.486084,1,31.37207,2.456665,1,36.026,-0.38146973,1
218,40.878296,22.613525,1,33.859253,14.73999,1,43.795295715332,8.01131343841553,1,27.191162,4.3640137,1,31.845093,2.4871826,1,36.819458,-0.21362305,1
219,40.985107,22.781372,1,33.935547,14.862061,1,44.0971488952637,8.47912788391113,1,27.633667,4.2419434,1,32.302856,2.4871826,1,37.216187,0,1
220,41.168213,22.903442,1,34.088135,14.984131,1,44.3610916137695,8.78200721740723,1,28.030396,4.058838,1,32.852173,2.319336,1,37.994385,-0.1373291,1
221,41.275024,23.025513,1,34.194946,15.060425,1,44.5546188354492,9.00425434112549,1,28.366089,3.8146973,1,33.15735,2.166748,1,38.223267,-0.10681152,1
222,41.381836,23.05603,1,34.240723,15.090942,1,44.6835289001465,9.17927742004395,1,28.640747,3.5552979,1,33.53882,1.8920898,1,38.8031,-0.32043457,1
223,41.488647,23.117065,1,34.317017,15.090942,1,44.8678665161133,9.37433433532715,1,28.9917,3.2958984,1,33.87451,1.6784668,1,38.970947,-0.32043457,1
224,41.503906,23.147583,1,34.42383,15.060425,1,45.0678482055664,9.51922607421875,1,29.327393,3.0975342,1,34.317017,1.4648438,1,39.505005,-0.44250488,1
225,41.5802,23.1781,1,34.51538,15.029907,1,45.3477973937988,9.86669158935547,1,29.800415,2.9907227,1,34.729004,1.2817383,1,39.8407,-0.5340576,1
226,41.656494,23.223877,1,34.835815,14.923096,1,45.8046798706055,10.0564804077148,1,30.456543,2.746582,1,35.354614,1.1291504,1,40.664673,-0.6561279,1
227,41.793823,23.284912,1,35.14099,14.831543,1,46.2260360717773,10.2356958389282,1,31.173706,2.3345947,1,36.193848,0.90026855,1,41.397095,-0.64086914,1
228,41.778564,23.4375,1,35.38513,14.785767,1,46.6622772216797,10.6838188171387,1,32.196045,1.7547607,1,37.261963,0.5645752,1,42.617798,-0.7019043,1
229,41.793823,23.57483,1,35.736084,14.678955,1,47.1886444091797,11.0958309173584,1,33.416748,1.1291504,1,38.467407,0.076293945,1,43.884277,-0.88500977,1
230,41.809082,23.666382,1,36.05652,14.572144,1,47.6315155029297,11.4067983627319,1,34.65271,0.4272461,1,39.733887,-0.4119873,1,45.181274,-1.1138916,1
231,41.748047,23.80371,1,36.239624,14.49585,1,47.9210968017578,11.749363899231,1,35.827637,-0.19836426,1,41.0614,-0.9918213,1,46.524048,-1.5106201,1
232,41.71753,23.849487,1,36.361694,14.404297,1,48.1253395080566,12.0343446731567,1,36.987305,-0.8087158,1,42.23633,-1.6174316,1,47.576904,-1.9683838,1
233,41.625977,23.895264,1,36.483765,14.297485,1,48.3127479553223,12.2787780761719,1,38.04016,-1.2664795,1,43.33496,-2.1820068,1,48.797607,-2.5634766,1
234,41.503906,23.910522,1,36.621094,14.160156,1,48.4816436767578,12.3360681533813,1,39.108276,-1.8463135,1,44.418335,-2.7160645,1,49.75891,-3.0212402,1
235,41.397095,23.880005,1,36.697388,13.961792,1,48.5922966003418,12.377124786377,1,40.20691,-2.4108887,1,45.532227,-3.3111572,1,50.872803,-3.5552979,1
236,41.259766,23.80371,1,36.8042,13.671875,1,48.7450981140137,12.4823589324951,1,41.47339,-2.8839111,1,46.707153,-3.982544,1,51.879883,-4.2419434,1
237,41.015625,23.68164,1,36.987305,13.412476,1,48.9393272399902,12.3404779434204,1,42.44995,-3.3721924,1,47.836304,-4.760742,1,53.024292,-5.1879883,1
238,40.893555,23.57483,1,37.216187,13.183594,1,49.1698570251465,12.1301460266113,1,43.273926,-3.8146973,1,48.797607,-5.706787,1,53.95508,-6.4086914,1
239,40.664673,23.361206,1,37.27722,12.924194,1,49.2235984802246,11.7910404205322,1,43.8385,-4.333496,1,49.51477,-6.652832,1,54.56543,-7.6293945,1
240,40.55786,23.101807,1,37.353516,12.588501,1,49.3069038391113,11.5318298339844,1,44.204712,-4.6844482,1,49.850464,-7.751465,1,54.656982,-8.743286,1
241,40.32898,22.766113,1,37.200928,12.039185,1,49.1588745117187,11.0354270935059,1,44.128418,-5.203247,1,49.591064,-8.300781,1,54.45862,-9.872437,1
242,40.115356,22.323608,1,37.03308,11.59668,1,48.9822311401367,10.4931192398071,1,43.59436,-5.630493,1,49.01123,-8.514404,1,53.756714,-9.796143,1
243,39.94751,21.850586,1,36.743164,11.077881,1,48.6998596191406,10.0593509674072,1,42.98401,-5.9509277,1,48.37036,-8.712769,1,53.17688,-9.94873,1
244,39.642334,21.438599,1,36.376953,10.726929,1,48.3410568237305,9.79945850372314,1,42.373657,-6.1187744,1,47.714233,-8.895874,1,52.612305,-10.040283,1
245,39.245605,21.16394,1,36.026,10.513306,1,47.9854621887207,9.52775955200195,1,41.748047,-6.286621,1,47.14966,-9.002686,1,52.06299,-10.131836,1
246,38.986206,20.935059,1,35.720825,10.284424,1,47.6792221069336,9.28608417510986,1,41.18347,-6.42395,1,46.524048,-9.0789795,1,51.40686,-10.147095,1
247,38.711548,20.751953,1,35.354614,10.116577,1,47.3124313354492,9.11128711700439,1,40.618896,-6.515503,1,46.00525,-9.0789795,1,50.91858,-10.192871,1
248,38.589478,20.6604,1,35.186768,10.040283,1,47.1282730102539,8.85685920715332,1,40.100098,-6.6223145,1,45.394897,-9.155273,1,50.27771,-10.20813,1
249,38.45215,20.53833,1,34.942627,9.94873,1,46.8776626586914,8.70174694061279,1,39.5813,-6.652832,1,44.815063,-9.20105,1,49.77417,-10.284424,1
250,38.345337,20.431519,1,34.820557,9.857178,1,46.7433166503906,8.49782752990723,1,39.0625,-6.668091,1,44.265747,-9.170532,1,49.209595,-10.269165,1
251,38.2843,20.27893,1,34.683228,9.674072,1,46.6052436828613,8.30823135375977,1,38.589478,-6.6833496,1,43.670654,-9.216309,1,48.78235,-10.360718,1
252,38.16223,20.111084,1,34.484863,9.490967,1,46.4043655395508,8.10334205627441,1,38.07068,-6.713867,1,43.167114,-9.216309,1,48.080444,-10.284424,1
253,38.07068,19.958496,1,34.332275,9.292603,1,46.2489547729492,7.88091945648193,1,37.506104,-6.6986084,1,42.541504,-9.231567,1,47.531128,-10.375977,1
254,37.78076,19.821167,1,34.04236,9.231567,1,45.9529800415039,7.7696795463562,1,37.002563,-6.6833496,1,42.022705,-9.246826,1,46.936035,-10.345459,1
255,37.582397,19.729614,1,33.691406,9.140015,1,45.5982131958008,7.64737367630005,1,36.453247,-6.6833496,1,41.397095,-9.262085,1,46.340942,-10.360718,1
256,37.246704,19.592285,1,33.26416,8.94165,1,45.1737327575684,7.47124338150024,1,35.827637,-6.729126,1,40.83252,-9.32312,1,45.822144,-10.421753,1
257,36.895752,19.500732,1,32.806396,8.911133,1,44.7070999145508,7.37059020996094,1,35.324097,-6.80542,1,40.267944,-9.292603,1,45.318604,-10.467529,1
258,36.40747,19.39392,1,32.24182,8.81958,1,44.1443328857422,7.29309129714966,1,34.66797,-6.8206787,1,39.70337,-9.3688965,1,44.708252,-10.467529,1
259,36.04126,19.348145,1,31.723022,8.880615,1,43.6086044311523,7.22744417190552,1,34.057617,-6.8359375,1,39.04724,-9.384155,1,44.036865,-10.360718,1
260,35.598755,19.348145,1,31.25,8.880615,1,43.1288757324219,7.17993021011353,1,33.5083,-6.8359375,1,38.43689,-9.429932,1,43.518066,-10.421753,1
261,35.232544,19.348145,1,30.74646,8.956909,1,42.6080017089844,7.13927507400513,1,32.928467,-6.8359375,1,37.887573,-9.44519,1,42.922974,-10.406494,1
262,34.988403,19.27185,1,30.334473,8.911133,1,42.1852684020996,7.02470207214356,1,32.36389,-6.8511963,1,37.30774,-9.490967,1,42.526245,-10.543823,1
263,34.683228,19.16504,1,29.876709,8.895874,1,41.7148132324219,6.93137359619141,1,31.784058,-6.866455,1,36.68213,-9.521484,1,41.70227,-10.421753,1
264,34.454346,19.119263,1,29.510498,8.850098,1,41.3353805541992,6.80750274658203,1,31.234741,-6.866455,1,36.17859,-9.536743,1,41.18347,-10.482788,1
265,34.27124,19.073486,1,29.190063,8.850098,1,40.9859008789063,6.64596796035767,1,30.670166,-6.866455,1,35.568237,-9.521484,1,40.481567,-10.4522705,1
266,34.14917,18.997192,1,28.701782,8.895874,1,40.4782638549805,6.59054756164551,1,30.090332,-6.866455,1,35.003662,-9.536743,1,40.20691,-10.650635,1
267,33.935547,18.966675,1,28.503418,8.956909,1,40.2324333190918,6.42111968994141,1,29.571533,-6.8206787,1,34.40857,-9.597778,1,39.642334,-10.650635,1
268,33.859253,18.920898,1,28.09143,9.017944,1,39.8043098449707,6.40863800048828,1,29.052734,-6.7596436,1,33.859253,-9.552002,1,39.154053,-10.772705,1
269,33.737183,18.920898,1,27.84729,9.0789795,1,39.5014419555664,6.21877479553223,1,28.503418,-6.744385,1,33.294678,-9.597778,1,38.513184,-10.772705,1
270,33.676147,18.89038,1,27.572632,9.185791,1,39.1886863708496,6.17460012435913,1,28.015137,-6.6375732,1,32.714844,-9.567261,1,38.116455,-10.848999,1
271,33.615112,18.920898,1,27.359009,9.292603,1,38.9332618713379,6.1245288848877,1,27.48108,-6.439209,1,32.11975,-9.536743,1,37.490845,-10.864258,1
272,33.615112,18.90564,1,27.160645,9.429932,1,38.6736297607422,6.04596757888794,1,27.053833,-6.362915,1,31.585693,-9.521484,1,37.04834,-10.879517,1
273,33.52356,18.90564,1,27.038574,9.414673,1,38.486572265625,5.81698799133301,1,26.611328,-6.3476562,1,31.066895,-9.490967,1,36.590576,-10.894775,1
274,33.569336,18.859863,1,26.885986,9.490967,1,38.2968482971191,5.77718257904053,1,26.107788,-6.072998,1,30.532837,-9.429932,1,35.842896,-10.848999,1
275,33.66089,18.78357,1,26.84021,9.536743,1,38.1832427978516,5.62067222595215,1,25.772095,-5.996704,1,30.029297,-9.414673,1,35.15625,-10.772705,1
276,33.813477,18.737793,1,26.916504,9.58252,1,38.1600151062012,5.38925838470459,1,25.360107,-5.79834,1,29.510498,-9.338379,1,34.713745,-10.83374,1
277,33.966064,18.707275,1,26.855469,9.689331,1,38.0019302368164,5.24451923370361,1,24.94812,-5.645752,1,29.006958,-9.307861,1,33.554077,-10.528564,1
278,34.103394,18.661499,1,26.885986,9.70459,1,37.9058990478516,4.95469856262207,1,24.459839,-5.4473877,1,28.427124,-9.292603,1,33.52356,-10.83374,1
279,34.240723,18.615723,1,26.779175,9.857178,1,37.6630744934082,4.80339479446411,1,24.032593,-5.355835,1,27.816772,-9.246826,1,32.86743,-10.818481,1
280,34.2865,18.585205,1,26.687622,9.887695,1,37.4764022827148,4.63391590118408,1,23.590088,-5.1727295,1,27.328491,-9.20105,1,32.318115,-10.787964,1
281,34.14917,18.52417,1,26.428223,9.857178,1,37.1894493103027,4.54718685150147,1,23.147583,-5.0354004,1,26.824951,-9.140015,1,31.99768,-10.879517,1
282,34.103394,18.493652,1,26.306152,9.887695,1,36.9977645874023,4.43889331817627,1,22.781372,-4.8828125,1,26.290894,-9.109497,1,31.204224,-10.7421875,1
283,34.04236,18.463135,1,26.168823,9.902954,1,36.7820854187012,4.30307579040527,1,22.399902,-4.760742,1,25.756836,-9.017944,1,30.700684,-10.7421875,1
284,33.950806,18.432617,1,26.33667,9.887695,1,36.7427940368652,3.91169333457947,1,21.987915,-4.5318604,1,25.268555,-8.972168,1,29.647827,-10.467529,1
285,33.88977,18.4021,1,26.260376,9.857178,1,36.5897674560547,3.74950575828552,1,21.66748,-4.3945312,1,24.719238,-8.895874,1,29.61731,-10.803223,1
286,33.88977,18.356323,1,26.260376,9.887695,1,36.4455604553223,3.54246068000793,1,21.30127,-4.180908,1,24.246216,-8.880615,1,28.625488,-10.421753,1
287,33.88977,18.295288,1,26.229858,9.841919,1,36.2888679504395,3.29850387573242,1,20.9198,-3.9672852,1,23.757935,-8.773804,1,28.701782,-10.879517,1
288,33.90503,18.234253,1,26.184082,9.841919,1,36.1079292297363,3.09526968002319,1,20.568848,-3.7994385,1,23.162842,-8.728027,1,27.435303,-10.406494,1
289,33.7677,18.157959,1,26.046753,9.811401,1,35.9433212280273,3.02480220794678,1,20.29419,-3.616333,1,22.720337,-8.682251,1,27.420044,-10.71167,1
290,33.75244,18.1427,1,26.046753,9.887695,1,35.7785377502441,2.86684370040894,1,19.989014,-3.4332275,1,22.232056,-8.544922,1,26.382446,-10.345459,1
291,33.721924,18.1427,1,25.970459,9.841919,1,35.6204223632812,2.70902252197266,1,19.699097,-3.250122,1,21.759033,-8.529663,1,26.245117,-10.650635,1
292,33.64563,18.051147,1,26.016235,9.902954,1,35.5320129394531,2.59200572967529,1,19.485474,-3.0212402,1,21.270752,-8.422852,1,25.375366,-10.375977,1
293,33.554077,18.066406,1,25.878906,9.933472,1,35.2963104248047,2.49623680114746,1,19.16504,-2.8686523,1,20.79773,-8.392334,1,25.146484,-10.604858,1
294,33.676147,18.112183,1,25.939941,10.070801,1,35.1486473083496,2.37666606903076,1,18.90564,-2.6397705,1,20.309448,-8.270264,1,24.520874,-10.559082,1
295,33.75244,18.173218,1,25.894165,10.20813,1,34.9552879333496,2.34072589874268,1,18.64624,-2.456665,1,19.79065,-8.255005,1,24.07837,-10.696411,1
296,33.706665,18.218994,1,25.848389,10.299683,1,34.6611938476562,2.15508699417114,1,18.26477,-2.3345947,1,19.226074,-8.148193,1,23.544312,-10.696411,1
297,33.859253,18.249512,1,25.817871,10.375977,1,34.4620666503906,2.05264329910278,1,17.990112,-2.1514893,1,18.76831,-8.163452,1,22.949219,-10.665894,1
298,33.920288,18.203735,1,25.83313,10.4522705,1,34.2819404602051,1.9306755065918,1,17.745972,-2.0141602,1,18.188477,-8.056641,1,22.323608,-10.604858,1
299,34.04236,18.096924,1,25.802612,10.391235,1,34.063060760498,1.68692541122437,1,17.440796,-1.876831,1,17.76123,-8.071899,1,21.850586,-10.665894,1
300,34.16443,17.959595,1,25.9552,10.3302,1,33.8539695739746,1.29640579223633,1,17.13562,-1.7852783,1,17.227173,-8.026123,1,21.209717,-10.620117,1
301,34.317017,17.837524,1,26.000977,10.299683,1,33.7217178344727,1.11327171325684,1,16.952515,-1.6784668,1,16.76941,-8.010864,1,20.67566,-10.620117,1
302,34.53064,17.684937,1,26.184082,10.284424,1,33.6492767333984,0.889163970947266,1,16.815186,-1.4801025,1,16.281128,-7.873535,1,19.882202,-10.360718,1
303,34.698486,17.669678,1,26.397705,10.192871,1,33.6431617736816,0.627133846282959,1,16.75415,-1.3122559,1,15.869141,-7.751465,1,19.561768,-10.498047,1
304,34.805298,17.608643,1,26.565552,10.20813,1,33.5763053894043,0.469068050384522,1,16.647339,-1.083374,1,15.472412,-7.5683594,1,19.02771,-10.482788,1
305,35.03418,17.578125,1,26.733398,10.192871,1,33.5897445678711,0.34449577331543,1,16.63208,-0.8544922,1,15.090942,-7.369995,1,18.051147,-10.177612,1
306,35.232544,17.654419,1,26.855469,10.345459,1,33.5678672790527,0.398414611816406,1,16.601562,-0.6713867,1,14.694214,-7.156372,1,17.623901,-10.20813,1
307,35.339355,17.745972,1,26.931763,10.437012,1,33.4756546020508,0.37830924987793,1,16.494751,-0.4272461,1,14.419556,-6.958008,1,17.044067,-10.055542,1
308,35.43091,17.868042,1,27.023315,10.5896,1,33.4228973388672,0.438474655151367,1,16.433716,-0.16784668,1,14.083862,-6.729126,1,16.677856,-10.055542,1
309,35.583496,18.051147,1,27.08435,10.83374,1,33.3210945129395,0.58176326751709,1,16.326904,0.1373291,1,13.763428,-6.4086914,1,16.082764,-9.811401,1
310,35.736084,18.234253,1,27.22168,11.016846,1,33.4472885131836,0.75810432434082,1,16.448975,0.5187988,1,13.595581,-5.996704,1,15.838623,-10.055542,1
311,35.88867,18.432617,1,27.359009,11.367798,1,33.8456878662109,1.27210712432861,1,16.845703,1.2512207,1,13.671875,-5.264282,1,15.304565,-9.384155,1
312,36.16333,18.737793,1,27.618408,11.672974,1,34.4478340148926,1.805908203125,1,17.456055,2.3345947,1,14.343262,-4.333496,1,15.289307,-8.880615,1
313,36.43799,19.104004,1,27.923584,12.069702,1,35.114086151123,2.46258735656738,1,18.1427,3.4484863,1,15.457153,-3.326416,1,15.50293,-8.041382,1
314,36.66687,19.454956,1,28.198242,12.466431,1,35.759822845459,3.14857196807861,1,18.829346,4.6844482,1,16.693115,-2.1209717,1,16.25061,-7.171631,1
315,36.880493,19.744873,1,28.457642,12.817383,1,36.3326606750488,3.76287651062012,1,19.454956,5.79834,1,18.127441,-0.61035156,1,17.822266,-5.8288574,1
316,37.124634,20.065308,1,28.59497,13.305664,1,36.8812026977539,4.62589645385742,1,20.019531,6.790161,1,19.805908,0.90026855,1,20.309448,-4.8217773,1
317,37.216187,20.355225,1,28.640747,13.702393,1,37.2797393798828,5.37366008758545,1,20.401001,7.4005127,1,21.362305,2.1820068,1,22.598267,-2.6550293,1
318,37.27722,20.67566,1,28.793335,14.083862,1,37.6734390258789,6.01269626617432,1,20.751953,7.6446533,1,22.735596,2.89917,1,24.56665,-2.1820068,1
319,37.231445,21.087646,1,28.823853,14.266968,1,38.0750465393066,6.62396717071533,1,21.087646,7.2784424,1,23.6969,2.960205,1,26.2146,-1.739502,1
320,37.322998,21.42334,1,29.006958,14.373779,1,38.5926361083984,7.1547269821167,1,21.606445,6.4697266,1,24.795532,2.6550293,1,28.121948,-1.7852783,1
321,37.368774,21.743774,1,29.23584,14.3585205,1,39.2261390686035,7.71066808700562,1,22.369385,5.508423,1,25.924683,2.2277832,1,29.754639,-1.4038086,1
322,37.506104,22.018433,1,29.647827,14.328003,1,39.9701385498047,8.20836734771729,1,23.406982,4.3792725,1,27.359009,1.7852783,1,31.799316,-1.2664795,1
323,37.582397,22.262573,1,30.029297,14.23645,1,40.7324523925781,8.81035900115967,1,24.68872,3.189087,1,28.900146,1.3427734,1,33.78296,-0.8239746,1
324,37.750244,22.460938,1,30.456543,14.129639,1,41.5187530517578,9.47910118103027,1,26.260376,1.9836426,1,30.639648,0.77819824,1,36.05652,-0.64086914,1
325,37.765503,22.68982,1,30.822754,13.99231,1,42.2122268676758,10.2134342193604,1,28.030396,0.8392334,1,32.50122,-0.030517578,1,37.91809,-0.8544922,1
326,37.826538,22.842407,1,31.143188,13.85498,1,42.7261047363281,10.7187366485596,1,29.876709,-0.4119873,1,34.469604,-1.083374,1,39.901733,-1.5411377,1
327,37.887573,22.964478,1,31.38733,13.73291,1,43.1410331726074,11.3141403198242,1,31.860352,-1.4038086,1,36.468506,-2.2125244,1,41.763306,-2.5024414,1
328,37.79602,22.964478,1,31.524658,13.519287,1,43.3746032714844,11.6274967193604,1,33.676147,-2.3345947,1,38.33008,-3.4179688,1,43.60962,-3.616333,1
329,37.78076,22.842407,1,31.677246,13.214111,1,43.5806198120117,11.6943283081055,1,35.202026,-3.0975342,1,39.993286,-4.6844482,1,45.12024,-5.0354004,1
330,37.67395,22.613525,1,31.784058,12.771606,1,43.7154693603516,11.4904222488403,1,36.315918,-3.8146973,1,41.275024,-6.149292,1,46.24939,-7.019043,1
331,37.597656,22.247314,1,31.860352,12.34436,1,43.7934112548828,11.0786380767822,1,36.956787,-4.486084,1,42.099,-7.659912,1,46.798706,-9.0789795,1
332,37.582397,21.774292,1,31.951904,11.703491,1,43.8755760192871,10.3521766662598,1,37.017822,-5.203247,1,42.037964,-8.560181,1,46.3562,-10.101318,1
333,37.67395,21.118164,1,31.936646,11.0321045,1,43.8420715332031,9.52847480773926,1,36.361694,-5.7373047,1,41.19873,-8.850098,1,45.715332,-10.1623535,1
334,37.734985,20.507812,1,31.921387,10.498047,1,43.8426361083984,9.12550640106201,1,35.842896,-5.874634,1,40.649414,-8.956909,1,45.150757,-10.20813,1
335,37.81128,20.065308,1,31.936646,10.101318,1,43.8576126098633,8.72632503509522,1,35.38513,-6.011963,1,40.039062,-9.033203,1,44.570923,-10.3302,1
336,37.826538,19.760132,1,31.906128,9.82666,1,43.8311576843262,8.48736953735352,1,34.88159,-5.9661865,1,39.489746,-9.124756,1,43.97583,-10.375977,1
337,37.872314,19.500732,1,31.829834,9.613037,1,43.7511672973633,8.24125385284424,1,34.439087,-5.9814453,1,38.970947,-9.155273,1,43.441772,-10.421753,1
338,37.94861,19.226074,1,31.860352,9.475708,1,43.7592544555664,7.92131328582764,1,33.88977,-5.92041,1,38.360596,-9.155273,1,42.816162,-10.375977,1
339,38.05542,19.088745,1,31.845093,9.414673,1,43.7148170471191,7.65125846862793,1,33.416748,-5.874634,1,37.841797,-9.170532,1,42.266846,-10.4522705,1
340,38.101196,19.02771,1,31.799316,9.429932,1,43.6269912719727,7.40356683731079,1,32.89795,-5.783081,1,37.231445,-9.170532,1,41.71753,-10.482788,1
341,38.116455,18.920898,1,31.63147,9.399414,1,43.4460067749023,7.29781103134155,1,32.424927,-5.645752,1,36.727905,-9.20105,1,41.137695,-10.543823,1
342,38.253784,18.707275,1,31.723022,9.32312,1,43.505542755127,7.04886817932129,1,32.01294,-5.4779053,1,36.17859,-9.170532,1,40.527344,-10.528564,1
343,38.42163,18.508911,1,31.799316,9.246826,1,43.5624237060547,6.87421417236328,1,31.723022,-5.3253174,1,35.64453,-9.20105,1,40.17639,-10.71167,1
344,38.55896,18.371582,1,31.89087,9.170532,1,43.6137619018555,6.60658359527588,1,31.341553,-5.1574707,1,35.095215,-9.109497,1,39.367676,-10.620117,1
345,38.68103,18.1427,1,31.921387,8.987427,1,43.635986328125,6.38585329055786,1,30.975342,-4.9591064,1,34.65271,-9.140015,1,39.04724,-10.879517,1
346,38.757324,17.959595,1,31.982422,8.880615,1,43.6783485412598,6.19634675979614,1,30.654907,-4.7302246,1,34.103394,-9.048462,1,38.589478,-10.879517,1
347,38.742065,17.77649,1,31.967163,8.69751,1,43.6574516296387,5.98879194259644,1,30.303955,-4.5318604,1,33.63037,-9.048462,1,38.269043,-10.971069,1
348,38.742065,17.562866,1,31.982422,8.621216,1,43.6467018127441,5.8026065826416,1,30.044556,-4.3945312,1,33.15735,-8.956909,1,37.612915,-10.940552,1
349,38.742065,17.410278,1,31.951904,8.422852,1,43.5838890075684,5.47379589080811,1,29.60205,-4.196167,1,32.65381,-8.94165,1,37.15515,-10.986328,1
350,38.68103,17.25769,1,31.829834,8.300781,1,43.4483871459961,5.29924631118774,1,29.23584,-4.0283203,1,32.089233,-8.911133,1,36.17859,-10.787964,1
351,38.68103,17.181396,1,31.661987,8.270264,1,43.2153625488281,5.02688407897949,1,28.808594,-3.9978027,1,31.61621,-8.911133,1,35.827637,-10.894775,1
352,38.528442,17.074585,1,31.463623,8.239746,1,42.9826622009277,4.87645530700684,1,28.381348,-3.829956,1,31.00586,-8.865356,1,35.17151,-10.83374,1
353,38.33008,17.105103,1,31.204224,8.239746,1,42.6786804199219,4.72735977172852,1,27.954102,-3.768921,1,30.456543,-8.850098,1,34.79004,-10.955811,1
354,38.253784,17.074585,1,31.051636,8.285522,1,42.4972229003906,4.68017864227295,1,27.633667,-3.5705566,1,29.937744,-8.804321,1,34.103394,-10.971069,1
355,38.16223,17.028809,1,30.899048,8.377075,1,42.344310760498,4.77069759368897,1,27.404785,-3.3416748,1,29.510498,-8.758545,1,33.66089,-10.940552,1
356,38.04016,17.089844,1,30.88379,8.468628,1,42.2637519836426,4.66120529174805,1,27.145386,-3.112793,1,29.067993,-8.621216,1,32.928467,-10.864258,1
357,37.94861,17.150879,1,30.822754,8.483887,1,42.1626930236816,4.55886554718018,1,26.885986,-2.89917,1,28.579712,-8.544922,1,32.424927,-10.803223,1
358,37.857056,17.196655,1,30.670166,8.544922,1,41.9503021240234,4.45119476318359,1,26.535034,-2.7160645,1,28.09143,-8.483887,1,32.15027,-10.971069,1
359,37.67395,17.196655,1,30.548096,8.636475,1,41.7315673828125,4.2856183052063,1,26.19934,-2.6245117,1,27.557373,-8.43811,1,30.975342,-10.498047,1
360,37.506104,17.196655,1,30.319214,8.651733,1,41.4553985595703,4.1812310218811,1,25.817871,-2.4871826,1,27.008057,-8.377075,1,30.700684,-10.757446,1
361,37.29248,17.150879,1,30.136108,8.651733,1,41.1971549987793,3.9984302520752,1,25.45166,-2.4108887,1,26.504517,-8.361816,1,29.754639,-10.498047,1
362,37.017822,17.166138,1,29.891968,8.621216,1,40.9004554748535,3.8449010848999,1,25.039673,-2.2735596,1,25.924683,-8.392334,1,29.693604,-10.910034,1
363,36.8042,17.044067,1,29.678345,8.605957,1,40.5916900634766,3.6160717010498,1,24.627686,-2.2277832,1,25.390625,-8.361816,1,28.61023,-10.528564,1
364,36.52954,17.074585,1,29.373169,8.575439,1,40.2244491577148,3.45198917388916,1,24.18518,-2.1820068,1,24.856567,-8.346558,1,28.22876,-10.665894,1
365,36.117554,17.044067,1,29.083252,8.560181,1,39.8546943664551,3.27094602584839,1,23.742676,-2.1514893,1,24.276733,-8.407593,1,27.48108,-10.528564,1
366,35.7666,16.998291,1,28.671265,8.605957,1,39.3879318237305,3.20659494400024,1,23.254395,-2.1514893,1,23.727417,-8.346558,1,27.34375,-10.864258,1
367,35.324097,16.952515,1,28.259277,8.560181,1,38.9379959106445,3.08615303039551,1,22.735596,-2.0599365,1,23.05603,-8.377075,1,26.229858,-10.559082,1
368,34.92737,17.044067,1,27.801514,8.575439,1,38.4267883300781,2.99838638305664,1,22.201538,-2.0751953,1,22.567749,-8.377075,1,25.741577,-10.665894,1
369,34.500122,17.01355,1,27.435303,8.651733,1,37.9974632263184,2.95605182647705,1,21.759033,-2.0751953,1,21.896362,-8.377075,1,25.07019,-10.5896,1
370,34.103394,17.120361,1,27.038574,8.773804,1,37.5301055908203,2.94904756546021,1,21.270752,-2.0141602,1,21.362305,-8.407593,1,24.902344,-10.971069,1
371,33.828735,17.13562,1,26.657104,8.773804,1,37.0955581665039,2.85445642471313,1,20.767212,-1.876831,1,20.721436,-8.346558,1,24.230957,-10.925293,1
372,33.615112,17.196655,1,26.382446,8.956909,1,36.6702499389648,2.77944326400757,1,20.324707,-1.8920898,1,20.217896,-8.361816,1,23.712158,-11.001587,1
373,33.40149,17.211914,1,26.123047,9.017944,1,36.3071441650391,2.6709623336792,1,19.89746,-1.7700195,1,19.683838,-8.331299,1,22.81189,-10.7421875,1
374,33.26416,17.303467,1,25.909424,9.002686,1,35.9366111755371,2.41060304641724,1,19.424438,-1.6326904,1,19.134521,-8.331299,1,22.537231,-10.955811,1
375,33.12683,17.288208,1,25.6958,8.987427,1,35.5623397827148,2.15724468231201,1,18.997192,-1.663208,1,18.554688,-8.31604,1,21.896362,-10.910034,1
376,33.081055,17.227173,1,25.482178,8.972168,1,35.196346282959,1.92696523666382,1,18.569946,-1.6174316,1,18.035889,-8.300781,1,21.362305,-10.910034,1
377,33.00476,17.211914,1,25.268555,8.956909,1,34.7885780334473,1.65149068832397,1,18.096924,-1.5716553,1,17.425537,-8.239746,1,20.41626,-10.665894,1
378,32.836914,17.25769,1,25.131226,9.094238,1,34.4819641113281,1.57335615158081,1,17.76123,-1.4953613,1,16.921997,-8.239746,1,19.882202,-10.696411,1
379,32.852173,17.333984,1,24.963379,9.246826,1,34.0703239440918,1.43250799179077,1,17.303467,-1.373291,1,16.37268,-8.148193,1,19.332886,-10.71167,1
380,32.86743,17.440796,1,24.902344,9.429932,1,33.8226928710937,1.40326356887817,1,17.028809,-1.2359619,1,15.838623,-8.087158,1,18.76831,-10.620117,1
381,32.943726,17.562866,1,24.856567,9.628296,1,33.5385093688965,1.34434270858765,1,16.708374,-1.0528564,1,15.411377,-7.9345703,1,18.371582,-10.681152,1
382,33.050537,17.654419,1,24.902344,9.780884,1,33.3833999633789,1.2913818359375,1,16.525269,-0.90026855,1,14.9383545,-7.7667236,1,17.623901,-10.513306,1
383,33.187866,17.730713,1,24.963379,9.918213,1,33.2619781494141,1.25026941299438,1,16.37268,-0.6866455,1,14.541626,-7.583618,1,17.211914,-10.528564,1
384,33.309937,17.76123,1,24.978638,10.025024,1,33.1434783935547,1.23096895217896,1,16.235352,-0.5340576,1,14.129639,-7.2631836,1,16.586304,-10.3302,1
385,33.416748,17.929077,1,25.009155,10.177612,1,33.0946502685547,1.3105525970459,1,16.159058,-0.16784668,1,13.85498,-6.9885254,1,16.25061,-10.269165,1
386,33.416748,18.02063,1,25.100708,10.3302,1,33.121467590332,1.40454053878784,1,16.159058,0.2746582,1,13.671875,-6.4697266,1,15.762329,-9.994507,1
387,33.599854,18.127441,1,25.161743,10.543823,1,33.2847900390625,1.71115112304688,1,16.296387,1.083374,1,13.641357,-5.783081,1,15.640259,-9.887695,1
388,33.828735,18.310547,1,25.299072,10.803223,1,33.4942588806152,2.03744125366211,1,16.494751,2.166748,1,13.900757,-4.8217773,1,15.167236,-9.140015,1
389,34.225464,18.554688,1,25.543213,11.138916,1,33.843879699707,2.47295188903809,1,16.860962,3.2348633,1,14.663696,-3.829956,1,15.258789,-8.453369,1
390,34.65271,18.829346,1,25.848389,11.566162,1,34.1761856079102,2.92626476287842,1,17.227173,4.2419434,1,15.533447,-2.8839111,1,15.579224,-7.7667236,1
391,35.125732,19.073486,1,26.260376,11.962891,1,34.5851097106934,3.32004356384277,1,17.700195,5.2948,1,16.63208,-1.6326904,1,16.830444,-6.6375732,1
392,35.53772,19.241333,1,26.687622,12.374878,1,35.0237312316895,3.74300289154053,1,18.203735,6.210327,1,18.051147,-0.2746582,1,18.798828,-5.340576,1
393,36.04126,19.40918,1,27.236938,12.664795,1,35.6036529541016,4.06258201599121,1,18.814087,6.729126,1,19.592285,0.8544922,1,20.980835,-4.3182373,1
394,36.453247,19.607544,1,27.770996,12.939453,1,36.1908187866211,4.38921546936035,1,19.363403,6.80542,1,21.148682,1.5411377,1,23.010254,-3.1585693,1
395,36.91101,19.836426,1,28.320312,13.061523,1,36.8910484313965,4.66256713867188,1,19.989014,6.4849854,1,22.583008,1.7242432,1,25.314331,-2.8381348,1
396,37.338257,20.126343,1,28.915405,13.092041,1,37.6940841674805,4.91067028045654,1,20.721436,5.874634,1,24.169922,1.5869141,1,27.267456,-2.4261475,1
397,37.78076,20.401001,1,29.541016,13.122559,1,38.6362800598145,5.29464817047119,1,21.636963,5.142212,1,25.6958,1.3427734,1,29.571533,-2.2277832,1
398,38.208008,20.721436,1,30.197144,13.168335,1,39.7891845703125,5.95773601531982,1,22.872925,4.272461,1,27.359009,1.0681152,1,31.723022,-1.9378662,1
399,38.69629,21.011353,1,30.944824,13.183594,1,40.9483795166016,6.55570316314697,1,24.246216,3.3874512,1,29.144287,0.90026855,1,34.16443,-1.6021729,1
400,39.001465,21.347046,1,31.600952,13.244629,1,42.0228958129883,7.29625558853149,1,25.726318,2.456665,1,30.853271,0.61035156,1,36.315918,-1.2817383,1
401,39.413452,21.68274,1,32.318115,13.290405,1,43.1327590942383,8.09007167816162,1,27.496338,1.4190674,1,32.714844,0.045776367,1,38.253784,-1.2817383,1
402,39.657593,22.018433,1,32.943726,13.320923,1,44.0797462463379,8.85000991821289,1,29.418945,0.24414062,1,34.576416,-0.77819824,1,40.222168,-1.6937256,1
403,39.81018,22.384644,1,33.37097,13.366699,1,44.8002243041992,9.70988750457764,1,31.433105,-0.79345703,1,36.52954,-1.7852783,1,42.20581,-2.4414062,1
404,39.901733,22.613525,1,33.66089,13.366699,1,45.2755928039551,10.3503074645996,1,33.38623,-1.8005371,1,38.42163,-2.9144287,1,43.85376,-3.3569336,1
405,39.886475,22.781372,1,33.90503,13.35144,1,45.6203994750977,10.7533569335938,1,35.03418,-2.5482178,1,40.100098,-4.058838,1,45.333862,-4.348755,1
406,39.871216,22.79663,1,34.103394,13.22937,1,45.8839340209961,10.9448776245117,1,36.392212,-3.1585693,1,41.519165,-5.0354004,1,46.75293,-5.41687,1
407,39.871216,22.781372,1,34.194946,13.137817,1,45.9970512390137,10.9674921035767,1,37.338257,-3.6621094,1,42.60254,-6.134033,1,47.851562,-6.881714,1
408,39.916992,22.583008,1,34.317017,12.802124,1,46.1032371520996,10.5471305847168,1,37.719727,-4.2419434,1,43.10608,-7.446289,1,48.01941,-8.575439,1
409,39.978027,22.277832,1,34.454346,12.435913,1,46.2217597961426,10.0847549438477,1,37.857056,-4.714966,1,42.907715,-8.544922,1,47.531128,-10.192871,1
410,40.161133,21.820068,1,34.469604,11.947632,1,46.2199249267578,9.51246070861816,1,37.399292,-5.0201416,1,42.312622,-8.7890625,1,46.783447,-10.009766,1
411,40.237427,21.240234,1,34.469604,11.474609,1,46.2174987792969,9.02777099609375,1,36.94153,-5.218506,1,41.671753,-8.880615,1,46.157837,-10.20813,1
412,40.283203,20.78247,1,34.51538,11.047363,1,46.2373237609863,8.47908592224121,1,36.42273,-5.4016113,1,41.09192,-8.956909,1,45.700073,-10.360718,1
413,40.237427,20.523071,1,34.500122,10.803223,1,46.2091407775879,8.17665386199951,1,35.980225,-5.4016113,1,40.512085,-9.033203,1,45.043945,-10.375977,1
414,40.19165,20.248413,1,34.362793,10.574341,1,46.0529861450195,7.86519861221314,1,35.461426,-5.432129,1,39.978027,-9.033203,1,44.525146,-10.4522705,1
415,40.145874,20.004272,1,34.179688,10.4522705,1,45.8458366394043,7.64139699935913,1,34.942627,-5.4016113,1,39.398193,-9.0789795,1,43.85376,-10.4522705,1
416,40.130615,19.821167,1,34.072876,10.253906,1,45.7189712524414,7.36107873916626,1,34.454346,-5.3710938,1,38.81836,-9.185791,1,43.304443,-10.513306,1
417,40.05432,19.561768,1,33.859253,10.009766,1,45.4929656982422,7.067542552948,1,33.90503,-5.3710938,1,38.238525,-9.277344,1,42.770386,-10.574341,1
418,39.978027,19.317627,1,33.843994,9.857178,1,45.423755645752,6.70930480957031,1,33.40149,-5.3100586,1,37.750244,-9.292603,1,42.160034,-10.604858,1
419,39.993286,19.119263,1,33.676147,9.674072,1,45.2310028076172,6.43596649169922,1,32.89795,-5.264282,1,37.124634,-9.338379,1,41.59546,-10.650635,1
420,40.039062,18.90564,1,33.599854,9.597778,1,45.0646667480469,6.0540509223938,1,32.27234,-5.142212,1,36.605835,-9.414673,1,41.0614,-10.772705,1
421,39.993286,18.753052,1,33.493042,9.506226,1,44.8955421447754,5.76684808731079,1,31.768799,-5.0354004,1,36.010742,-9.399414,1,40.390015,-10.818481,1
422,40.039062,18.585205,1,33.355713,9.353638,1,44.7219696044922,5.50549459457397,1,31.265259,-4.8828125,1,35.491943,-9.414673,1,39.94751,-10.971069,1
423,40.039062,18.417358,1,33.2489,9.292603,1,44.5327301025391,5.20907306671143,1,30.807495,-4.8217773,1,34.957886,-9.3688965,1,39.29138,-10.971069,1
424,40.023804,18.234253,1,33.14209,9.170532,1,44.3573684692383,4.90233039855957,1,30.349731,-4.7302246,1,34.454346,-9.429932,1,38.970947,-11.0321045,1
425,40.06958,18.066406,1,32.974243,9.140015,1,44.1205825805664,4.69488620758057,1,29.891968,-4.6081543,1,33.859253,-9.399414,1,38.467407,-11.047363,1
426,40.05432,17.959595,1,32.913208,9.048462,1,43.9522552490234,4.34321069717407,1,29.434204,-4.501343,1,33.37097,-9.399414,1,38.116455,-11.09314,1
427,40.100098,17.913818,1,32.74536,9.155273,1,43.6632499694824,4.17534112930298,1,28.945923,-4.333496,1,32.76062,-9.353638,1,37.460327,-11.077881,1
428,40.161133,17.868042,1,32.730103,9.20105,1,43.501091003418,3.9108898639679,1,28.533936,-4.1503906,1,32.211304,-9.353638,1,37.04834,-11.123657,1
429,40.31372,17.868042,1,32.74536,9.246826,1,43.3863563537598,3.69982147216797,1,28.213501,-3.9672852,1,31.692505,-9.292603,1,36.499023,-11.138916,1
430,40.55786,17.807007,1,32.806396,9.32312,1,43.2942199707031,3.49169111251831,1,27.908325,-3.7384033,1,31.219482,-9.20105,1,35.55298,-10.955811,1
431,40.802002,17.791748,1,32.89795,9.3688965,1,43.2573509216309,3.31226348876953,1,27.679443,-3.4942627,1,30.776978,-9.140015,1,35.14099,-10.940552,1
432,41.18347,17.669678,1,33.233643,9.399414,1,43.3905067443848,3.00894403457642,1,27.572632,-3.2196045,1,30.273438,-9.033203,1,34.622192,-10.940552,1
433,41.5802,17.623901,1,33.52356,9.384155,1,43.4465255737305,2.63621664047241,1,27.404785,-2.9907227,1,29.86145,-8.956909,1,34.0271,-10.955811,1
434,42.007446,17.578125,1,33.843994,9.32312,1,43.488109588623,2.18231821060181,1,27.236938,-2.8076172,1,29.342651,-8.81958,1,33.233643,-10.757446,1
435,42.434692,17.410278,1,34.16443,9.277344,1,43.4744567871094,1.70612144470215,1,27.023315,-2.5787354,1,28.85437,-8.81958,1,32.86743,-10.894775,1
436,42.69409,17.25769,1,34.39331,9.262085,1,43.4182586669922,1.35320615768433,1,26.84021,-2.4108887,1,28.35083,-8.773804,1,32.440186,-10.894775,1
437,42.922974,17.120361,1,34.500122,9.170532,1,43.272102355957,0.981981754302979,1,26.58081,-2.243042,1,27.84729,-8.651733,1,31.99768,-10.971069,1
438,43.014526,16.998291,1,34.561157,9.185791,1,43.1256256103516,0.780444145202637,1,26.367188,-2.0751953,1,27.389526,-8.544922,1,30.944824,-10.620117,1
439,43.136597,16.906738,1,34.561157,9.170532,1,42.9606971740723,0.600366592407227,1,26.153564,-1.953125,1,26.901245,-8.483887,1,30.471802,-10.635376,1
440,43.07556,16.845703,1,34.606934,9.140015,1,42.8294410705566,0.39985466003418,1,25.970459,-1.7852783,1,26.473999,-8.407593,1,29.830933,-10.543823,1
441,43.24341,16.784668,1,34.729004,9.140015,1,42.7710418701172,0.233521938323975,1,25.878906,-1.6784668,1,26.016235,-8.331299,1,29.769897,-10.925293,1
442,43.33496,16.845703,1,34.91211,9.216309,1,42.7479629516602,0.127886295318604,1,25.83313,-1.5716553,1,25.604248,-8.148193,1,29.23584,-10.848999,1
443,43.548584,16.967773,1,35.15625,9.277344,1,42.7626342773438,-0.00397729873657227,1,25.817871,-1.373291,1,25.20752,-8.010864,1,28.289795,-10.375977,1
444,43.685913,17.089844,1,35.40039,9.414673,1,42.736888885498,-0.0814208984375,1,25.772095,-1.1749268,1,24.82605,-7.8430176,1,27.801514,-10.284424,1
445,43.823242,17.318726,1,35.583496,9.521484,1,42.6472778320313,-0.179182052612305,1,25.665283,-0.9613037,1,24.414062,-7.7209473,1,27.34375,-10.284424,1
446,43.8385,17.547607,1,35.614014,9.765625,1,42.4479904174805,-0.0982866287231445,1,25.466919,-0.90026855,1,23.925781,-7.5683594,1,26.794434,-10.269165,1
447,43.777466,17.791748,1,35.78186,9.872437,1,42.2165374755859,-0.256481170654297,1,25.222778,-0.7171631,1,23.529053,-7.4920654,1,26.71814,-10.71167,1
448,43.548584,18.035889,1,35.91919,10.025024,1,41.9612770080566,-0.342868804931641,1,24.963379,-0.61035156,1,23.07129,-7.3242188,1,25.772095,-10.253906,1
449,43.45703,18.295288,1,35.873413,10.253906,1,41.6718215942383,-0.252209663391113,1,24.673462,-0.48828125,1,22.644043,-7.2784424,1,25.512695,-10.559082,1
450,43.24341,18.585205,1,35.78186,10.528564,1,41.3804092407227,-0.0854005813598633,1,24.383545,-0.4119873,1,22.109985,-7.171631,1,24.642944,-10.269165,1
451,43.09082,18.814087,1,35.598755,10.71167,1,41.0145378112793,0.00329208374023437,1,24.017334,-0.30517578,1,21.697998,-7.156372,1,24.44458,-10.5896,1
452,42.83142,19.02771,1,35.354614,10.986328,1,40.6908950805664,0.238114356994629,1,23.6969,-0.21362305,1,21.118164,-7.0648193,1,23.605347,-10.192871,1
453,42.70935,19.210815,1,35.186768,11.199951,1,40.295036315918,0.341516494750977,1,23.30017,-0.076293945,1,20.6604,-6.92749,1,23.376465,-10.528564,1
454,42.556763,19.302368,1,35.003662,11.352539,1,39.975025177002,0.430746078491211,1,22.979736,0.030517578,1,20.233154,-6.7596436,1,22.491455,-10.055542,1
455,42.388916,19.470215,1,34.89685,11.550903,1,39.7435913085937,0.573239326477051,1,22.750854,0.076293945,1,19.805908,-6.652832,1,22.033691,-10.055542,1
456,42.282104,19.561768,1,34.79004,11.535645,1,39.6262435913086,0.55333423614502,1,22.628784,0.2593994,1,19.515991,-6.439209,1,21.652222,-10.025024,1
457,42.160034,19.622803,1,34.75952,11.520386,1,39.658130645752,0.565769195556641,1,22.659302,0.36621094,1,19.210815,-6.1187744,1,21.026611,-9.765625,1
458,41.992188,19.592285,1,34.683228,11.413574,1,39.8118629455566,0.564743995666504,1,22.81189,0.5950928,1,19.119263,-5.7678223,1,20.553589,-9.628296,1
459,41.793823,19.546509,1,34.729004,11.306763,1,40.1621284484863,0.607175827026367,1,23.162842,0.76293945,1,19.16504,-5.340576,1,20.15686,-9.3688965,1
460,41.503906,19.561768,1,34.606934,11.184692,1,40.6659622192383,0.826693534851074,1,23.666382,0.9460449,1,19.378662,-4.91333,1,19.851685,-9.140015,1
461,41.259766,19.622803,1,34.5459,11.123657,1,41.1987953186035,1.13671588897705,1,24.20044,1.373291,1,19.760132,-4.4403076,1,19.607544,-8.7890625,1
462,40.96985,19.65332,1,34.347534,11.154175,1,41.5910034179688,1.5869312286377,1,24.597168,2.0446777,1,20.462036,-3.9367676,1,19.699097,-8.377075,1
463,40.618896,19.79065,1,34.057617,11.291504,1,41.864631652832,2.178297996521,1,24.887085,3.0517578,1,21.347046,-3.1433105,1,20.263672,-7.6293945,1
464,40.46631,19.927979,1,33.676147,11.383057,1,41.8885498046875,2.63340377807617,1,24.963379,4.2266846,1,22.81189,-2.2277832,1,21.881104,-6.80542,1
465,40.20691,19.958496,1,33.325195,11.642456,1,41.963005065918,3.3124942779541,1,25.07019,5.218506,1,24.490356,-1.083374,1,24.612427,-6.2561035,1
466,40.039062,20.126343,1,33.081055,12.008667,1,41.9844436645508,3.96319103240967,1,25.08545,5.8135986,1,25.985718,0.030517578,1,27.282715,-5.4779053,1
467,39.871216,20.309448,1,32.943726,12.252808,1,42.0526924133301,4.44085025787354,1,25.131226,6.072998,1,27.34375,1.0375977,1,29.281616,-4.5166016,1
468,39.68811,20.446777,1,32.913208,12.329102,1,42.2597732543945,4.80303287506104,1,25.283813,5.706787,1,28.305054,1.3580322,1,30.960083,-4.0740967,1
469,39.520264,20.523071,1,32.943726,12.237549,1,42.6194496154785,5.13963890075684,1,25.619507,5.0964355,1,29.159546,1.1138916,1,32.424927,-3.768921,1
470,39.367676,20.645142,1,33.065796,12.10022,1,42.9997138977051,5.36840581893921,1,26.046753,4.1046143,1,30.24292,0.4272461,1,34.194946,-3.829956,1
471,39.07776,20.690918,1,33.218384,11.810303,1,43.474781036377,5.58082962036133,1,26.687622,2.89917,1,31.38733,-0.15258789,1,35.53772,-3.2806396,1
472,38.894653,20.721436,1,33.355713,11.520386,1,43.9566879272461,5.89728116989136,1,27.496338,1.6479492,1,32.577515,-0.6866455,1,37.612915,-3.2958984,1
473,38.619995,20.690918,1,33.477783,11.230469,1,44.3907928466797,6.23985719680786,1,28.366089,0.5645752,1,33.706665,-1.1444092,1,38.757324,-2.822876,1
474,38.42163,20.629883,1,33.5083,10.986328,1,44.7834129333496,6.87878942489624,1,29.418945,-0.39672852,1,34.75952,-1.5716553,1,40.100098,-2.5939941,1
475,38.116455,20.614624,1,33.462524,10.803223,1,44.9652061462402,7.38439750671387,1,30.303955,-1.2207031,1,35.64453,-1.9989014,1,41.046143,-2.609253,1
476,37.91809,20.568848,1,33.40149,10.620117,1,45.1052093505859,7.97003841400147,1,31.204224,-1.8157959,1,36.499023,-2.5482178,1,41.931152,-2.960205,1
477,37.704468,20.568848,1,33.294678,10.513306,1,45.1299247741699,8.53166961669922,1,32.043457,-2.319336,1,37.29248,-2.9449463,1,42.678833,-3.2043457,1
478,37.582397,20.614624,1,33.15735,10.421753,1,45.0704460144043,8.98019695281982,1,32.806396,-2.7923584,1,38.05542,-3.2653809,1,43.59436,-3.4179688,1
479,37.27722,20.690918,1,32.974243,10.406494,1,44.9449234008789,9.5681619644165,1,33.691406,-3.1738281,1,38.864136,-3.6773682,1,44.34204,-3.6773682,1
480,37.078857,20.828247,1,32.88269,10.360718,1,44.8803329467773,10.122971534729,1,34.622192,-3.4332275,1,39.79492,-4.0740967,1,45.211792,-4.1503906,1
481,36.94153,20.950317,1,32.74536,10.391235,1,44.743465423584,10.6045455932617,1,35.52246,-3.6773682,1,40.69519,-4.5166016,1,46.035767,-4.6844482,1
482,36.727905,21.057129,1,32.684326,10.421753,1,44.673770904541,10.9248962402344,1,36.392212,-3.9215088,1,41.732788,-4.8217773,1,46.966553,-4.928589,1
483,36.56006,21.118164,1,32.63855,10.421753,1,44.6230926513672,11.0305862426758,1,37.0636,-4.196167,1,42.58728,-5.004883,1,47.86682,-4.989624,1
484,36.392212,21.16394,1,32.62329,10.3302,1,44.5863265991211,11.2713527679443,1,37.841797,-4.333496,1,43.395996,-5.0811768,1,48.690796,-4.974365,1
485,36.193848,21.148682,1,32.592773,10.299683,1,44.5513076782227,11.2964363098145,1,38.467407,-4.5776367,1,44.21997,-5.2337646,1,49.53003,-5.004883,1
486,36.117554,21.102905,1,32.562256,10.1623535,1,44.5017585754395,11.3657865524292,1,39.031982,-4.7302246,1,44.815063,-5.432129,1,50.094604,-5.2490234,1
487,36.026,20.965576,1,32.53174,10.055542,1,44.4656982421875,11.3127861022949,1,39.44397,-4.928589,1,45.36438,-5.935669,1,50.64392,-5.9509277,1
488,35.995483,20.767212,1,32.592773,9.82666,1,44.5253715515137,11.0967540740967,1,39.749146,-5.218506,1,45.822144,-6.744385,1,50.88806,-7.095337,1
489,35.995483,20.53833,1,32.62329,9.490967,1,44.5488357543945,10.8256435394287,1,40.05432,-5.569458,1,46.203613,-7.7667236,1,51.04065,-8.407593,1
490,36.102295,20.233154,1,32.806396,9.216309,1,44.7430191040039,10.4479722976685,1,40.20691,-5.935669,1,46.203613,-8.468628,1,50.979614,-9.521484,1
491,36.30066,19.851685,1,33.02002,8.911133,1,44.9657745361328,10.0508499145508,1,40.008545,-6.210327,1,45.898438,-8.483887,1,50.598145,-9.70459,1
492,36.5448,19.40918,1,33.172607,8.560181,1,45.1336479187012,9.52637481689453,1,39.55078,-6.5307617,1,45.166016,-8.682251,1,50.00305,-9.82666,1
493,36.834717,19.119263,1,33.233643,8.255005,1,45.2019195556641,9.12696075439453,1,39.031982,-6.713867,1,44.58618,-8.758545,1,49.3927,-9.872437,1
494,37.002563,18.920898,1,33.294678,8.178711,1,45.2689056396484,8.9647331237793,1,38.589478,-6.668091,1,44.11316,-8.743286,1,48.88916,-9.887695,1
495,37.15515,18.951416,1,33.27942,8.224487,1,45.2684326171875,8.73786735534668,1,38.146973,-6.6986084,1,43.533325,-8.834839,1,48.37036,-9.979248,1
496,37.109375,18.966675,1,33.096313,8.2092285,1,45.0897064208984,8.60746002197266,1,37.56714,-6.6375732,1,42.98401,-8.804321,1,47.74475,-9.979248,1
497,37.002563,18.90564,1,32.852173,8.255005,1,44.8509407043457,8.42705535888672,1,37.002563,-6.652832,1,42.419434,-8.865356,1,47.195435,-10.025024,1
498,36.834717,18.829346,1,32.577515,8.224487,1,44.5774536132813,8.2636194229126,1,36.42273,-6.652832,1,41.778564,-8.956909,1,46.569824,-10.040283,1
499,36.636353,18.676758,1,32.11975,8.239746,1,44.1189727783203,8.10328578948975,1,35.812378,-6.729126,1,41.21399,-9.033203,1,46.173096,-10.101318,1
500,36.315918,18.569946,1,31.707764,8.132935,1,43.7060470581055,7.92994785308838,1,35.202026,-6.790161,1,40.603638,-9.109497,1,45.440674,-10.08606,1
501,36.071777,18.432617,1,31.280518,8.087158,1,43.276611328125,7.78099536895752,1,34.622192,-6.8511963,1,40.05432,-9.124756,1,45.059204,-10.177612,1
502,35.79712,18.249512,1,30.944824,7.9956055,1,42.9373245239258,7.57146453857422,1,34.01184,-6.8969727,1,39.44397,-9.185791,1,44.387817,-10.147095,1
503,35.568237,18.112183,1,30.48706,7.888794,1,42.477466583252,7.40908432006836,1,33.462524,-7.003784,1,38.848877,-9.231567,1,43.807983,-10.177612,1
504,35.40039,17.89856,1,30.273438,7.6904297,1,42.2625541687012,7.17945528030396,1,32.86743,-6.9885254,1,38.208008,-9.262085,1,43.21289,-10.223389,1
505,35.29358,17.745972,1,29.99878,7.598877,1,41.9853973388672,7.03234529495239,1,32.39441,-7.003784,1,37.704468,-9.262085,1,42.755127,-10.238647,1
506,35.17151,17.623901,1,29.769897,7.537842,1,41.746898651123,6.79523992538452,1,31.860352,-7.0343018,1,37.078857,-9.292603,1,42.022705,-10.20813,1
507,35.064697,17.501831,1,29.678345,7.385254,1,41.6444129943848,6.48345994949341,1,31.295776,-7.003784,1,36.575317,-9.277344,1,41.549683,-10.269165,1
508,34.92737,17.410278,1,29.342651,7.4005127,1,41.2966728210449,6.35104751586914,1,30.700684,-6.942749,1,35.980225,-9.338379,1,40.985107,-10.284424,1
509,34.65271,17.333984,1,29.037476,7.3394775,1,40.9899215698242,6.27221775054932,1,30.258179,-6.9122314,1,35.446167,-9.292603,1,40.32898,-10.238647,1
510,34.51538,17.303467,1,28.793335,7.4005127,1,40.7147026062012,6.02903079986572,1,29.708862,-6.92749,1,34.866333,-9.3688965,1,39.916992,-10.345459,1
511,34.301758,17.318726,1,28.4729,7.4005127,1,40.3876190185547,5.97240447998047,1,29.174805,-6.80542,1,34.301758,-9.307861,1,39.230347,-10.299683,1
512,34.13391,17.303467,1,28.274536,7.537842,1,40.1366806030273,5.72413063049316,1,28.564453,-6.729126,1,33.706665,-9.3688965,1,38.864136,-10.437012,1
513,34.118652,17.288208,1,28.030396,7.675171,1,39.8444290161133,5.57073879241943,1,28.045654,-6.668091,1,33.172607,-9.307861,1,38.05542,-10.360718,1
514,34.118652,17.303467,1,27.923584,7.797241,1,39.6763763427734,5.37403774261475,1,27.48108,-6.4697266,1,32.62329,-9.338379,1,37.857056,-10.5896,1
515,34.16443,17.333984,1,27.801514,7.9345703,1,39.4663543701172,5.11827993392944,1,26.901245,-6.3323975,1,32.0282,-9.292603,1,36.849976,-10.284424,1
516,34.194946,17.39502,1,27.618408,8.056641,1,39.2350769042969,5.04781198501587,1,26.443481,-6.149292,1,31.5094,-9.246826,1,36.895752,-10.665894,1
517,34.301758,17.456055,1,27.60315,8.300781,1,39.0968208312988,4.85178709030151,1,25.970459,-5.9509277,1,30.975342,-9.216309,1,35.88867,-10.406494,1
518,34.40857,17.456055,1,27.557373,8.361816,1,38.9566688537598,4.61267232894897,1,25.482178,-5.7525635,1,30.426025,-9.20105,1,35.507202,-10.513306,1
519,34.439087,17.501831,1,27.404785,8.529663,1,38.6949996948242,4.4638147354126,1,24.993896,-5.5999756,1,29.846191,-9.20105,1,34.942627,-10.528564,1
520,34.40857,17.547607,1,27.252197,8.666992,1,38.4663581848145,4.39585494995117,1,24.627686,-5.4779053,1,29.327393,-9.170532,1,34.484863,-10.574341,1
521,34.317017,17.547607,1,27.08435,8.69751,1,38.2269592285156,4.24304389953613,1,24.154663,-5.2948,1,28.762817,-9.170532,1,33.584595,-10.406494,1
522,34.240723,17.532349,1,26.931763,8.804321,1,37.9460868835449,4.04147911071777,1,23.620605,-5.1116943,1,28.182983,-9.155273,1,33.187866,-10.528564,1
523,34.240723,17.486572,1,26.748657,8.880615,1,37.7058868408203,3.98785591125488,1,23.269653,-4.989624,1,27.664185,-9.109497,1,32.53174,-10.4522705,1
524,34.240723,17.410278,1,26.672363,8.865356,1,37.5226898193359,3.73988819122314,1,22.827148,-4.8065186,1,27.191162,-9.063721,1,32.287598,-10.696411,1
525,34.2865,17.333984,1,26.565552,8.850098,1,37.348388671875,3.58413028717041,1,22.460938,-4.623413,1,26.626587,-8.987427,1,31.356812,-10.437012,1
526,34.2865,17.211914,1,26.473999,8.81958,1,37.1910705566406,3.4210250377655,1,22.109985,-4.425049,1,26.138306,-8.987427,1,30.975342,-10.543823,1
527,34.2865,17.105103,1,26.412964,8.773804,1,37.0097160339355,3.14274215698242,1,21.68274,-4.211426,1,25.634766,-8.926392,1,30.166626,-10.421753,1
528,34.27124,16.998291,1,26.33667,8.712769,1,36.8191337585449,2.87171459197998,1,21.316528,-4.1046143,1,25.08545,-8.895874,1,29.785156,-10.574341,1
529,34.240723,16.937256,1,26.260376,8.651733,1,36.5990142822266,2.55972337722778,1,20.889282,-3.9367676,1,24.520874,-8.850098,1,29.174805,-10.513306,1
530,34.179688,16.87622,1,26.07727,8.682251,1,36.3231620788574,2.43551683425903,1,20.507812,-3.7994385,1,24.017334,-8.834839,1,28.656006,-10.528564,1
531,34.14917,16.906738,1,25.924683,8.773804,1,36.0192642211914,2.28540086746216,1,20.065308,-3.5858154,1,23.468018,-8.773804,1,28.015137,-10.482788,1
532,33.966064,16.937256,1,25.680542,8.834839,1,35.7243614196777,2.26812839508057,1,19.714355,-3.4484863,1,22.918701,-8.773804,1,27.34375,-10.421753,1
533,33.828735,17.074585,1,25.466919,9.002686,1,35.4384536743164,2.32672262191772,1,19.363403,-3.2043457,1,22.384644,-8.651733,1,26.809692,-10.437012,1
534,33.75244,17.120361,1,25.314331,9.155273,1,35.1218719482422,2.24064493179321,1,18.966675,-3.0517578,1,21.896362,-8.666992,1,26.031494,-10.345459,1
535,33.599854,17.196655,1,25.161743,9.307861,1,34.8958549499512,2.29023456573486,1,18.707275,-2.89917,1,21.42334,-8.560181,1,25.863647,-10.513306,1
536,33.477783,17.303467,1,24.871826,9.490967,1,34.5909461975098,2.45259523391724,1,18.371582,-2.6397705,1,20.874023,-8.4991455,1,24.887085,-10.284424,1
537,33.37097,17.39502,1,24.749756,9.613037,1,34.3527984619141,2.41709280014038,1,18.066406,-2.456665,1,20.385742,-8.468628,1,24.642944,-10.4522705,1
538,33.294678,17.471313,1,24.56665,9.811401,1,34.1006698608398,2.52425670623779,1,17.791748,-2.2735596,1,19.866943,-8.331299,1,23.834229,-10.299683,1
539,33.187866,17.501831,1,24.719238,9.70459,1,34.0064239501953,2.10536527633667,1,17.532349,-2.090454,1,19.424438,-8.31604,1,23.605347,-10.528564,1
540,33.081055,17.547607,1,24.795532,9.750366,1,33.8307571411133,1.85323476791382,1,17.27295,-1.9989014,1,18.859863,-8.239746,1,22.644043,-10.253906,1
541,33.050537,17.654419,1,24.70398,9.872437,1,33.5892105102539,1.80691432952881,1,16.983032,-1.8310547,1,18.356323,-8.224487,1,22.460938,-10.543823,1
542,32.88269,17.715454,1,24.642944,9.933472,1,33.3623886108398,1.68900346755981,1,16.693115,-1.6479492,1,17.913818,-8.163452,1,21.728516,-10.421753,1
543,32.88269,17.715454,1,24.56665,10.009766,1,33.1330871582031,1.60642433166504,1,16.418457,-1.4953613,1,17.471313,-8.148193,1,21.453857,-10.5896,1
544,32.791138,17.745972,1,24.520874,10.116577,1,32.919246673584,1.54526948928833,1,16.174316,-1.3885498,1,16.906738,-8.071899,1,20.431519,-10.3302,1
545,32.74536,17.76123,1,24.459839,10.147095,1,32.7006378173828,1.42417860031128,1,15.914917,-1.2664795,1,16.38794,-8.010864,1,20.324707,-10.559082,1
546,32.699585,17.730713,1,24.414062,10.253906,1,32.4814529418945,1.37037229537964,1,15.670776,-1.159668,1,15.914917,-7.9040527,1,19.699097,-10.498047,1
547,32.669067,17.76123,1,24.398804,10.314941,1,32.2690734863281,1.25630855560303,1,15.426636,-1.0528564,1,15.50293,-7.888794,1,19.16504,-10.574341,1
548,32.714844,17.822266,1,24.44458,10.513306,1,32.0258407592773,1.21145296096802,1,15.167236,-0.9765625,1,14.984131,-7.8582764,1,18.600464,-10.528564,1
549,32.806396,17.837524,1,24.44458,10.513306,1,31.8678283691406,1.08486938476563,1,14.984131,-0.90026855,1,14.526367,-7.827759,1,18.081665,-10.528564,1
550,32.86743,17.8833,1,24.490356,10.604858,1,31.6010074615478,0.938492298126221,1,14.694214,-0.8392334,1,13.961792,-7.7667236,1,17.410278,-10.482788,1
551,32.943726,18.035889,1,24.44458,10.7421875,1,31.3532905578613,0.930472850799561,1,14.434814,-0.7324219,1,13.473511,-7.751465,1,16.952515,-10.559082,1
552,33.02002,18.096924,1,24.459839,10.7421875,1,31.0742950439453,0.729747295379639,1,14.129639,-0.64086914,1,12.924194,-7.6446533,1,16.26587,-10.482788,1
553,33.00476,18.1427,1,24.429321,10.818481,1,30.7897834777832,0.64279842376709,1,13.824463,-0.44250488,1,12.4053955,-7.583618,1,15.823364,-10.559082,1
554,33.081055,18.096924,1,24.429321,10.83374,1,30.464693069458,0.46193790435791,1,13.48877,-0.44250488,1,11.932373,-7.4310303,1,15.075684,-10.513306,1
555,33.14209,18.051147,1,24.398804,10.83374,1,30.2343063354492,0.348183631896973,1,13.244629,-0.24414062,1,11.428833,-7.3394775,1,14.587402,-10.513306,1
556,33.172607,18.035889,1,24.414062,10.910034,1,30.025691986084,0.302978515625,1,13.031006,-0.12207031,1,11.001587,-7.171631,1,13.99231,-10.437012,1
557,33.2489,18.02063,1,24.490356,10.940552,1,29.8782253265381,0.218104362487793,1,12.878418,0.1373291,1,10.620117,-6.92749,1,13.519287,-10.406494,1
558,33.37097,18.066406,1,24.627686,10.971069,1,29.8448162078857,0.164518356323242,1,12.8479,0.48828125,1,10.3302,-6.6223145,1,13.015747,-10.284424,1
559,33.493042,18.051147,1,24.749756,11.0321045,1,29.8206939697266,0.156187057495117,1,12.832642,0.79345703,1,10.009766,-6.2561035,1,12.527466,-10.070801,1
560,33.676147,18.157959,1,24.917603,11.138916,1,29.9805011749268,0.259252548217773,1,13.000488,1.083374,1,9.857178,-5.874634,1,12.145996,-10.009766,1
561,33.88977,18.295288,1,25.054932,11.260986,1,30.1352462768555,0.389445304870605,1,13.168335,1.449585,1,9.735107,-5.5236816,1,11.71875,-9.841919,1
562,34.118652,18.432617,1,25.238037,11.383057,1,30.4137954711914,0.556629180908203,1,13.458252,1.7852783,1,9.658813,-5.1574707,1,11.367798,-9.689331,1
563,34.16443,18.630981,1,25.390625,11.520386,1,30.7383594512939,0.777865409851074,1,13.793945,2.1514893,1,9.70459,-4.6539307,1,10.818481,-9.277344,1
564,34.2865,18.798828,1,25.57373,11.642456,1,31.1996974945068,1.04299926757813,1,14.282227,2.7160645,1,10.040283,-4.119873,1,10.665894,-8.972168,1
565,34.362793,18.951416,1,25.634766,11.795044,1,31.7713356018066,1.48279190063477,1,14.892578,3.5095215,1,10.772705,-3.4179688,1,10.620117,-8.239746,1
566,34.484863,19.180298,1,25.6958,12.039185,1,32.2952919006348,2.01687335968018,1,15.518188,4.760742,1,11.749268,-2.3498535,1,10.986328,-7.4768066,1
567,34.53064,19.424438,1,25.71106,12.359619,1,32.7970962524414,2.67519569396973,1,16.159058,6.164551,1,13.061523,-0.9765625,1,12.054443,-6.2408447,1
568,34.63745,19.622803,1,25.83313,12.756348,1,33.1273384094238,3.22773170471191,1,16.63208,7.3394775,1,14.297485,0.2593994,1,13.656616,-5.1574707,1
569,34.75952,19.836426,1,25.83313,13.198853,1,33.2788887023926,3.78818416595459,1,16.87622,8.255005,1,15.563965,1.4953613,1,15.335083,-3.9520264,1
570,34.805298,20.080566,1,25.909424,13.580322,1,33.370662689209,4.18192195892334,1,16.998291,8.758545,1,16.87622,2.3651123,1,17.044067,-2.9449463,1
571,34.91211,20.202637,1,26.062012,13.824463,1,33.577693939209,4.4695405960083,1,17.13562,8.7890625,1,17.974854,2.8533936,1,18.737793,-2.243042,1
572,34.957886,20.41626,1,26.09253,13.85498,1,33.814567565918,4.66966056823731,1,17.227173,8.392334,1,18.966675,2.8533936,1,20.492554,-1.9836426,1
573,35.04944,20.568848,1,26.184082,13.809204,1,34.1810264587402,4.86219787597656,1,17.410278,7.6446533,1,19.943237,2.4871826,1,22.094727,-1.9683838,1
574,35.110474,20.6604,1,26.33667,13.626099,1,34.6724395751953,4.99389457702637,1,17.76123,6.729126,1,20.996094,1.8615723,1,23.834229,-2.0446777,1
575,35.01892,20.767212,1,26.550293,13.412476,1,35.2424125671387,5.13920021057129,1,18.249512,5.630493,1,21.957397,1.4648438,1,25.390625,-2.0141602,1
576,34.988403,20.858765,1,26.763916,13.244629,1,35.8796730041504,5.44059276580811,1,18.90564,4.501343,1,22.979736,1.1291504,1,27.160645,-1.9226074,1
577,34.957886,20.980835,1,26.96228,13.061523,1,36.5252532958984,5.81241703033447,1,19.699097,3.3874512,1,23.956299,0.6866455,1,28.549194,-1.6937256,1
578,34.91211,21.148682,1,27.22168,12.908936,1,37.2288398742676,6.28649234771729,1,20.690918,2.3498535,1,24.978638,0.19836426,1,29.99878,-1.6937256,1
579,34.88159,21.240234,1,27.404785,12.756348,1,37.8232803344727,6.80193901062012,1,21.697998,1.4190674,1,26.016235,-0.36621094,1,31.234741,-1.8615723,1
580,34.805298,21.362305,1,27.618408,12.664795,1,38.3978233337402,7.39182758331299,1,22.842407,0.5340576,1,27.175903,-1.083374,1,32.424927,-2.2888184,1
581,34.805298,21.469116,1,27.740479,12.573242,1,38.8743133544922,8.09688568115234,1,24.139404,-0.38146973,1,28.366089,-1.8463135,1,33.554077,-2.8076172,1
582,34.729004,21.591187,1,27.954102,12.435913,1,39.3843955993652,8.78237247467041,1,25.650024,-1.2359619,1,29.693604,-2.7618408,1,34.820557,-3.5552979,1
583,34.805298,21.68274,1,28.060913,12.374878,1,39.6938591003418,9.4296178817749,1,27.20642,-2.105713,1,31.234741,-3.616333,1,36.27014,-4.257202,1
584,34.744263,21.774292,1,28.289795,12.237549,1,40.0704956054688,9.95388793945313,1,28.839111,-2.8076172,1,32.86743,-4.40979,1,37.734985,-4.9591064,1
585,34.75952,21.80481,1,28.4729,12.039185,1,40.3575477600098,10.3793096542358,1,30.426025,-3.4179688,1,34.576416,-5.0964355,1,39.42871,-5.722046,1
586,34.851074,21.774292,1,28.686523,11.810303,1,40.6237487792969,10.5844888687134,1,31.936646,-4.0283203,1,36.315918,-5.8135986,1,41.046143,-6.454468,1
587,34.91211,21.713257,1,28.930664,11.581421,1,40.9011192321777,10.739896774292,1,33.218384,-4.425049,1,37.979126,-6.5612793,1,42.816162,-7.4157715,1
588,34.973145,21.560669,1,29.174805,11.352539,1,41.157096862793,10.7008657455444,1,34.225464,-4.8217773,1,39.3219,-7.537842,1,44.296265,-8.666992,1
589,35.15625,21.255493,1,29.418945,10.971069,1,41.4020767211914,10.3350210189819,1,34.89685,-5.3710938,1,40.161133,-8.804321,1,44.86084,-10.20813,1
590,35.354614,20.935059,1,29.724121,10.543823,1,41.7033843994141,9.8386402130127,1,34.92737,-5.7525635,1,39.81018,-9.109497,1,44.281006,-10.772705,1
591,35.65979,20.477295,1,29.937744,10.147095,1,41.9028015136719,9.23199081420898,1,34.37805,-6.011963,1,39.215088,-9.277344,1,43.8385,-10.818481,1
592,35.842896,20.03479,1,30.014038,9.796143,1,41.9801483154297,8.89492225646973,1,33.920288,-6.072998,1,38.57422,-9.3688965,1,43.22815,-10.848999,1
593,35.964966,19.744873,1,30.029297,9.597778,1,41.9919319152832,8.65154647827148,1,33.416748,-6.0272217,1,38.131714,-9.429932,1,42.58728,-10.925293,1
594,36.05652,19.485474,1,29.99878,9.414673,1,41.9558601379395,8.40066337585449,1,32.989502,-6.0424805,1,37.521362,-9.490967,1,42.08374,-10.940552,1
595,36.209106,19.134521,1,30.044556,9.124756,1,42.0036277770996,8.13450241088867,1,32.440186,-5.92041,1,36.956787,-9.521484,1,41.47339,-11.0321045,1
596,36.376953,18.737793,1,30.151367,8.895874,1,42.0972480773926,7.75750970840454,1,32.043457,-5.9509277,1,36.42273,-9.536743,1,40.84778,-11.077881,1
597,36.499023,18.341064,1,30.24292,8.544922,1,42.1933364868164,7.45517063140869,1,31.661987,-5.8898926,1,35.827637,-9.536743,1,40.31372,-11.09314,1
598,36.727905,18.005371,1,30.395508,8.285522,1,42.3291778564453,7.02553558349609,1,31.204224,-5.8288574,1,35.308838,-9.552002,1,39.70337,-11.123657,1
599,36.8042,17.684937,1,30.48706,8.117676,1,42.3913192749023,6.60486030578613,1,30.700684,-5.7373047,1,34.79004,-9.521484,1,39.215088,-11.169434,1
600,36.865234,17.501831,1,30.578613,7.9803467,1,42.4344711303711,6.12599515914917,1,30.258179,-5.7373047,1,34.27124,-9.475708,1,38.757324,-11.169434,1
601,36.987305,17.37976,1,30.50232,7.965088,1,42.3158493041992,5.85783767700195,1,29.785156,-5.630493,1,33.706665,-9.475708,1,38.223267,-11.184692,1
602,37.078857,17.364502,1,30.471802,7.9803467,1,42.2211265563965,5.54039335250855,1,29.327393,-5.5389404,1,33.14209,-9.475708,1,37.704468,-11.245728,1
603,37.139893,17.333984,1,30.349731,8.117676,1,42.0156478881836,5.30584239959717,1,28.823853,-5.41687,1,32.684326,-9.460449,1,37.29248,-11.276245,1
604,37.18567,17.288208,1,30.303955,8.026123,1,41.9301376342773,5.05426740646362,1,28.396606,-5.2337646,1,32.15027,-9.429932,1,36.758423,-11.276245,1
605,37.231445,17.196655,1,30.303955,8.071899,1,41.860767364502,4.84078216552734,1,28.045654,-5.065918,1,31.63147,-9.3688965,1,35.88867,-11.199951,1
606,37.353516,17.074585,1,30.349731,7.9040527,1,41.9055290222168,4.66931438446045,1,27.740479,-4.7302246,1,31.204224,-9.292603,1,35.26306,-11.138916,1
607,37.53662,16.87622,1,30.456543,7.7819824,1,41.9336547851563,4.27827596664429,1,27.450562,-4.623413,1,30.715942,-9.170532,1,34.820557,-11.169434,1
608,37.68921,16.708374,1,30.441284,7.7667236,1,41.8105583190918,3.92750430107117,1,27.038574,-4.486084,1,30.24292,-9.140015,1,34.240723,-11.123657,1
609,37.643433,16.677856,1,30.36499,7.751465,1,41.6551399230957,3.68544483184814,1,26.657104,-4.3182373,1,29.678345,-9.063721,1,33.706665,-11.09314,1
610,37.628174,16.555786,1,30.258179,7.7056885,1,41.4500770568848,3.37655282020569,1,26.245117,-4.2266846,1,29.129028,-9.109497,1,33.00476,-11.123657,1
611,37.521362,16.448975,1,29.98352,7.5683594,1,41.1710662841797,3.22798895835876,1,25.848389,-4.135132,1,28.564453,-9.0789795,1,32.53174,-11.138916,1
612,37.41455,16.37268,1,29.800415,7.6293945,1,40.8725204467774,3.00246858596802,1,25.360107,-3.9520264,1,28.045654,-9.124756,1,32.211304,-11.276245,1
613,37.322998,16.342163,1,29.586792,7.751465,1,40.5563812255859,2.88647222518921,1,24.932861,-3.8146973,1,27.450562,-9.063721,1,31.478882,-11.169434,1
614,37.18567,16.38794,1,29.35791,7.873535,1,40.2012901306152,2.73339033126831,1,24.475098,-3.7231445,1,26.97754,-9.109497,1,30.944824,-11.260986,1
615,37.15515,16.357422,1,29.220581,7.949829,1,39.9924392700195,2.66144371032715,1,24.169922,-3.5552979,1,26.45874,-8.956909,1,30.12085,-11.062622,1
616,37.17041,16.479492,1,29.067993,8.071899,1,39.7560501098633,2.61613368988037,1,23.834229,-3.3416748,1,25.924683,-8.895874,1,29.968262,-11.230469,1
617,37.109375,16.540527,1,28.97644,8.239746,1,39.5312995910645,2.53055047988892,1,23.544312,-3.250122,1,25.436401,-8.850098,1,29.327393,-11.123657,1
618,37.04834,16.63208,1,28.869629,8.346558,1,39.3164978027344,2.44207382202148,1,23.239136,-3.0822754,1,25.009155,-8.804321,1,28.884888,-11.108398,1
619,36.92627,16.723633,1,28.701782,8.407593,1,39.1074142456055,2.43073749542236,1,22.979736,-2.9449463,1,24.459839,-8.682251,1,28.182983,-10.940552,1
620,36.77368,16.799927,1,28.61023,8.529663,1,38.9239730834961,2.39560699462891,1,22.720337,-2.746582,1,24.002075,-8.590698,1,27.801514,-11.123657,1
621,36.621094,16.89148,1,28.533936,8.651733,1,38.6987380981445,2.27389621734619,1,22.415161,-2.609253,1,23.483276,-8.468628,1,26.870728,-10.757446,1
622,36.52954,16.937256,1,28.381348,8.682251,1,38.4824600219727,2.20401573181152,1,22.155762,-2.532959,1,22.994995,-8.43811,1,26.687622,-11.001587,1
623,36.30066,16.998291,1,28.320312,8.81958,1,38.1837921142578,1.98498296737671,1,21.774292,-2.456665,1,22.460938,-8.392334,1,25.726318,-10.681152,1
624,36.16333,17.166138,1,28.198242,8.956909,1,37.9001502990723,1.89482879638672,1,21.438599,-2.3498535,1,21.92688,-8.392334,1,25.619507,-11.0321045,1
625,35.980225,17.303467,1,28.121948,9.185791,1,37.5601997375488,1.77502536773682,1,21.04187,-2.243042,1,21.347046,-8.377075,1,24.749756,-10.864258,1
626,35.88867,17.425537,1,27.96936,9.3688965,1,37.2049980163574,1.70710515975952,1,20.645142,-2.1362305,1,20.828247,-8.377075,1,24.398804,-11.047363,1
627,35.812378,17.562866,1,27.893066,9.552002,1,36.8698348999023,1.5884838104248,1,20.233154,-1.9073486,1,20.27893,-8.300781,1,23.834229,-11.0321045,1
628,35.90393,17.669678,1,27.816772,9.780884,1,36.5360794067383,1.53626823425293,1,19.851685,-1.7242432,1,19.760132,-8.255005,1,23.31543,-11.016846,1
629,36.026,17.77649,1,27.84729,9.94873,1,36.3258666992188,1.45674800872803,1,19.592285,-1.5411377,1,19.241333,-8.102417,1,22.750854,-10.986328,1
630,36.239624,17.807007,1,28.030396,9.994507,1,36.2243118286133,1.22753763198853,1,19.424438,-1.373291,1,18.798828,-7.9956055,1,21.78955,-10.543823,1
631,36.361694,17.76123,1,28.09143,10.009766,1,36.1137199401855,1.08547925949097,1,19.256592,-1.1138916,1,18.371582,-7.8430176,1,21.514893,-10.83374,1
632,36.52954,17.715454,1,28.289795,9.963989,1,36.1309700012207,0.880159378051758,1,19.226074,-0.91552734,1,17.944336,-7.6293945,1,20.690918,-10.528564,1
633,36.66687,17.700195,1,28.320312,10.009766,1,35.999698638916,0.788753986358643,1,19.073486,-0.79345703,1,17.532349,-7.4768066,1,20.53833,-10.848999,1
634,36.697388,17.669678,1,28.381348,10.070801,1,35.8518600463867,0.679770469665527,1,18.90564,-0.6713867,1,17.13562,-7.3242188,1,19.699097,-10.498047,1
635,36.77368,17.654419,1,28.411865,10.1623535,1,35.6845283508301,0.617284774780273,1,18.722534,-0.5187988,1,16.723633,-7.1868896,1,19.256592,-10.543823,1
636,36.834717,17.654419,1,28.533936,10.269165,1,35.4881172180176,0.489626884460449,1,18.508911,-0.35095215,1,16.342163,-7.0343018,1,18.707275,-10.421753,1
637,37.04834,17.654419,1,28.625488,10.299683,1,35.4376831054687,0.420716285705566,1,18.447876,-0.16784668,1,16.036987,-6.7749023,1,18.218994,-10.345459,1
638,37.231445,17.654419,1,28.793335,10.391235,1,35.5046081542969,0.443431854248047,1,18.508911,0.061035156,1,15.838623,-6.362915,1,17.807007,-10.131836,1
639,37.30774,17.807007,1,28.884888,10.467529,1,35.6763572692871,0.574302673339844,1,18.676758,0.45776367,1,15.762329,-5.92041,1,17.349243,-9.933472,1
640,37.399292,17.852783,1,29.006958,10.574341,1,35.9971618652344,0.820516586303711,1,18.997192,0.8544922,1,15.930176,-5.340576,1,16.937256,-9.674072,1
641,37.521362,17.990112,1,29.09851,10.7421875,1,36.4193992614746,1.23405456542969,1,19.424438,1.6479492,1,16.357422,-4.6691895,1,16.830444,-9.338379,1
642,37.582397,18.081665,1,29.174805,10.864258,1,36.7934417724609,1.59299468994141,1,19.821167,2.5634766,1,17.044067,-3.829956,1,16.89148,-8.666992,1
643,37.719727,18.295288,1,29.23584,11.154175,1,37.0644416809082,2.0595064163208,1,20.141602,3.6773682,1,17.684937,-2.822876,1,17.333984,-8.010864,1
644,37.719727,18.52417,1,29.281616,11.550903,1,37.1886901855469,2.52437782287598,1,20.355225,4.8980713,1,18.661499,-1.5258789,1,18.295288,-6.8206787,1
645,37.826538,18.676758,1,29.205322,11.917114,1,37.2627754211426,3.02456283569336,1,20.53833,6.072998,1,19.683838,-0.10681152,1,19.836426,-6.164551,1
646,37.91809,18.78357,1,29.159546,12.329102,1,37.3359642028809,3.54581260681152,1,20.6604,6.8511963,1,20.645142,1.0070801,1,21.04187,-4.1656494,1
647,37.994385,18.844604,1,29.190063,12.588501,1,37.3103179931641,3.75326251983643,1,20.706177,7.4005127,1,21.575928,1.8005371,1,22.247314,-3.3569336,1
648,38.085938,18.89038,1,29.251099,12.710571,1,37.4490127563477,3.94734287261963,1,20.812988,7.446289,1,22.399902,2.105713,1,23.55957,-2.9296875,1
649,38.238525,18.920898,1,29.403687,12.6953125,1,37.7537422180176,4.07692527770996,1,21.026611,7.1105957,1,23.223877,2.0141602,1,25.421143,-3.6010742,1
650,38.269043,19.042969,1,29.556274,12.619019,1,38.0217971801758,4.11402606964111,1,21.194458,6.5307617,1,24.124146,1.6326904,1,26.535034,-2.9449463,1
651,38.43689,19.134521,1,29.724121,12.527466,1,38.3429832458496,4.17790222167969,1,21.42334,5.8288574,1,24.963379,1.3122559,1,27.954102,-2.9296875,1
652,38.45215,19.256592,1,29.785156,12.451172,1,38.6005363464355,4.30936145782471,1,21.621704,5.1574707,1,25.543213,1.1138916,1,28.97644,-2.6245117,1
653,38.482666,19.348145,1,29.876709,12.374878,1,38.7578964233398,4.30490398406982,1,21.759033,4.501343,1,25.970459,1.0070801,1,29.953003,-2.5482178,1
654,38.467407,19.485474,1,29.891968,12.374878,1,38.9161224365234,4.46509838104248,1,21.92688,3.8604736,1,26.245117,0.8239746,1,30.578613,-2.2735596,1
655,38.43689,19.66858,1,29.98352,12.435913,1,39.1296157836914,4.66745758056641,1,22.18628,3.2806396,1,26.59607,0.6561279,1,31.051636,-2.166748,1
656,38.497925,19.79065,1,30.090332,12.496948,1,39.4372177124023,4.97127676010132,1,22.567749,2.8686523,1,26.901245,0.39672852,1,31.524658,-2.2583008,1
657,38.742065,19.973755,1,30.349731,12.527466,1,39.8487586975098,5.19476842880249,1,23.05603,2.5482178,1,27.34375,0.15258789,1,31.99768,-2.39563,1
658,39.04724,20.080566,1,30.715942,12.634277,1,40.4142684936523,5.56727361679077,1,23.727417,2.319336,1,28.060913,0,1,32.77588,-2.4261475,1
659,39.42871,20.248413,1,31.265259,12.72583,1,41.0910415649414,5.83714580535889,1,24.505615,2.105713,1,28.900146,0,1,33.706665,-2.1972656,1
660,39.764404,20.477295,1,31.646729,12.817383,1,41.7319183349609,6.31438541412354,1,25.32959,1.8463135,1,29.922485,-0.015258789,1,35.003662,-2.029419,1
661,40.008545,20.736694,1,32.11975,12.924194,1,42.3745307922363,6.6920599937439,1,26.168823,1.5563965,1,30.853271,-0.10681152,1,36.132812,-1.876831,1
662,40.222168,20.980835,1,32.409668,13.076782,1,42.9132347106934,7.27376413345337,1,26.992798,1.3122559,1,31.845093,-0.21362305,1,37.261963,-1.7852783,1
663,40.32898,21.240234,1,32.684326,13.168335,1,43.3489570617676,7.66691255569458,1,27.740479,0.93078613,1,32.699585,-0.50354004,1,38.223267,-1.8615723,1
664,40.359497,21.514893,1,32.928467,13.259888,1,43.7784271240234,8.13364028930664,1,28.625488,0.4272461,1,33.615112,-0.869751,1,39.16931,-2.1209717,1
665,40.390015,21.728516,1,33.12683,13.336182,1,44.1328735351563,8.55423736572266,1,29.586792,-0.24414062,1,34.65271,-1.3885498,1,40.023804,-2.3345947,1
