LauraSchoenhals/autogait_trial/WT_Levelwalk_DLC_for_AutoGaitA/WT_Mouse303_levelwalk_Run1-6DLC-JointTracking.csv
scorer,DLC_JointTracking,DLC_JointTracking,DLC_JointTracking,DLC_JointTracking,DLC_JointTracking,DLC_JointTracking,DLC_JointTracking,DLC_JointTracking,DLC_JointTracking,DLC_JointTracking,DLC_JointTracking,DLC_JointTracking,DLC_JointTracking,DLC_JointTracking,DLC_JointTracking,DLC_JointTracking,DLC_JointTracking,DLC_JointTracking
bodyparts,Crest,Crest,Crest,Hip,Hip,Hip,Knee,Knee,Knee,Ankle,Ankle,Ankle,Metatarsal,Metatarsal,Metatarsal,ToeTip,ToeTip,ToeTip
coords,x,y,likelihood,x,y,likelihood,x,y,likelihood,x,y,likelihood,x,y,likelihood,x,y,likelihood
0,-30.975342,22.201538,1,-38.497925,18.707275,1,-35.9510803222656,6.98065853118897,1,-50.491333,10.665894,1,-48.309326,4.3029785,1,-44.11316,2.89917,1
1,-30.807495,22.323608,1,-38.223267,18.90564,1,-36.0268630981445,7.10836029052734,1,-50.53711,10.910034,1,-48.736572,4.3945312,1,-44.692993,2.9449463,1
2,-30.593872,22.598267,1,-38.16223,19.16504,1,-36.0459671020508,7.35312080383301,1,-50.55237,11.169434,1,-49.118042,4.547119,1,-45.181274,3.0059814,1
3,-30.471802,22.750854,1,-37.94861,19.378662,1,-36.1557540893555,7.51334953308106,1,-50.64392,11.398315,1,-49.560547,4.6081543,1,-45.791626,3.0212402,1
4,-30.36499,23.07129,1,-37.91809,19.622803,1,-36.253662109375,7.73879432678223,1,-50.720215,11.703491,1,-49.972534,4.8217773,1,-46.295166,3.0517578,1
5,-30.288696,23.30017,1,-37.734985,19.866943,1,-36.3737487792969,7.94440078735352,1,-50.842285,11.901855,1,-50.41504,5.0354004,1,-46.85974,3.1280518,1
6,-30.24292,23.620605,1,-37.628174,20.15686,1,-36.4302520751953,8.2168025970459,1,-50.872803,12.268066,1,-50.735474,5.5236816,1,-47.24121,3.2043457,1
7,-30.181885,23.925781,1,-37.612915,20.492554,1,-36.4402770996094,8.54998588562012,1,-50.90332,12.527466,1,-51.101685,5.783081,1,-47.76001,3.2196045,1
8,-30.136108,24.20044,1,-37.521362,20.79773,1,-36.4470367431641,8.84591674804688,1,-50.90332,12.8479,1,-51.40686,6.1187744,1,-48.217773,3.3569336,1
9,-29.968262,24.44458,1,-37.368774,21.057129,1,-36.2858200073242,9.10609436035156,1,-50.750732,13.076782,1,-51.68152,6.4697266,1,-48.690796,3.4179688,1
10,-29.830933,24.58191,1,-37.17041,21.240234,1,-36.1069793701172,9.28744602203369,1,-50.50659,13.48877,1,-51.818848,6.8359375,1,-49.102783,3.4942627,1
11,-29.632568,24.765015,1,-36.94153,21.438599,1,-35.7016906738281,9.50282001495361,1,-50.079346,13.778687,1,-51.9104,7.0648193,1,-49.453735,3.4484863,1
12,-29.327393,24.94812,1,-36.56006,21.575928,1,-35.1228065490723,9.66230869293213,1,-49.484253,13.99231,1,-51.849365,7.369995,1,-49.926758,3.3874512,1
13,-29.022217,25.054932,1,-36.30066,21.697998,1,-34.4241218566895,9.84563159942627,1,-48.76709,14.23645,1,-51.620483,7.6293945,1,-50.323486,3.3111572,1
14,-28.686523,25.222778,1,-35.842896,21.865845,1,-33.5019111633301,10.0964021682739,1,-47.851562,14.465332,1,-51.16272,7.965088,1,-50.53711,3.2958984,1
15,-28.335571,25.299072,1,-35.52246,22.064209,1,-32.8855667114258,10.3575115203857,1,-47.11914,15.090942,1,-50.445557,8.453369,1,-50.39978,3.5095215,1
16,-28.045654,25.344849,1,-35.14099,22.30835,1,-32.2654266357422,10.6579790115356,1,-46.38672,15.716553,1,-49.102783,8.81958,1,-50.064087,3.479004,1
17,-27.755737,25.497437,1,-34.75952,22.567749,1,-31.7374229431152,10.9545269012451,1,-45.73059,16.357422,1,-47.37854,9.353638,1,-48.583984,3.7994385,1
18,-27.557373,25.482178,1,-34.484863,22.888184,1,-31.0166854858398,11.4002885818481,1,-45.028687,16.75415,1,-45.516968,9.796143,1,-46.00525,4.0893555,1
19,-27.313232,25.650024,1,-34.072876,23.101807,1,-30.3471832275391,11.6948261260986,1,-44.37256,17.01355,1,-43.762207,10.223389,1,-42.938232,4.5166016,1
20,-27.053833,25.6958,1,-33.78296,23.330688,1,-29.7690277099609,12.0219173431396,1,-43.85376,17.181396,1,-42.144775,10.726929,1,-39.96277,5.2337646,1
21,-26.809692,25.787354,1,-33.432007,23.406982,1,-29.1527099609375,12.1959342956543,1,-43.289185,17.211914,1,-40.634155,11.291504,1,-37.719727,6.0272217,1
22,-26.58081,25.878906,1,-33.172607,23.498535,1,-28.5909862518311,12.4076042175293,1,-42.83142,17.120361,1,-39.44397,11.566162,1,-36.071777,6.591797,1
23,-26.397705,25.9552,1,-32.974243,23.529053,1,-27.8484172821045,12.6788959503174,1,-42.266846,16.815186,1,-38.391113,11.657715,1,-34.835815,6.92749,1
24,-26.184082,26.046753,1,-32.65381,23.498535,1,-27.1930332183838,12.8130340576172,1,-41.793823,16.25061,1,-37.384033,11.428833,1,-33.52356,7.0343018,1
25,-25.985718,26.138306,1,-32.440186,23.376465,1,-26.4593811035156,12.9731006622314,1,-41.244507,15.50293,1,-36.30066,11.108398,1,-32.104492,7.095337,1
26,-25.772095,26.306152,1,-32.24182,23.239136,1,-25.5867614746094,13.2536401748657,1,-40.527344,14.587402,1,-35.217285,10.650635,1,-30.563354,7.019043,1
27,-25.58899,26.412964,1,-31.982422,23.05603,1,-24.7035827636719,13.5156707763672,1,-39.70337,13.595581,1,-33.920288,10.070801,1,-28.97644,6.9885254,1
28,-25.421143,26.504517,1,-31.677246,22.842407,1,-23.7908897399902,13.7977743148804,1,-38.742065,12.588501,1,-32.730103,9.506226,1,-27.46582,6.881714,1
29,-25.222778,26.626587,1,-31.448364,22.644043,1,-22.8332595825195,14.290599822998,1,-37.597656,11.642456,1,-31.311035,8.972168,1,-25.878906,6.80542,1
30,-25.07019,26.794434,1,-31.082153,22.460938,1,-21.952615737915,14.6730289459229,1,-36.40747,10.665894,1,-29.937744,8.4991455,1,-24.276733,6.7749023,1
31,-24.887085,26.916504,1,-30.731201,22.30835,1,-21.0148658752441,15.2661304473877,1,-34.957886,9.735107,1,-28.35083,7.9193115,1,-22.659302,6.6833496,1
32,-24.70398,27.069092,1,-30.380249,22.125244,1,-20.1760482788086,15.8106336593628,1,-33.447266,8.81958,1,-26.824951,7.293701,1,-20.996094,6.439209,1
33,-24.505615,27.175903,1,-29.937744,21.957397,1,-19.3430938720703,16.3223819732666,1,-31.829834,8.010864,1,-25.039673,6.744385,1,-19.226074,6.1950684,1
34,-24.353027,27.313232,1,-29.541016,21.850586,1,-18.6056365966797,16.9091777801514,1,-30.10559,7.2784424,1,-23.361206,6.1798096,1,-17.456055,6.0272217,1
35,-24.047852,27.374268,1,-29.037476,21.759033,1,-17.8953018188477,17.3034820556641,1,-28.549194,6.744385,1,-21.606445,5.6762695,1,-15.762329,5.9814453,1
36,-23.773193,27.404785,1,-28.59497,21.68274,1,-17.2911987304688,17.6547431945801,1,-27.130127,6.3323975,1,-20.187378,5.2490234,1,-14.419556,5.874634,1
37,-23.513794,27.404785,1,-28.198242,21.66748,1,-16.8361473083496,17.8070697784424,1,-26.19934,6.088257,1,-19.226074,4.638672,1,-13.381958,5.1879883,1
38,-23.132324,27.267456,1,-27.816772,21.621704,1,-16.5053329467773,17.6152935028076,1,-25.802612,5.844116,1,-18.966675,3.90625,1,-13.076782,4.0130615,1
39,-22.68982,26.97754,1,-27.526855,21.392822,1,-16.3726577758789,16.9674530029297,1,-26.229858,5.6610107,1,-19.53125,3.3874512,1,-13.702393,3.5552979,1
40,-22.29309,26.504517,1,-27.20642,21.087646,1,-16.2741584777832,16.1393508911133,1,-26.779175,5.432129,1,-20.339966,3.0670166,1,-14.572144,3.3569336,1
41,-21.850586,26.138306,1,-27.053833,20.79773,1,-16.2498760223389,15.5752277374268,1,-27.328491,5.4626465,1,-20.980835,2.9754639,1,-15.335083,3.2653809,1
42,-21.438599,25.924683,1,-26.809692,20.736694,1,-16.2092361450195,15.1126127243042,1,-27.832031,5.630493,1,-21.575928,2.9907227,1,-15.960693,3.2196045,1
43,-21.1792,25.6958,1,-26.687622,20.690918,1,-16.264986038208,14.743763923645,1,-28.35083,5.859375,1,-22.201538,2.9907227,1,-16.647339,3.189087,1
44,-20.79773,25.527954,1,-26.45874,20.67566,1,-16.3120803833008,14.2689990997314,1,-28.884888,6.088257,1,-22.888184,3.036499,1,-17.288208,3.0822754,1
45,-20.492554,25.344849,1,-26.351929,20.67566,1,-16.475191116333,13.8602313995361,1,-29.449463,6.3323975,1,-23.544312,3.0670166,1,-18.035889,3.0822754,1
46,-20.202637,25.115967,1,-26.19934,20.568848,1,-16.5643119812012,13.4157905578613,1,-29.937744,6.6223145,1,-24.20044,3.1433105,1,-18.692017,3.0975342,1
47,-19.927979,24.963379,1,-26.000977,20.599365,1,-16.7544174194336,12.9507617950439,1,-30.471802,6.881714,1,-24.780273,3.2196045,1,-19.378662,3.112793,1
48,-19.65332,24.795532,1,-25.863647,20.492554,1,-16.9215488433838,12.4901266098022,1,-30.929565,7.1258545,1,-25.45166,3.2653809,1,-20.03479,3.0975342,1
49,-19.363403,24.56665,1,-25.741577,20.370483,1,-17.0919876098633,12.0527563095093,1,-31.37207,7.461548,1,-25.970459,3.3111572,1,-20.6604,3.0975342,1
50,-19.119263,24.44458,1,-25.527954,20.309448,1,-17.2584400177002,11.6137504577637,1,-31.768799,7.8125,1,-26.59607,3.4332275,1,-21.331787,3.0822754,1
51,-18.90564,24.32251,1,-25.375366,20.27893,1,-17.4970283508301,11.2273139953613,1,-32.180786,8.163452,1,-27.145386,3.540039,1,-21.92688,3.0975342,1
52,-18.600464,24.246216,1,-25.146484,20.27893,1,-17.6750526428223,10.8886318206787,1,-32.485962,8.514404,1,-27.694702,3.6468506,1,-22.613525,3.1738281,1
53,-18.371582,24.230957,1,-24.978638,20.324707,1,-17.8681507110596,10.6582202911377,1,-32.76062,8.865356,1,-28.22876,3.829956,1,-23.254395,3.1738281,1
54,-18.096924,24.18518,1,-24.765015,20.401001,1,-18.1828632354736,10.3672952651978,1,-33.14209,9.262085,1,-28.778076,3.9672852,1,-23.880005,3.189087,1
55,-17.715454,24.368286,1,-24.520874,20.446777,1,-18.4100341796875,10.1192588806152,1,-33.40149,9.613037,1,-29.251099,4.135132,1,-24.490356,3.2653809,1
56,-17.425537,24.307251,1,-24.383545,20.53833,1,-18.6153373718262,10.015604019165,1,-33.615112,9.933472,1,-29.769897,4.272461,1,-25.08545,3.3111572,1
57,-17.105103,24.368286,1,-24.18518,20.599365,1,-18.8662185668945,9.84256935119629,1,-33.859253,10.299683,1,-30.273438,4.3945312,1,-25.665283,3.2653809,1
58,-16.89148,24.414062,1,-23.910522,20.751953,1,-18.9419841766357,9.8288745880127,1,-33.920288,10.635376,1,-30.74646,4.5166016,1,-26.321411,3.3416748,1
59,-16.555786,24.505615,1,-23.6969,20.858765,1,-19.150447845459,9.75337028503418,1,-34.103394,10.940552,1,-31.204224,4.6691895,1,-26.84021,3.3569336,1
60,-16.296387,24.536133,1,-23.498535,20.9198,1,-19.2363586425781,9.70223236083984,1,-34.16443,11.169434,1,-31.61621,4.776001,1,-27.374268,3.3721924,1
61,-16.082764,24.658203,1,-23.254395,21.057129,1,-19.3783683776855,9.70034980773926,1,-34.27124,11.489868,1,-32.043457,4.8675537,1,-27.923584,3.3416748,1
62,-15.777588,24.734497,1,-22.994995,21.133423,1,-19.4989318847656,9.65398120880127,1,-34.347534,11.779785,1,-32.455444,4.989624,1,-28.442383,3.3569336,1
63,-15.472412,24.82605,1,-22.705078,21.316528,1,-19.5313568115234,9.74382305145264,1,-34.347534,12.084961,1,-32.86743,5.218506,1,-28.97644,3.3721924,1
64,-15.136719,25.08545,1,-22.384644,21.499634,1,-19.4850082397461,9.8552303314209,1,-34.25598,12.466431,1,-33.26416,5.4016113,1,-29.525757,3.4942627,1
65,-14.785767,25.314331,1,-22.04895,21.697998,1,-19.5356864929199,9.96413612365723,1,-34.240723,12.924194,1,-33.584595,5.874634,1,-30.044556,3.540039,1
66,-14.389038,25.619507,1,-21.68274,22.04895,1,-19.3100051879883,10.2858667373657,1,-33.996582,13.336182,1,-33.90503,6.210327,1,-30.456543,3.616333,1
67,-14.11438,25.939941,1,-21.362305,22.338867,1,-19.2188529968262,10.5318517684937,1,-33.88977,13.656616,1,-34.16443,6.454468,1,-30.960083,3.6773682,1
68,-13.748169,26.275635,1,-21.026611,22.705078,1,-19.0875434875488,10.8627805709839,1,-33.78296,13.870239,1,-34.469604,6.7596436,1,-31.417847,3.753662,1
69,-13.381958,26.687622,1,-20.67566,23.07129,1,-18.9129104614258,11.2014636993408,1,-33.63037,14.099121,1,-34.698486,6.9732666,1,-31.89087,3.7841797,1
70,-12.9852295,27.08435,1,-20.339966,23.483276,1,-18.638370513916,11.6045322418213,1,-33.38623,14.343262,1,-34.942627,7.232666,1,-32.287598,3.753662,1
71,-12.573242,27.435303,1,-19.836426,23.880005,1,-18.1739978790283,11.9957141876221,1,-32.958984,14.526367,1,-35.003662,7.4768066,1,-32.699585,3.768921,1
72,-12.161255,27.664185,1,-19.424438,24.20044,1,-17.6292381286621,12.3354797363281,1,-32.440186,14.709473,1,-35.003662,7.7667236,1,-33.111572,3.7994385,1
73,-11.749268,27.786255,1,-18.966675,24.398804,1,-16.740909576416,12.607029914856,1,-31.570435,14.862061,1,-34.77478,8.010864,1,-33.554077,3.753662,1
74,-11.230469,27.877808,1,-18.4021,24.44458,1,-15.7069368362427,12.7511587142944,1,-30.532837,15.029907,1,-34.347534,8.422852,1,-33.7677,3.8146973,1
75,-10.71167,27.862549,1,-17.745972,24.353027,1,-14.5738182067871,12.7798919677734,1,-29.327393,15.487671,1,-33.37097,8.926392,1,-33.569336,4.043579,1
76,-10.177612,27.801514,1,-17.074585,24.353027,1,-13.5850706100464,12.8715953826904,1,-28.213501,16.189575,1,-31.906128,9.475708,1,-33.2489,4.1046143,1
77,-9.643555,27.679443,1,-16.418457,24.383545,1,-12.6491622924805,12.9908971786499,1,-27.145386,16.845703,1,-29.968262,9.933472,1,-31.768799,4.501343,1
78,-9.048462,27.572632,1,-15.914917,24.398804,1,-11.8851737976074,13.0956563949585,1,-26.260376,17.37976,1,-27.877808,10.360718,1,-29.144287,4.8065186,1
79,-8.666992,27.496338,1,-15.350342,24.429321,1,-11.1457748413086,13.1900339126587,1,-25.45166,17.700195,1,-25.756836,10.757446,1,-25.863647,5.0964355,1
80,-8.239746,27.34375,1,-14.953613,24.337769,1,-10.5085973739624,13.1913871765137,1,-24.795532,17.76123,1,-23.880005,11.016846,1,-22.613525,5.432129,1
81,-7.888794,27.191162,1,-14.511108,24.230957,1,-9.85142135620117,13.1725978851318,1,-24.18518,17.593384,1,-22.109985,11.230469,1,-19.943237,5.8135986,1
82,-7.6293945,27.069092,1,-14.160156,24.06311,1,-9.14278411865234,13.1623783111572,1,-23.590088,17.196655,1,-20.736694,11.230469,1,-17.959595,6.0424805,1
83,-7.4157715,26.96228,1,-13.778687,23.925781,1,-8.4171142578125,13.1901607513428,1,-22.994995,16.723633,1,-19.485474,11.062622,1,-16.448975,6.072998,1
84,-7.0343018,26.901245,1,-13.305664,23.788452,1,-7.43068981170654,13.3249597549438,1,-22.18628,16.021729,1,-18.173218,10.772705,1,-14.846802,6.1187744,1
85,-6.7596436,26.931763,1,-12.924194,23.620605,1,-6.49020957946777,13.491250038147,1,-21.392822,15.197754,1,-16.708374,10.543823,1,-12.878418,6.2561035,1
86,-6.4086914,26.97754,1,-12.512207,23.406982,1,-5.44241142272949,13.7106952667236,1,-20.431519,14.282227,1,-15.151978,10.20813,1,-10.787964,6.500244,1
87,-6.1187744,27.08435,1,-12.130737,23.239136,1,-4.35472106933594,14.0994644165039,1,-19.332886,13.290405,1,-13.61084,9.82666,1,-8.804321,6.729126,1
88,-5.7525635,27.191162,1,-11.627197,23.086548,1,-3.24019145965576,14.5041160583496,1,-18.081665,12.329102,1,-12.039185,9.521484,1,-6.9122314,6.92749,1
89,-5.432129,27.374268,1,-11.138916,22.949219,1,-2.09421920776367,15.0629348754883,1,-16.647339,11.428833,1,-10.437012,9.109497,1,-5.0201416,7.156372,1
90,-5.1727295,27.60315,1,-10.635376,22.827148,1,-1.00564861297607,15.6669578552246,1,-15.075684,10.467529,1,-8.605957,8.69751,1,-3.0670166,7.30896,1
91,-4.776001,27.84729,1,-10.1623535,22.644043,1,0.14327335357666,16.4963550567627,1,-13.168335,9.58252,1,-6.6986084,8.270264,1,-1.0223389,7.2784424,1
92,-4.501343,27.999878,1,-9.552002,22.537231,1,1.17115116119385,17.1507682800293,1,-11.230469,8.712769,1,-4.623413,7.6446533,1,1.0528564,7.095337,1
93,-4.180908,28.152466,1,-8.972168,22.445679,1,2.14218616485596,17.9211730957031,1,-9.063721,7.949829,1,-2.5024414,7.171631,1,3.1738281,6.881714,1
94,-3.753662,28.22876,1,-8.331299,22.30835,1,3.0356616973877,18.462287902832,1,-7.095337,7.4005127,1,-0.39672852,6.591797,1,5.3100586,6.5460205,1
95,-3.4332275,28.198242,1,-7.736206,22.216797,1,3.78265142440796,18.8528823852539,1,-5.355835,6.958008,1,1.3580322,5.9051514,1,7.0343018,6.225586,1
96,-2.9754639,28.09143,1,-7.1105957,22.064209,1,4.45592260360718,18.8680152893066,1,-4.119873,6.5612793,1,2.5634766,5.1116943,1,8.285522,5.432129,1
97,-2.5482178,27.84729,1,-6.6223145,21.759033,1,4.95505332946777,18.6023635864258,1,-3.5858154,6.2713623,1,2.9296875,4.3182373,1,8.621216,4.058838,1
98,-2.0446777,27.450562,1,-6.1798096,21.42334,1,5.26801300048828,17.8250942230225,1,-3.9367676,5.9814453,1,2.4261475,3.7384033,1,7.9345703,3.6621094,1
99,-1.6021729,26.96228,1,-5.935669,21.011353,1,5.37638425827026,17.0066719055176,1,-4.470825,5.6915283,1,1.6021729,3.3111572,1,7.003784,3.5095215,1
100,-1.2664795,26.519775,1,-5.6915283,20.629883,1,5.54430389404297,16.4160861968994,1,-4.989624,5.7373047,1,1.0375977,3.2806396,1,6.362915,3.479004,1
101,-0.8544922,26.321411,1,-5.493164,20.584106,1,5.59392070770264,15.9931869506836,1,-5.493164,5.8898926,1,0.4119873,3.2653809,1,5.6762695,3.4179688,1
102,-0.39672852,26.275635,1,-5.264282,20.584106,1,5.64722013473511,15.5901975631714,1,-5.996704,6.134033,1,-0.18310547,3.2806396,1,5.050659,3.4332275,1
103,-0.16784668,26.153564,1,-5.126953,20.6604,1,5.58392763137817,15.2495765686035,1,-6.500244,6.362915,1,-0.76293945,3.326416,1,4.3945312,3.3874512,1
104,0.18310547,26.062012,1,-4.989624,20.706177,1,5.45560598373413,14.7987928390503,1,-7.080078,6.5612793,1,-1.4801025,3.3416748,1,3.692627,3.40271,1
105,0.44250488,25.939941,1,-4.852295,20.706177,1,5.3076958656311,14.3206787109375,1,-7.6293945,6.729126,1,-2.105713,3.4484863,1,3.1280518,3.3569336,1
106,0.6561279,25.756836,1,-4.776001,20.614624,1,5.15291357040405,13.8754367828369,1,-8.132935,6.9122314,1,-2.7160645,3.40271,1,2.4719238,3.2653809,1
107,0.9613037,25.604248,1,-4.6081543,20.507812,1,4.96918296813965,13.2776937484741,1,-8.69751,7.095337,1,-3.4332275,3.4942627,1,1.7700195,3.2348633,1
108,1.1901855,25.436401,1,-4.5776367,20.339966,1,4.73090696334839,12.7669191360474,1,-9.246826,7.3242188,1,-4.043579,3.5095215,1,1.0986328,3.2348633,1
109,1.449585,25.253296,1,-4.4403076,20.217896,1,4.50168418884277,12.2153482437134,1,-9.750366,7.537842,1,-4.6844482,3.5247803,1,0.4272461,3.2043457,1
110,1.6479492,25.07019,1,-4.425049,20.095825,1,4.20857238769531,11.7615222930908,1,-10.253906,7.7819824,1,-5.2490234,3.6010742,1,-0.18310547,3.189087,1
111,1.7242432,24.917603,1,-4.425049,20.050049,1,3.90471124649048,11.4120464324951,1,-10.71167,8.041382,1,-5.859375,3.7078857,1,-0.8087158,3.2043457,1
112,1.8005371,24.810791,1,-4.425049,20.080566,1,3.63511896133423,11.1904754638672,1,-11.077881,8.270264,1,-6.4086914,3.7384033,1,-1.4801025,3.2806396,1
113,1.9226074,24.734497,1,-4.4555664,20.111084,1,3.33347225189209,10.9825086593628,1,-11.474609,8.590698,1,-7.003784,3.8604736,1,-2.166748,3.326416,1
114,1.953125,24.765015,1,-4.4403076,20.126343,1,2.97161769866943,10.6890048980713,1,-11.917114,8.865356,1,-7.5531006,3.9367676,1,-2.746582,3.2806396,1
115,2.0599365,24.749756,1,-4.470825,20.248413,1,2.65954923629761,10.596586227417,1,-12.268066,9.124756,1,-8.087158,4.043579,1,-3.40271,3.3569336,1
116,2.1209717,24.841309,1,-4.425049,20.324707,1,2.39209079742432,10.4491519927979,1,-12.573242,9.429932,1,-8.666992,4.135132,1,-3.9520264,3.3569336,1
117,2.2583008,24.932861,1,-4.348755,20.492554,1,2.07930564880371,10.3594379425049,1,-12.908936,9.765625,1,-9.20105,4.257202,1,-4.623413,3.3874512,1
118,2.2888184,25.009155,1,-4.3182373,20.6604,1,1.78314304351807,10.3272895812988,1,-13.214111,10.040283,1,-9.735107,4.3945312,1,-5.203247,3.463745,1
119,2.380371,25.100708,1,-4.196167,20.828247,1,1.52647733688355,10.2806720733643,1,-13.473511,10.299683,1,-10.223389,4.5776367,1,-5.79834,3.4942627,1
120,2.5024414,25.20752,1,-4.2419434,20.980835,1,1.2341194152832,10.3031616210938,1,-13.763428,10.574341,1,-10.71167,4.5928955,1,-6.42395,3.4942627,1
121,2.5939941,25.314331,1,-4.1503906,21.118164,1,0.979409217834473,10.2698860168457,1,-14.007568,10.894775,1,-11.245728,4.8065186,1,-6.958008,3.5247803,1
122,2.6550293,25.390625,1,-4.135132,21.224976,1,0.77336311340332,10.2747850418091,1,-14.205933,11.062622,1,-11.71875,4.8675537,1,-7.5683594,3.5705566,1
123,2.7160645,25.45166,1,-4.135132,21.331787,1,0.59359884262085,10.3027744293213,1,-14.373779,11.291504,1,-12.22229,4.928589,1,-8.178711,3.5247803,1
124,2.7618408,25.512695,1,-4.0740967,21.408081,1,0.314608097076416,10.2394075393677,1,-14.633179,11.489868,1,-12.710571,4.989624,1,-8.712769,3.5247803,1
125,2.746582,25.650024,1,-4.0740967,21.530151,1,0.075045108795166,10.2702836990356,1,-14.862061,11.642456,1,-13.183594,5.126953,1,-9.277344,3.5858154,1
126,2.7313232,25.6958,1,-4.0740967,21.606445,1,-0.114722728729248,10.2784547805786,1,-15.029907,11.871338,1,-13.656616,5.218506,1,-9.933472,3.540039,1
127,2.7313232,25.909424,1,-4.058838,21.759033,1,-0.227993965148926,10.3869333267212,1,-15.136719,12.039185,1,-14.11438,5.340576,1,-10.421753,3.6010742,1
128,2.7008057,26.107788,1,-3.9978027,21.865845,1,-0.415957927703857,10.412880897522,1,-15.304565,12.237549,1,-14.572144,5.4779053,1,-10.910034,3.6315918,1
129,2.7008057,26.367188,1,-3.9978027,22.064209,1,-0.558706283569336,10.5675754547119,1,-15.441895,12.435913,1,-14.968872,5.630493,1,-11.413574,3.6315918,1
130,2.7313232,26.626587,1,-3.9978027,22.29309,1,-0.689582824707031,10.7581157684326,1,-15.563965,12.6953125,1,-15.441895,5.859375,1,-12.008667,3.7231445,1
131,2.7313232,26.870728,1,-3.8604736,22.521973,1,-0.771219730377197,10.9264345169067,1,-15.625,13.015747,1,-15.823364,6.164551,1,-12.542725,3.7994385,1
132,2.8076172,27.20642,1,-3.8146973,22.750854,1,-0.908761978149414,11.1080226898193,1,-15.762329,13.198853,1,-16.220093,6.378174,1,-13.015747,3.7994385,1
133,2.9144287,27.542114,1,-3.7078857,23.07129,1,-0.955487728118897,11.3912076950073,1,-15.808105,13.48877,1,-16.571045,6.6375732,1,-13.519287,3.829956,1
134,2.9754639,27.862549,1,-3.5705566,23.4375,1,-0.938382625579834,11.7297372817993,1,-15.808105,13.702393,1,-16.89148,6.8206787,1,-14.007568,3.8452148,1
135,3.112793,28.213501,1,-3.463745,23.80371,1,-0.956650733947754,12.0685291290283,1,-15.838623,13.946533,1,-17.196655,7.0495605,1,-14.450073,3.8909912,1
136,3.2196045,28.564453,1,-3.326416,24.169922,1,-0.929218292236328,12.4117984771729,1,-15.823364,14.190674,1,-17.456055,7.2784424,1,-14.968872,3.8452148,1
137,3.3569336,28.869629,1,-3.2043457,24.520874,1,-0.778870582580566,12.7685518264771,1,-15.686035,14.434814,1,-17.654419,7.5683594,1,-15.411377,3.90625,1
138,3.479004,29.006958,1,-2.9907227,24.765015,1,-0.563511371612549,13.01305103302,1,-15.472412,14.663696,1,-17.791748,7.8430176,1,-15.808105,3.90625,1
139,3.7231445,29.159546,1,-2.8381348,24.932861,1,-0.14165210723877,13.2397441864014,1,-15.045166,14.9383545,1,-17.669678,8.178711,1,-16.220093,3.90625,1
140,3.9215088,29.190063,1,-2.4871826,24.993896,1,0.583826541900635,13.3935127258301,1,-14.312744,15.151978,1,-17.333984,8.483887,1,-16.464233,3.9367676,1
141,4.2877197,29.190063,1,-2.1972656,25.024414,1,1.48391151428223,13.602988243103,1,-13.397217,15.487671,1,-16.616821,8.758545,1,-16.464233,4.1046143,1
142,4.5928955,29.11377,1,-1.739502,25.07019,1,2.40101051330566,13.8071460723877,1,-12.420654,16.113281,1,-15.518188,9.292603,1,-16.26587,4.180908,1
143,5.0811768,29.083252,1,-1.2817383,25.20752,1,3.25332927703857,14.0974721908569,1,-11.520386,16.693115,1,-13.900757,9.887695,1,-15.12146,4.547119,1
144,5.3863525,28.930664,1,-0.88500977,25.32959,1,4.01152229309082,14.3740434646606,1,-10.71167,17.242432,1,-12.023926,10.345459,1,-12.908936,4.8675537,1
145,5.6762695,28.717041,1,-0.38146973,25.436401,1,4.8112268447876,14.6180877685547,1,-9.902954,17.532349,1,-10.116577,10.726929,1,-10.025024,5.1879883,1
146,6.0424805,28.59497,1,0,25.405884,1,5.56091499328613,14.7721529006958,1,-9.185791,17.51709,1,-8.178711,10.986328,1,-6.942749,5.4626465,1
147,6.362915,28.427124,1,0.4119873,25.283813,1,6.21558475494385,14.7805633544922,1,-8.560181,17.364502,1,-6.439209,11.154175,1,-4.0740967,5.9814453,1
148,6.668091,28.335571,1,0.88500977,25.07019,1,6.98659467697144,14.7372026443481,1,-7.827759,17.089844,1,-4.8980713,11.3220215,1,-1.876831,6.3934326,1
149,6.9732666,28.137207,1,1.1901855,24.82605,1,7.76599264144897,14.7881832122803,1,-7.1105957,16.708374,1,-3.616333,11.306763,1,-0.16784668,6.6223145,1
150,7.293701,27.923584,1,1.663208,24.551392,1,8.53847789764404,14.7162189483643,1,-6.3934326,16.143799,1,-2.3651123,11.047363,1,1.3122559,6.6986084,1
151,7.598877,27.755737,1,2.0446777,24.215698,1,9.35469627380371,14.6992063522339,1,-5.630493,15.365601,1,-1.0528564,10.635376,1,2.8686523,6.5307617,1
152,7.949829,27.60315,1,2.4261475,23.834229,1,10.2949457168579,14.7743148803711,1,-4.699707,14.373779,1,0.32043457,10.070801,1,4.6691895,6.378174,1
153,8.19397,27.359009,1,2.8076172,23.361206,1,11.2589893341064,14.8421516418457,1,-3.6621094,13.305664,1,1.8005371,9.521484,1,6.500244,6.30188,1
154,8.43811,27.22168,1,3.2043457,22.918701,1,12.2355127334595,15.0169286727905,1,-2.4871826,12.145996,1,3.4332275,9.048462,1,8.392334,6.4697266,1
155,8.69751,27.09961,1,3.6315918,22.43042,1,13.1941661834717,15.1807861328125,1,-1.2207031,11.0321045,1,4.9591064,8.575439,1,10.3302,6.652832,1
156,8.850098,26.97754,1,4.058838,21.987915,1,14.0685272216797,15.3692970275879,1,0.076293945,9.963989,1,6.576538,8.2092285,1,12.054443,6.942749,1
157,9.094238,26.901245,1,4.425049,21.530151,1,14.9552688598633,15.7756319046021,1,1.5869141,8.972168,1,8.132935,7.797241,1,13.748169,7.1258545,1
158,9.262085,26.779175,1,4.8675537,21.16394,1,15.735728263855,16.0764312744141,1,3.0212402,8.117676,1,9.689331,7.446289,1,15.304565,7.2631836,1
159,9.399414,26.687622,1,5.279541,20.843506,1,16.4916896820068,16.5670909881592,1,4.6539307,7.3547363,1,11.184692,6.9732666,1,16.845703,7.1105957,1
160,9.567261,26.59607,1,5.630493,20.523071,1,17.0736389160156,16.9099864959717,1,6.0577393,6.729126,1,12.664795,6.500244,1,18.310547,6.881714,1
161,9.70459,26.443481,1,5.935669,20.233154,1,17.5435390472412,17.190559387207,1,7.3242188,6.210327,1,14.022827,6.011963,1,19.622803,6.4697266,1
162,9.780884,26.290894,1,6.1950684,19.989014,1,17.9249782562256,17.4573726654053,1,8.468628,5.8135986,1,15.136719,5.432129,1,20.812988,6.0272217,1
163,9.994507,26.062012,1,6.439209,19.744873,1,18.2304611206055,17.5163269042969,1,9.32312,5.4473877,1,15.914917,4.9438477,1,21.66748,5.3253174,1
164,10.08606,25.772095,1,6.6070557,19.39392,1,18.4308128356934,17.3448390960693,1,9.750366,5.1116943,1,16.38794,4.1046143,1,22.094727,4.5318604,1
165,10.223389,25.421143,1,6.713867,19.012451,1,18.5151958465576,16.8379077911377,1,9.536743,4.8217773,1,16.036987,3.6315918,1,21.80481,3.8909912,1
166,10.406494,24.978638,1,6.8206787,18.64624,1,18.5604476928711,16.160717010498,1,8.865356,4.714966,1,15.24353,3.3874512,1,20.950317,3.7994385,1
167,10.528564,24.597168,1,6.7749023,18.26477,1,18.5003280639648,15.7124395370483,1,8.31604,4.699707,1,14.572144,3.2348633,1,20.248413,3.7384033,1
168,10.696411,24.32251,1,6.744385,18.051147,1,18.427734375,15.3126544952393,1,7.7667236,4.760742,1,13.99231,3.1585693,1,19.638062,3.6621094,1
169,10.787964,24.139404,1,6.729126,17.913818,1,18.3337936401367,14.8590354919434,1,7.1868896,4.8217773,1,13.381958,3.112793,1,19.058228,3.616333,1
170,10.848999,24.032593,1,6.6375732,17.89856,1,18.1515502929688,14.5179805755615,1,6.591797,4.9591064,1,12.710571,3.1433105,1,18.4021,3.6315918,1
171,10.910034,23.864746,1,6.576538,17.852783,1,17.967737197876,14.0791110992432,1,5.9661865,5.0811768,1,12.1154785,3.1433105,1,17.715454,3.6010742,1
172,11.09314,23.712158,1,6.5612793,17.791748,1,17.8433609008789,13.7033939361572,1,5.432129,5.279541,1,11.474609,3.1585693,1,17.105103,3.5705566,1
173,11.199951,23.55957,1,6.5307617,17.807007,1,17.6209163665771,13.2235078811646,1,4.8217773,5.4016113,1,10.864258,3.250122,1,16.464233,3.5858154,1
174,11.306763,23.483276,1,6.4697266,17.837524,1,17.3647174835205,12.8076963424683,1,4.2266846,5.569458,1,10.238647,3.2653809,1,15.823364,3.5247803,1
175,11.367798,23.391724,1,6.4086914,17.822266,1,17.1341609954834,12.4404163360596,1,3.6773682,5.8135986,1,9.58252,3.3111572,1,15.151978,3.5552979,1
176,11.459351,23.284912,1,6.3476562,17.868042,1,16.8763256072998,12.1106882095337,1,3.1585693,6.0424805,1,9.017944,3.3111572,1,14.49585,3.5552979,1
177,11.566162,23.361206,1,6.286621,17.929077,1,16.5787372589111,11.7587947845459,1,2.6245117,6.2561035,1,8.43811,3.4179688,1,13.839722,3.5247803,1
178,11.642456,23.483276,1,6.134033,18.066406,1,16.2497463226318,11.610990524292,1,2.1362305,6.5307617,1,7.8125,3.4942627,1,13.183594,3.463745,1
179,11.657715,23.55957,1,6.0577393,18.203735,1,15.9076795578003,11.3496360778809,1,1.6174316,6.790161,1,7.2021484,3.540039,1,12.527466,3.4942627,1
180,11.71875,23.620605,1,6.0272217,18.432617,1,15.5422229766846,11.1206579208374,1,1.1138916,7.019043,1,6.6070557,3.5858154,1,11.932373,3.463745,1
181,11.810303,23.727417,1,5.996704,18.508911,1,15.2176170349121,10.8294067382813,1,0.62561035,7.3547363,1,6.0272217,3.7078857,1,11.245728,3.5247803,1
182,11.886597,23.68164,1,5.9509277,18.661499,1,14.870138168335,10.6335678100586,1,0.16784668,7.659912,1,5.4016113,3.7384033,1,10.650635,3.4484863,1
183,11.947632,23.727417,1,5.9814453,18.707275,1,14.5254077911377,10.2810859680176,1,-0.289917,7.9345703,1,4.8065186,3.8757324,1,10.009766,3.4484863,1
184,12.054443,23.605347,1,5.9661865,18.707275,1,14.2012176513672,9.97891521453857,1,-0.6866455,8.148193,1,4.2419434,3.8757324,1,9.353638,3.4332275,1
185,12.069702,23.590088,1,5.859375,18.676758,1,13.7952365875244,9.67552947998047,1,-1.1444092,8.331299,1,3.6468506,3.9215088,1,8.758545,3.4332275,1
186,12.069702,23.55957,1,5.8288574,18.661499,1,13.4063682556152,9.35658836364746,1,-1.5716553,8.544922,1,3.1280518,3.9978027,1,8.087158,3.3874512,1
187,12.039185,23.468018,1,5.8288574,18.661499,1,12.953293800354,9.00528812408447,1,-2.0446777,8.758545,1,2.4871826,4.0893555,1,7.4157715,3.4332275,1
188,11.978149,23.468018,1,5.6762695,18.737793,1,12.5887470245361,8.92873382568359,1,-2.4108887,9.033203,1,1.9226074,4.1503906,1,6.8206787,3.3721924,1
189,11.932373,23.4375,1,5.508423,18.814087,1,12.1256656646729,8.80348777770996,1,-2.8686523,9.216309,1,1.3122559,4.196167,1,6.149292,3.40271,1
190,11.84082,23.544312,1,5.355835,18.90564,1,11.6097774505615,8.66414451599121,1,-3.3721924,9.399414,1,0.7171631,4.3029785,1,5.584717,3.3721924,1
191,11.642456,23.651123,1,5.1727295,18.997192,1,11.262601852417,8.65729522705078,1,-3.7078857,9.597778,1,0.18310547,4.3029785,1,4.8980713,3.4179688,1
192,11.489868,23.6969,1,4.989624,19.088745,1,10.8023023605347,8.59051895141602,1,-4.1503906,9.780884,1,-0.39672852,4.3945312,1,4.333496,3.40271,1
193,11.33728,23.80371,1,4.8217773,19.195557,1,10.3874340057373,8.56430625915527,1,-4.547119,9.963989,1,-1.0070801,4.486084,1,3.6621094,3.4484863,1
194,11.123657,23.895264,1,4.547119,19.226074,1,9.99820137023926,8.53562355041504,1,-4.91333,10.1623535,1,-1.5716553,4.5166016,1,3.0517578,3.479004,1
195,10.955811,23.94104,1,4.3182373,19.28711,1,9.60012245178223,8.51205921173096,1,-5.2948,10.284424,1,-2.1362305,4.5776367,1,2.4108887,3.479004,1
196,10.757446,24.017334,1,4.135132,19.348145,1,9.18496131896973,8.46240997314453,1,-5.6762695,10.498047,1,-2.670288,4.638672,1,1.8310547,3.4484863,1
197,10.437012,24.124146,1,3.9672852,19.439697,1,8.83084106445313,8.46947383880615,1,-6.011963,10.635376,1,-3.250122,4.699707,1,1.1901855,3.479004,1
198,10.284424,24.215698,1,3.8146973,19.515991,1,8.47319984436035,8.45713329315186,1,-6.3323975,10.864258,1,-3.7231445,4.79126,1,0.61035156,3.479004,1
199,10.147095,24.337769,1,3.616333,19.66858,1,8.17354011535645,8.56759452819824,1,-6.6375732,10.940552,1,-4.257202,4.8217773,1,0,3.5095215,1
200,9.94873,24.414062,1,3.40271,19.77539,1,7.88918352127075,8.6456298828125,1,-6.8969727,11.169434,1,-4.776001,4.9438477,1,-0.5645752,3.4942627,1
201,9.750366,24.58191,1,3.2806396,19.836426,1,7.52318334579468,8.61141777038574,1,-7.232666,11.306763,1,-5.2948,5.050659,1,-1.2359619,3.540039,1
202,9.643555,24.719238,1,3.2043457,20.004272,1,7.22471237182617,8.69778633117676,1,-7.507324,11.520386,1,-5.7678223,5.065918,1,-1.739502,3.5858154,1
203,9.506226,24.82605,1,3.0822754,20.080566,1,6.92281436920166,8.71173858642578,1,-7.7819824,11.672974,1,-6.225586,5.1727295,1,-2.3651123,3.6468506,1
204,9.475708,24.917603,1,3.0670166,20.15686,1,6.6848087310791,8.71520137786865,1,-7.9956055,11.795044,1,-6.790161,5.279541,1,-2.9449463,3.6315918,1
205,9.384155,24.963379,1,3.0670166,20.233154,1,6.45135259628296,8.72027969360352,1,-8.19397,11.962891,1,-7.247925,5.355835,1,-3.463745,3.6315918,1
206,9.429932,24.978638,1,3.0212402,20.187378,1,6.17305183410645,8.60868644714356,1,-8.407593,12.130737,1,-7.736206,5.4626465,1,-4.058838,3.6468506,1
207,9.384155,24.94812,1,3.0212402,20.248413,1,5.9448299407959,8.61000061035156,1,-8.590698,12.313843,1,-8.19397,5.645752,1,-4.5776367,3.7384033,1
208,9.384155,24.932861,1,2.9754639,20.233154,1,5.69643306732178,8.54571056365967,1,-8.773804,12.496948,1,-8.636475,5.8135986,1,-5.050659,3.7841797,1
209,9.399414,24.932861,1,3.0212402,20.263672,1,5.46962356567383,8.5161018371582,1,-8.895874,12.832642,1,-9.033203,6.1950684,1,-5.6610107,3.9367676,1
210,9.460449,24.963379,1,3.0670166,20.370483,1,5.29252338409424,8.57865905761719,1,-9.002686,13.122559,1,-9.399414,6.5307617,1,-6.0577393,4.058838,1
211,9.552002,25.07019,1,3.1280518,20.53833,1,5.11698627471924,8.70430564880371,1,-9.140015,13.366699,1,-9.796143,6.6986084,1,-6.591797,4.0283203,1
212,9.597778,25.100708,1,3.2043457,20.690918,1,4.98942470550537,8.82443046569824,1,-9.246826,13.549805,1,-10.192871,6.8511963,1,-7.095337,4.043579,1
213,9.643555,25.238037,1,3.2806396,20.874023,1,4.93737888336182,8.98893928527832,1,-9.277344,13.778687,1,-10.513306,7.019043,1,-7.583618,4.135132,1
214,9.780884,25.344849,1,3.326416,21.087646,1,4.92461729049683,9.19454860687256,1,-9.307861,13.931274,1,-10.864258,7.232666,1,-8.026123,4.1656494,1
215,9.933472,25.512695,1,3.463745,21.331787,1,4.93959140777588,9.42288780212402,1,-9.307861,14.11438,1,-11.108398,7.446289,1,-8.4991455,4.211426,1
216,10.101318,25.6958,1,3.5705566,21.560669,1,4.98805570602417,9.64468479156494,1,-9.262085,14.328003,1,-11.3220215,7.6141357,1,-8.895874,4.196167,1
217,10.299683,25.863647,1,3.7994385,21.80481,1,5.2161545753479,9.8887300491333,1,-9.063721,14.480591,1,-11.550903,7.8430176,1,-9.414673,4.180908,1
218,10.513306,26.031494,1,4.058838,22.033691,1,5.56711292266846,10.1288566589355,1,-8.773804,14.526367,1,-11.703491,7.949829,1,-9.872437,4.135132,1
219,10.83374,26.184082,1,4.3640137,22.247314,1,6.00892210006714,10.3605871200562,1,-8.422852,14.450073,1,-11.856079,8.071899,1,-10.391235,4.1046143,1
220,11.047363,26.321411,1,4.699707,22.43042,1,6.60559749603272,10.5827369689941,1,-7.9193115,14.328003,1,-11.871338,8.163452,1,-10.894775,4.0740967,1
221,11.383057,26.45874,1,5.050659,22.537231,1,7.31413269042969,10.7526359558105,1,-7.293701,14.160156,1,-11.810303,8.239746,1,-11.352539,4.0283203,1
222,11.71875,26.565552,1,5.4473877,22.644043,1,8.40212821960449,11.0135011672974,1,-6.286621,14.053345,1,-11.367798,8.422852,1,-11.59668,4.0740967,1
223,12.054443,26.657104,1,5.874634,22.705078,1,9.29991149902344,11.2043190002441,1,-5.3100586,14.602661,1,-10.345459,8.895874,1,-11.33728,4.272461,1
224,12.451172,26.657104,1,6.378174,22.827148,1,10.0971832275391,11.417986869812,1,-4.348755,15.457153,1,-8.666992,9.277344,1,-10.787964,4.348755,1
225,12.72583,26.565552,1,6.866455,23.025513,1,10.8623352050781,11.7103490829468,1,-3.4484863,16.204834,1,-6.5307617,9.674072,1,-8.728027,4.5928955,1
226,13.1073,26.550293,1,7.30896,23.208618,1,11.5741233825684,11.9921836853027,1,-2.6550293,16.738892,1,-4.333496,10.055542,1,-5.5999756,4.6691895,1
227,13.397217,26.550293,1,7.797241,23.239136,1,12.3771018981934,12.1474781036377,1,-1.7852783,17.089844,1,-2.090454,10.421753,1,-2.1514893,4.837036,1
228,13.73291,26.443481,1,8.163452,23.208618,1,13.209602355957,12.3211765289307,1,-1.0070801,17.105103,1,-0.030517578,10.650635,1,1.0986328,5.142212,1
229,13.99231,26.351929,1,8.590698,23.1781,1,14.1425123214722,12.5396175384521,1,-0.19836426,16.937256,1,1.876831,10.818481,1,3.829956,5.432129,1
230,14.373779,26.290894,1,9.109497,23.025513,1,15.0152454376221,12.5793581008911,1,0.5645752,16.601562,1,3.5705566,10.864258,1,6.164551,5.7373047,1
231,14.6484375,26.19934,1,9.536743,22.827148,1,16.02126121521,12.7300691604614,1,1.373291,15.960693,1,5.126953,10.5896,1,8.300781,5.844116,1
232,14.968872,26.184082,1,9.857178,22.537231,1,17.2456130981445,13.0814914703369,1,2.3498535,14.846802,1,6.80542,10.025024,1,10.391235,5.722046,1
233,15.167236,26.168823,1,10.284424,22.155762,1,18.4940986633301,13.4035491943359,1,3.4942627,13.473511,1,8.682251,9.414673,1,12.893677,5.783081,1
234,15.396118,26.168823,1,10.665894,21.713257,1,19.7143936157227,13.8313369750977,1,4.837036,11.917114,1,10.71167,8.758545,1,15.579224,6.088257,1
235,15.533447,26.168823,1,11.09314,21.255493,1,20.8781852722168,14.309061050415,1,6.42395,10.299683,1,12.741089,8.224487,1,18.112183,6.6833496,1
236,15.655518,26.168823,1,11.474609,20.828247,1,21.9108581542969,14.9050102233887,1,8.19397,8.834839,1,14.678955,7.6293945,1,20.248413,7.1868896,1
237,15.777588,26.09253,1,11.84082,20.401001,1,22.7684745788574,15.4425363540649,1,9.963989,7.6293945,1,16.540527,7.156372,1,22.201538,7.537842,1
238,15.960693,25.985718,1,12.191772,20.019531,1,23.4746475219727,15.9333696365356,1,11.642456,6.713867,1,18.127441,6.6070557,1,23.788452,7.5531006,1
239,16.036987,25.83313,1,12.435913,19.683838,1,23.9413738250732,16.2743835449219,1,13.015747,5.996704,1,19.546509,5.8135986,1,25.131226,6.942749,1
240,16.098022,25.58899,1,12.664795,19.439697,1,24.2516860961914,16.3181686401367,1,13.916016,5.4473877,1,20.385742,4.852295,1,25.9552,5.9051514,1
241,16.204834,25.268555,1,12.741089,19.042969,1,24.3695373535156,16.0800018310547,1,14.23645,5.0201416,1,20.568848,4.043579,1,26.153564,4.623413,1
242,16.235352,24.82605,1,12.802124,18.64624,1,24.3575019836426,15.4100036621094,1,13.687134,4.8675537,1,19.882202,3.6468506,1,25.497437,4.0130615,1
243,16.342163,24.490356,1,12.710571,18.26477,1,24.2558784484863,14.9927854537964,1,13.092041,4.974365,1,19.226074,3.5095215,1,24.856567,3.90625,1
244,16.448975,24.276733,1,12.649536,18.081665,1,24.1441879272461,14.6359462738037,1,12.619019,5.0354004,1,18.615723,3.3721924,1,24.154663,3.8909912,1
245,16.38794,24.108887,1,12.481689,18.005371,1,23.8957633972168,14.3014698028564,1,11.993408,5.1727295,1,17.959595,3.40271,1,23.544312,3.8757324,1
246,16.357422,23.94104,1,12.359619,17.913818,1,23.6563491821289,13.8661155700684,1,11.367798,5.264282,1,17.364502,3.3416748,1,22.827148,3.8757324,1
247,16.296387,23.742676,1,12.191772,17.77649,1,23.3930053710937,13.4715614318848,1,10.787964,5.340576,1,16.647339,3.3416748,1,22.216797,3.8452148,1
248,16.296387,23.513794,1,12.054443,17.684937,1,23.0912742614746,12.9744853973389,1,10.116577,5.4473877,1,16.098022,3.3874512,1,21.575928,3.8452148,1
249,16.25061,23.330688,1,11.825562,17.486572,1,22.8133850097656,12.6629037857056,1,9.613037,5.5389404,1,15.380859,3.3721924,1,20.965576,3.7384033,1
250,16.25061,23.101807,1,11.688232,17.37976,1,22.4696083068848,12.1107997894287,1,8.94165,5.630493,1,14.73999,3.3874512,1,20.263672,3.7994385,1
251,16.25061,22.857666,1,11.535645,17.288208,1,22.1545886993408,11.6991062164307,1,8.377075,5.7678223,1,14.129639,3.3721924,1,19.577026,3.7231445,1
252,16.311646,22.705078,1,11.474609,17.13562,1,21.8508186340332,11.1078290939331,1,7.7819824,5.9051514,1,13.458252,3.3569336,1,18.920898,3.7384033,1
253,16.357422,22.491455,1,11.352539,17.074585,1,21.4737548828125,10.6278038024902,1,7.1868896,6.0577393,1,12.832642,3.3569336,1,18.310547,3.692627,1
254,16.418457,22.537231,1,11.230469,17.074585,1,21.117374420166,10.2739143371582,1,6.652832,6.30188,1,12.207031,3.4484863,1,17.608643,3.692627,1
255,16.448975,22.598267,1,11.09314,17.150879,1,20.7477016448975,10.024209022522,1,6.149292,6.576538,1,11.657715,3.5247803,1,16.967773,3.6010742,1
256,16.464233,22.705078,1,11.047363,17.349243,1,20.3400897979736,9.75679874420166,1,5.6152344,6.8969727,1,11.016846,3.6315918,1,16.38794,3.6468506,1
257,16.479492,22.79663,1,10.940552,17.532349,1,19.9419288635254,9.59665489196777,1,5.126953,7.247925,1,10.421753,3.6773682,1,15.670776,3.6621094,1
258,16.51001,23.010254,1,10.818481,17.852783,1,19.5138626098633,9.58293724060059,1,4.6539307,7.537842,1,9.857178,3.829956,1,14.99939,3.616333,1
259,16.586304,23.132324,1,10.726929,18.02063,1,19.1266632080078,9.45065593719482,1,4.211426,7.8582764,1,9.20105,3.9215088,1,14.389038,3.616333,1
260,16.586304,23.31543,1,10.696411,18.234253,1,18.7366466522217,9.32613182067871,1,3.7841797,8.132935,1,8.69751,4.0130615,1,13.763428,3.6010742,1
261,16.63208,23.406982,1,10.650635,18.417358,1,18.2912845611572,9.16422557830811,1,3.3111572,8.392334,1,8.071899,4.043579,1,13.1073,3.5247803,1
262,16.571045,23.498535,1,10.574341,18.508911,1,17.9404144287109,9.03573894500732,1,2.9449463,8.666992,1,7.461548,4.1046143,1,12.466431,3.540039,1
263,16.464233,23.513794,1,10.482788,18.52417,1,17.5176658630371,8.80251979827881,1,2.5177002,8.834839,1,6.8969727,4.1503906,1,11.84082,3.5095215,1
264,16.403198,23.452759,1,10.269165,18.569946,1,17.0711288452148,8.68393135070801,1,2.0751953,9.033203,1,6.3171387,4.211426,1,11.199951,3.479004,1
265,16.25061,23.498535,1,10.070801,18.600464,1,16.5681304931641,8.51162147521973,1,1.5869141,9.262085,1,5.722046,4.2266846,1,10.528564,3.4484863,1
266,16.052246,23.55957,1,9.82666,18.64624,1,16.0935726165771,8.41267681121826,1,1.1291504,9.44519,1,5.1116943,4.3182373,1,9.872437,3.5095215,1
267,15.884399,23.605347,1,9.689331,18.737793,1,15.540753364563,8.26111030578613,1,0.5950928,9.536743,1,4.486084,4.348755,1,9.216309,3.4942627,1
268,15.579224,23.620605,1,9.3688965,18.829346,1,15.0991487503052,8.28590202331543,1,0.16784668,9.719849,1,3.9215088,4.425049,1,8.575439,3.4942627,1
269,15.335083,23.620605,1,9.033203,18.829346,1,14.6336441040039,8.21638011932373,1,-0.2746582,9.872437,1,3.326416,4.470825,1,7.965088,3.479004,1
270,15.045166,23.68164,1,8.682251,18.829346,1,14.0945539474487,8.11921119689941,1,-0.79345703,9.94873,1,2.7313232,4.486084,1,7.3242188,3.5095215,1
271,14.663696,23.68164,1,8.331299,18.951416,1,13.6234245300293,8.18139266967773,1,-1.2512207,10.116577,1,2.105713,4.501343,1,6.668091,3.463745,1
272,14.266968,23.757935,1,7.9345703,18.966675,1,13.1927356719971,8.18003082275391,1,-1.663208,10.253906,1,1.5258789,4.6539307,1,6.072998,3.5095215,1
273,13.900757,23.880005,1,7.6446533,19.058228,1,12.7433910369873,8.19531440734863,1,-2.090454,10.421753,1,0.9613037,4.638672,1,5.4016113,3.479004,1
274,13.549805,23.971558,1,7.293701,19.088745,1,12.2731990814209,8.17065906524658,1,-2.532959,10.574341,1,0.35095215,4.776001,1,4.8217773,3.5247803,1
275,13.214111,24.047852,1,6.9732666,19.14978,1,11.837197303772,8.17972087860107,1,-2.9449463,10.726929,1,-0.15258789,4.79126,1,4.1503906,3.4942627,1
276,12.863159,24.124146,1,6.6375732,19.195557,1,11.3545742034912,8.16152381896973,1,-3.40271,10.848999,1,-0.77819824,4.852295,1,3.540039,3.5552979,1
277,12.481689,24.124146,1,6.3171387,19.241333,1,10.9627456665039,8.17705154418945,1,-3.768921,11.001587,1,-1.2817383,4.928589,1,2.9296875,3.5858154,1
278,12.1154785,24.18518,1,6.011963,19.28711,1,10.5648746490479,8.18436145782471,1,-4.1503906,11.09314,1,-1.9073486,4.9591064,1,2.3040771,3.5858154,1
279,11.795044,24.230957,1,5.6152344,19.28711,1,10.150951385498,8.17732620239258,1,-4.5318604,11.245728,1,-2.4108887,5.0201416,1,1.7547607,3.6010742,1
280,11.505127,24.246216,1,5.279541,19.302368,1,9.74378871917725,8.16367435455322,1,-4.91333,11.352539,1,-2.9449463,5.065918,1,1.0986328,3.6621094,1
281,11.169434,24.246216,1,4.974365,19.332886,1,9.40882587432861,8.18229961395264,1,-5.218506,11.505127,1,-3.4484863,5.203247,1,0.5340576,3.7078857,1
282,10.986328,24.108887,1,4.776001,19.28711,1,8.98209953308106,8.04839420318604,1,-5.584717,11.627197,1,-4.043579,5.279541,1,-0.045776367,3.7231445,1
283,10.7421875,24.07837,1,4.5318604,19.28711,1,8.56516456604004,7.98523139953613,1,-5.9509277,11.764526,1,-4.5776367,5.3253174,1,-0.6866455,3.7384033,1
284,10.482788,24.047852,1,4.2877197,19.256592,1,8.26684474945068,7.93552494049072,1,-6.1950684,11.917114,1,-5.065918,5.432129,1,-1.2512207,3.7841797,1
285,10.314941,23.910522,1,4.043579,19.256592,1,7.84454774856567,7.87447261810303,1,-6.5612793,12.054443,1,-5.569458,5.5389404,1,-1.8463135,3.90625,1
286,10.08606,23.864746,1,3.7994385,19.27185,1,7.41849613189697,7.83059120178223,1,-6.942749,12.161255,1,-6.1187744,5.584717,1,-2.4261475,3.8757324,1
287,9.902954,23.834229,1,3.540039,19.302368,1,7.05421829223633,7.82846069335938,1,-7.2784424,12.252808,1,-6.6223145,5.6152344,1,-2.9754639,3.8757324,1
288,9.719849,23.834229,1,3.326416,19.363403,1,6.62911701202393,7.8268461227417,1,-7.659912,12.390137,1,-7.1868896,5.7678223,1,-3.540039,3.90625,1
289,9.490967,23.834229,1,3.0822754,19.39392,1,6.24036502838135,7.81693935394287,1,-8.010864,12.496948,1,-7.675171,5.844116,1,-4.180908,3.8757324,1
290,9.277344,23.80371,1,2.8839111,19.439697,1,5.82263231277466,7.80509662628174,1,-8.331299,12.771606,1,-8.148193,6.088257,1,-4.623413,3.9672852,1
291,9.155273,23.80371,1,2.7313232,19.515991,1,5.52794170379639,7.84641838073731,1,-8.575439,12.954712,1,-8.651733,6.3323975,1,-5.1879883,4.0283203,1
292,9.063721,23.773193,1,2.5939941,19.607544,1,5.17463541030884,7.8883171081543,1,-8.865356,13.168335,1,-9.124756,6.5460205,1,-5.7373047,4.0893555,1
293,8.956909,23.757935,1,2.4871826,19.622803,1,4.87401533126831,7.86257171630859,1,-9.109497,13.290405,1,-9.567261,6.6833496,1,-6.1950684,4.1503906,1
294,8.880615,23.80371,1,2.4108887,19.66858,1,4.55366039276123,7.86144065856934,1,-9.338379,13.519287,1,-9.94873,6.8359375,1,-6.744385,4.2266846,1
295,8.880615,23.788452,1,2.4414062,19.760132,1,4.37649536132813,7.9171838760376,1,-9.475708,13.671875,1,-10.360718,7.019043,1,-7.232666,4.272461,1
296,8.880615,23.80371,1,2.380371,19.821167,1,4.25788593292236,7.96895503997803,1,-9.552002,13.824463,1,-10.7421875,7.156372,1,-7.7209473,4.2877197,1
297,8.895874,23.81897,1,2.3345947,19.89746,1,4.02331638336182,8.01688003540039,1,-9.735107,13.99231,1,-11.09314,7.30896,1,-8.178711,4.3029785,1
298,8.850098,23.864746,1,2.319336,20.019531,1,3.98039364814758,8.13505077362061,1,-9.796143,14.0686035,1,-11.398315,7.4920654,1,-8.682251,4.3029785,1
299,8.880615,23.956299,1,2.2735596,20.141602,1,3.84656238555908,8.24514484405518,1,-9.918213,14.205933,1,-11.779785,7.6293945,1,-9.20105,4.3029785,1
300,8.81958,24.06311,1,2.2277832,20.248413,1,3.79857587814331,8.35166454315186,1,-9.979248,14.282227,1,-12.130737,7.751465,1,-9.719849,4.3029785,1
301,8.758545,24.108887,1,2.105713,20.355225,1,3.78522133827209,8.47333526611328,1,-10.025024,14.328003,1,-12.435913,7.873535,1,-10.269165,4.348755,1
302,8.728027,24.18518,1,2.0751953,20.492554,1,3.81281185150146,8.61902236938477,1,-9.994507,14.480591,1,-12.72583,8.041382,1,-10.696411,4.333496,1
303,8.69751,24.246216,1,2.0751953,20.599365,1,3.92294359207153,8.74247550964356,1,-9.94873,14.450073,1,-13.031006,8.102417,1,-11.245728,4.272461,1
304,8.773804,24.414062,1,2.090454,20.751953,1,4.1151123046875,8.92398929595947,1,-9.841919,14.419556,1,-13.290405,8.2092285,1,-11.810303,4.257202,1
305,8.773804,24.459839,1,2.1514893,20.843506,1,4.37273406982422,9.05087757110596,1,-9.674072,14.312744,1,-13.580322,8.178711,1,-12.313843,4.211426,1
306,8.850098,24.58191,1,2.2125244,20.980835,1,4.5744481086731,9.21557712554932,1,-9.597778,14.129639,1,-13.870239,8.148193,1,-12.908936,4.180908,1
307,8.804321,24.612427,1,2.2583008,21.102905,1,4.75646257400513,9.36581993103027,1,-9.536743,13.916016,1,-14.266968,8.087158,1,-13.519287,4.0740967,1
308,8.926392,24.765015,1,2.2583008,21.209717,1,4.89387035369873,9.50272178649902,1,-9.506226,13.702393,1,-14.602661,8.071899,1,-14.0686035,4.0893555,1
309,8.926392,24.856567,1,2.3040771,21.331787,1,5.09741687774658,9.6614294052124,1,-9.429932,13.397217,1,-14.862061,8.041382,1,-14.785767,3.982544,1
310,8.94165,25.009155,1,2.3040771,21.484375,1,5.48910617828369,9.91477775573731,1,-9.170532,13.092041,1,-15.090942,8.071899,1,-15.335083,4.0130615,1
311,9.002686,25.161743,1,2.3651123,21.621704,1,5.72872257232666,10.1027584075928,1,-9.017944,12.8479,1,-15.2282715,8.087158,1,-15.884399,3.9520264,1
312,9.002686,25.268555,1,2.4414062,21.697998,1,5.86814689636231,10.1976747512817,1,-8.895874,12.8479,1,-15.24353,8.239746,1,-16.25061,4.0740967,1
313,9.002686,25.299072,1,2.5024414,21.774292,1,5.7870569229126,10.232572555542,1,-8.865356,13.442993,1,-14.99939,8.590698,1,-16.418457,4.257202,1
314,9.063721,25.360107,1,2.609253,21.881104,1,5.95284748077393,10.3563318252563,1,-8.4991455,14.373779,1,-14.190674,9.140015,1,-16.403198,4.40979,1
315,9.124756,25.421143,1,2.7160645,22.064209,1,6.18365383148193,10.576135635376,1,-8.056641,15.289307,1,-12.863159,9.399414,1,-15.594482,4.5776367,1
316,9.124756,25.497437,1,2.8076172,22.29309,1,6.46574020385742,10.8642625808716,1,-7.6141357,16.036987,1,-11.169434,9.628296,1,-13.61084,4.6539307,1
317,9.262085,25.482178,1,2.9449463,22.460938,1,6.77210092544556,11.0875968933105,1,-7.171631,16.616821,1,-9.353638,9.872437,1,-11.016846,4.623413,1
318,9.307861,25.45166,1,3.0670166,22.583008,1,7.10296249389648,11.2820730209351,1,-6.790161,16.937256,1,-7.6904297,10.116577,1,-8.163452,4.5928955,1
319,9.277344,25.405884,1,3.189087,22.583008,1,7.44727230072022,11.3639240264893,1,-6.4849854,16.921997,1,-6.134033,10.253906,1,-5.859375,4.5776367,1
320,9.338379,25.344849,1,3.326416,22.460938,1,7.81529903411865,11.3321495056152,1,-6.164551,16.76941,1,-4.8828125,10.269165,1,-3.8909912,4.6539307,1
321,9.44519,25.19226,1,3.463745,22.247314,1,8.25475311279297,11.2452125549316,1,-5.874634,16.281128,1,-3.692627,10.055542,1,-2.1209717,4.6691895,1
322,9.414673,25.131226,1,3.4484863,21.972656,1,8.89118099212647,11.2779350280762,1,-5.5236816,15.426636,1,-2.4719238,9.613037,1,-0.33569336,4.4555664,1
323,9.429932,24.94812,1,3.6315918,21.606445,1,9.75731658935547,11.2877502441406,1,-4.9438477,14.266968,1,-1.1138916,9.063721,1,1.6174316,4.196167,1
324,9.44519,24.94812,1,3.753662,21.240234,1,10.6234817504883,11.4012508392334,1,-4.2877197,13.031006,1,0.50354004,8.590698,1,3.7231445,4.196167,1
325,9.429932,24.887085,1,3.829956,20.935059,1,11.5353355407715,11.7357597351074,1,-3.463745,11.901855,1,2.0446777,8.300781,1,5.8135986,4.486084,1
326,9.429932,24.902344,1,3.9672852,20.690918,1,12.4704551696777,12.2235622406006,1,-2.4719238,10.910034,1,3.4179688,8.117676,1,7.8582764,5.0201416,1
327,9.44519,25.024414,1,4.135132,20.492554,1,13.3296680450439,12.7814912796021,1,-1.3885498,9.887695,1,4.699707,7.8582764,1,9.841919,5.7373047,1
328,9.353638,25.146484,1,4.2266846,20.248413,1,14.1801261901855,13.5455026626587,1,-0.045776367,8.7890625,1,6.210327,7.369995,1,11.84082,6.4849854,1
329,9.338379,25.283813,1,4.501343,19.989014,1,15.0309972763062,14.2334604263306,1,1.5258789,7.7056885,1,7.873535,6.958008,1,13.565063,7.1868896,1
330,9.32312,25.405884,1,4.623413,19.821167,1,15.5753574371338,14.9165887832642,1,2.89917,6.8969727,1,9.185791,6.515503,1,14.73999,7.446289,1
331,9.262085,25.45166,1,4.6539307,19.699097,1,15.8734092712402,15.4419507980347,1,3.9215088,6.378174,1,10.070801,5.874634,1,15.548706,6.9885254,1
332,9.155273,25.390625,1,4.5928955,19.53125,1,15.9610261917114,15.6886463165283,1,4.5776367,5.92041,1,10.528564,5.0964355,1,15.899658,6.0577393,1
333,9.0789795,25.161743,1,4.5166016,19.317627,1,15.8902187347412,15.4912929534912,1,4.6539307,5.554199,1,10.559082,4.0740967,1,15.74707,4.8065186,1
334,9.063721,24.68872,1,4.3945312,18.981934,1,15.6211795806885,14.7437324523926,1,4.058838,5.1879883,1,9.750366,3.3721924,1,15.12146,3.5095215,1
335,8.972168,24.246216,1,4.211426,18.569946,1,15.3472146987915,14.0984582901001,1,3.4179688,5.004883,1,9.048462,3.0975342,1,14.389038,3.4942627,1
336,8.926392,23.925781,1,4.0893555,18.371582,1,15.1338958740234,13.679235458374,1,2.8533936,5.065918,1,8.377075,3.0212402,1,13.748169,3.40271,1
337,8.880615,23.788452,1,3.90625,18.310547,1,14.8599681854248,13.4099273681641,1,2.3040771,5.203247,1,7.7667236,3.0212402,1,13.046265,3.40271,1
338,8.926392,23.620605,1,3.753662,18.249512,1,14.578800201416,13.0710582733154,1,1.7242432,5.340576,1,7.1411133,3.0212402,1,12.374878,3.40271,1
339,8.94165,23.361206,1,3.7231445,18.127441,1,14.3567781448364,12.5663433074951,1,1.1291504,5.493164,1,6.515503,3.0212402,1,11.764526,3.326416,1
340,8.911133,23.1781,1,3.6315918,17.990112,1,14.0807189941406,12.0896272659302,1,0.5645752,5.584717,1,5.9051514,3.0059814,1,11.108398,3.3111572,1
341,8.972168,22.872925,1,3.5552979,17.822266,1,13.8591041564941,11.6715278625488,1,0.076293945,5.7525635,1,5.264282,3.0059814,1,10.498047,3.2806396,1
342,8.987427,22.628784,1,3.4332275,17.730713,1,13.5378017425537,11.2578773498535,1,-0.50354004,5.9814453,1,4.6081543,2.9907227,1,9.796143,3.2958984,1
343,9.002686,22.460938,1,3.3569336,17.623901,1,13.2213096618652,10.7905941009521,1,-1.0375977,6.134033,1,3.9978027,3.0517578,1,9.155273,3.189087,1
344,9.063721,22.323608,1,3.2653809,17.623901,1,12.8864097595215,10.4520263671875,1,-1.5411377,6.3476562,1,3.3721924,3.0059814,1,8.468628,3.1280518,1
345,9.063721,22.323608,1,3.2196045,17.684937,1,12.5373783111572,10.123251914978,1,-2.0446777,6.6070557,1,2.7313232,3.0822754,1,7.8125,3.0822754,1
346,9.094238,22.338867,1,3.112793,17.807007,1,12.1540079116821,9.91673183441162,1,-2.5482178,6.942749,1,2.1209717,3.189087,1,7.1258545,3.1280518,1
347,9.277344,22.491455,1,3.036499,17.929077,1,11.7867956161499,9.71735954284668,1,-3.0059814,7.232666,1,1.5411377,3.250122,1,6.5460205,3.0822754,1
348,9.231567,22.537231,1,3.0212402,18.051147,1,11.4263925552368,9.48648643493652,1,-3.4484863,7.5531006,1,0.9613037,3.40271,1,5.92041,3.0670166,1
349,9.292603,22.613525,1,2.960205,18.203735,1,11.0633506774902,9.35280132293701,1,-3.8604736,7.8430176,1,0.39672852,3.463745,1,5.279541,3.0822754,1
350,9.399414,22.705078,1,2.9144287,18.4021,1,10.6841993331909,9.25711917877197,1,-4.272461,8.117676,1,-0.15258789,3.5552979,1,4.5928955,3.0822754,1
351,9.399414,22.827148,1,2.9144287,18.52417,1,10.3157968521118,9.0785493850708,1,-4.6691895,8.407593,1,-0.6866455,3.6315918,1,4.0283203,3.0670166,1
352,9.490967,22.918701,1,2.9449463,18.615723,1,9.96326732635498,8.88211441040039,1,-5.0354004,8.682251,1,-1.2969971,3.753662,1,3.3874512,3.036499,1
353,9.506226,22.93396,1,2.8686523,18.722534,1,9.55209541320801,8.75601005554199,1,-5.4473877,8.880615,1,-1.8615723,3.768921,1,2.7313232,2.9754639,1
354,9.506226,22.964478,1,2.8533936,18.76831,1,9.11594295501709,8.53207588195801,1,-5.874634,9.063721,1,-2.4414062,3.8757324,1,2.0599365,2.9907227,1
355,9.490967,22.964478,1,2.746582,18.844604,1,8.69311618804932,8.42161369323731,1,-6.286621,9.20105,1,-3.0059814,3.8909912,1,1.449585,2.9907227,1
356,9.353638,23.05603,1,2.6855469,18.859863,1,8.24114990234375,8.22335720062256,1,-6.713867,9.384155,1,-3.5705566,3.9367676,1,0.8087158,2.9907227,1
357,9.20105,23.101807,1,2.4414062,18.997192,1,7.84976005554199,8.28506469726563,1,-7.095337,9.567261,1,-4.119873,3.9978027,1,0.18310547,2.9907227,1
358,9.048462,23.254395,1,2.243042,19.104004,1,7.45384502410889,8.29439926147461,1,-7.4768066,9.735107,1,-4.6691895,4.058838,1,-0.4272461,3.0059814,1
359,8.926392,23.361206,1,2.0751953,19.241333,1,6.94091033935547,8.27206611633301,1,-7.965088,9.94873,1,-5.279541,4.135132,1,-1.0375977,3.0670166,1
360,8.758545,23.4375,1,1.8615723,19.241333,1,6.49851608276367,8.17341804504395,1,-8.377075,10.101318,1,-5.8135986,4.2419434,1,-1.6479492,3.0975342,1
361,8.560181,23.483276,1,1.6937256,19.302368,1,6.14439010620117,8.15823936462402,1,-8.712769,10.223389,1,-6.3476562,4.3029785,1,-2.2888184,3.0822754,1
362,8.43811,23.468018,1,1.4953613,19.317627,1,5.74422359466553,8.09500789642334,1,-9.0789795,10.391235,1,-6.9732666,4.348755,1,-3.0212402,3.112793,1
363,8.285522,23.498535,1,1.2817383,19.332886,1,5.29595565795898,8.02421379089356,1,-9.506226,10.4522705,1,-7.537842,4.425049,1,-3.5705566,3.112793,1
364,8.056641,23.498535,1,1.1291504,19.363403,1,4.89710521697998,7.97031116485596,1,-9.872437,10.5896,1,-8.087158,4.486084,1,-4.196167,3.189087,1
365,7.8125,23.468018,1,0.93078613,19.348145,1,4.49651098251343,7.89015102386475,1,-10.238647,10.696411,1,-8.605957,4.547119,1,-4.760742,3.189087,1
366,7.659912,23.498535,1,0.7019043,19.317627,1,4.07322883605957,7.80093669891357,1,-10.620117,10.818481,1,-9.170532,4.623413,1,-5.355835,3.2043457,1
367,7.4310303,23.406982,1,0.47302246,19.302368,1,3.75198698043823,7.75904083251953,1,-10.910034,10.925293,1,-9.689331,4.6844482,1,-5.9661865,3.2348633,1
368,7.2021484,23.391724,1,0.22888184,19.28711,1,3.43394374847412,7.72304534912109,1,-11.199951,11.016846,1,-10.223389,4.837036,1,-6.6223145,3.2196045,1
369,7.0648193,23.483276,1,0.1373291,19.27185,1,3.12946486473083,7.65087413787842,1,-11.459351,11.138916,1,-10.71167,4.928589,1,-7.1411133,3.326416,1
370,6.8359375,23.498535,1,0,19.27185,1,2.76936960220337,7.59578037261963,1,-11.779785,11.245728,1,-11.21521,4.9438477,1,-7.7819824,3.326416,1
371,6.713867,23.529053,1,-0.15258789,19.241333,1,2.38040494918823,7.51171398162842,1,-12.1154785,11.367798,1,-11.71875,5.0354004,1,-8.346558,3.2958984,1
372,6.5307617,23.57483,1,-0.2593994,19.27185,1,1.99332618713379,7.48519515991211,1,-12.466431,11.474609,1,-12.191772,5.0964355,1,-8.956909,3.3721924,1
373,6.3171387,23.55957,1,-0.44250488,19.256592,1,1.63836240768433,7.43838596343994,1,-12.786865,11.550903,1,-12.741089,5.1574707,1,-9.475708,3.40271,1
374,6.164551,23.55957,1,-0.5187988,19.27185,1,1.25880718231201,7.40424346923828,1,-13.1073,11.71875,1,-13.2751465,5.3100586,1,-10.08606,3.3874512,1
375,6.0272217,23.590088,1,-0.62561035,19.195557,1,0.912492752075195,7.29453849792481,1,-13.381958,11.84082,1,-13.748169,5.3710938,1,-10.650635,3.3721924,1
376,5.92041,23.55957,1,-0.64086914,19.16504,1,0.627827644348145,7.23229503631592,1,-13.549805,12.130737,1,-14.11438,5.7373047,1,-11.077881,3.540039,1
377,5.874634,23.590088,1,-0.64086914,19.195557,1,0.393054962158203,7.24018096923828,1,-13.549805,12.771606,1,-14.282227,6.3323975,1,-11.291504,3.6315918,1
378,5.7678223,23.468018,1,-0.7019043,19.195557,1,0.238316059112549,7.23244762420654,1,-13.595581,13.031006,1,-14.49585,6.6223145,1,-11.581421,3.829956,1
379,5.6152344,23.391724,1,-0.88500977,19.14978,1,-0.15132999420166,7.1722297668457,1,-13.900757,13.168335,1,-14.770508,6.8511963,1,-11.932373,3.9367676,1
380,5.41687,23.19336,1,-1.1138916,19.088745,1,-0.604111194610596,7.09957790374756,1,-14.266968,13.290405,1,-15.136719,6.9885254,1,-12.4053955,3.9520264,1
381,5.2490234,23.040771,1,-1.449585,18.981934,1,-1.0185546875,6.98967742919922,1,-14.602661,13.35144,1,-15.518188,7.1411133,1,-12.878418,3.90625,1
382,5.050659,22.888184,1,-1.6021729,18.875122,1,-1.30666732788086,6.87875938415527,1,-14.816284,13.397217,1,-15.914917,7.217407,1,-13.397217,3.8452148,1
383,4.989624,22.750854,1,-1.7547607,18.798828,1,-1.61160373687744,6.7996826171875,1,-15.014648,13.534546,1,-16.37268,7.369995,1,-14.053345,3.7841797,1
384,4.8980713,22.583008,1,-1.876831,18.692017,1,-1.88081741333008,6.6920166015625,1,-15.197754,13.595581,1,-16.89148,7.4310303,1,-14.678955,3.753662,1
385,4.8065186,22.583008,1,-1.9378662,18.737793,1,-2.01800894737244,6.73806095123291,1,-15.335083,13.641357,1,-17.364502,7.4920654,1,-15.289307,3.7994385,1
386,4.760742,22.537231,1,-1.953125,18.76831,1,-2.18610763549805,6.77057075500488,1,-15.472412,13.73291,1,-17.822266,7.5531006,1,-15.930176,3.7078857,1
387,4.699707,22.567749,1,-2.0141602,18.814087,1,-2.29173755645752,6.81729793548584,1,-15.594482,13.748169,1,-18.249512,7.6293945,1,-16.571045,3.7078857,1
388,4.6844482,22.583008,1,-2.0751953,18.859863,1,-2.36784553527832,6.86343288421631,1,-15.670776,13.793945,1,-18.692017,7.6904297,1,-17.166138,3.6621094,1
389,4.6691895,22.644043,1,-2.0751953,18.920898,1,-2.44247913360596,6.92652034759522,1,-15.762329,13.824463,1,-19.012451,7.736206,1,-17.730713,3.616333,1
390,4.760742,22.735596,1,-1.9989014,19.012451,1,-2.37998652458191,7.01850414276123,1,-15.74707,13.824463,1,-19.332886,7.7819824,1,-18.341064,3.5705566,1
391,4.852295,22.842407,1,-1.953125,19.134521,1,-2.16061878204346,7.13631534576416,1,-15.609741,13.778687,1,-19.65332,7.7819824,1,-18.951416,3.5552979,1
392,4.989624,22.857666,1,-1.7547607,19.241333,1,-1.86747169494629,7.24186229705811,1,-15.426636,13.656616,1,-19.89746,7.797241,1,-19.485474,3.5705566,1
393,5.1574707,22.93396,1,-1.5869141,19.363403,1,-1.59361743927002,7.36340522766113,1,-15.319824,13.412476,1,-20.111084,7.827759,1,-20.065308,3.5247803,1
394,5.3253174,23.07129,1,-1.3427734,19.485474,1,-1.20254516601563,7.48629188537598,1,-15.090942,13.153076,1,-20.29419,7.7667236,1,-20.614624,3.5552979,1
395,5.5236816,23.1781,1,-1.159668,19.577026,1,-0.787940979003906,7.58278465270996,1,-14.816284,12.893677,1,-20.401001,7.751465,1,-21.133423,3.5247803,1
396,5.79834,23.254395,1,-0.9613037,19.622803,1,-0.236512184143066,7.64470958709717,1,-14.419556,12.527466,1,-20.462036,7.7819824,1,-21.78955,3.479004,1
397,5.9814453,23.330688,1,-0.7171631,19.714355,1,0.346002578735352,7.7615442276001,1,-13.946533,12.313843,1,-20.233154,7.8125,1,-22.537231,3.479004,1
398,6.1950684,23.376465,1,-0.44250488,19.714355,1,0.720271587371826,7.77082443237305,1,-13.366699,12.924194,1,-19.40918,8.132935,1,-22.247314,3.6315918,1
399,6.439209,23.406982,1,-0.091552734,19.729614,1,1.1027729511261,7.7891960144043,1,-12.649536,13.778687,1,-17.868042,8.468628,1,-20.889282,3.8604736,1
400,6.7749023,23.422241,1,0.2746582,19.866943,1,1.77665448188782,7.96131420135498,1,-11.672974,14.602661,1,-15.975952,8.865356,1,-18.615723,4.058838,1
401,7.156372,23.498535,1,0.8239746,20.03479,1,2.52080059051514,8.15536499023438,1,-10.665894,15.304565,1,-13.946533,9.307861,1,-16.036987,4.2266846,1
402,7.537842,23.529053,1,1.3122559,20.126343,1,3.34427285194397,8.29964160919189,1,-9.658813,15.777588,1,-11.962891,9.552002,1,-13.473511,4.2419434,1
403,7.9345703,23.55957,1,1.7242432,20.263672,1,4.31353282928467,8.54635238647461,1,-8.682251,16.036987,1,-9.857178,9.674072,1,-10.971069,4.2266846,1
404,8.132935,23.406982,1,2.1972656,20.27893,1,5.05300807952881,8.62368488311768,1,-7.9345703,16.12854,1,-7.9803467,9.82666,1,-8.377075,4.196167,1
405,8.514404,23.422241,1,2.6397705,20.233154,1,5.85541248321533,8.67202854156494,1,-7.2631836,15.945435,1,-6.1950684,9.82666,1,-5.8135986,4.257202,1
406,8.81958,23.345947,1,3.036499,20.141602,1,6.72647142410278,8.72301483154297,1,-6.6070557,15.594482,1,-4.6844482,9.674072,1,-3.5705566,4.1656494,1
407,9.063721,23.330688,1,3.40271,20.050049,1,7.57512283325195,8.79878234863281,1,-6.0272217,15.12146,1,-3.3874512,9.307861,1,-1.663208,4.0283203,1
408,9.32312,23.361206,1,3.8452148,20.004272,1,8.66127586364746,9.01311588287354,1,-5.2948,14.511108,1,-1.9836426,8.987427,1,0.24414062,3.9520264,1
409,9.658813,23.422241,1,4.196167,19.866943,1,9.64247035980225,9.17405796051025,1,-4.623413,13.809204,1,-0.6713867,8.666992,1,2.2888184,3.9215088,1
410,9.94873,23.513794,1,4.6539307,19.77539,1,10.7873010635376,9.46123790740967,1,-3.8146973,12.893677,1,0.93078613,8.422852,1,4.3792725,4.1503906,1
411,10.269165,23.605347,1,5.0201416,19.65332,1,11.8966121673584,9.81898498535156,1,-2.9449463,11.993408,1,2.4108887,8.255005,1,6.4086914,4.547119,1
412,10.543823,23.757935,1,5.4626465,19.592285,1,13.11008644104,10.3447647094727,1,-1.876831,10.971069,1,4.043579,7.9956055,1,8.575439,5.0811768,1
413,10.83374,24.017334,1,5.844116,19.546509,1,14.5818109512329,11.3213815689087,1,-0.33569336,9.750366,1,5.783081,7.6446533,1,10.818481,5.6152344,1
414,11.0321045,24.337769,1,6.3323975,19.39392,1,15.8821067810059,12.1273498535156,1,1.3275146,8.4991455,1,7.7667236,7.30896,1,13.22937,6.378174,1
415,11.276245,24.68872,1,6.790161,19.256592,1,17.0841789245605,13.0894842147827,1,3.1738281,7.4768066,1,9.658813,7.0495605,1,15.24353,7.1258545,1
416,11.566162,25.009155,1,7.3394775,19.256592,1,18.1345825195313,14.0158157348633,1,4.989624,6.790161,1,11.505127,6.942749,1,17.028809,7.736206,1
417,11.886597,25.32959,1,7.8125,19.39392,1,18.9496726989746,14.9258842468262,1,6.591797,6.42395,1,13.137817,6.576538,1,18.52417,7.7056885,1
418,12.084961,25.634766,1,8.178711,19.53125,1,19.5300331115723,15.6392765045166,1,7.888794,6.1798096,1,14.465332,6.0577393,1,19.927979,7.1105957,1
419,12.374878,25.802612,1,8.453369,19.729614,1,19.9110984802246,16.1630401611328,1,8.895874,5.9814453,1,15.396118,5.4016113,1,21.04187,6.0577393,1
420,12.72583,25.772095,1,8.69751,19.729614,1,20.164529800415,16.1930255889893,1,9.277344,5.874634,1,15.731812,4.3945312,1,21.377563,4.6691895,1
421,13.015747,25.543213,1,8.895874,19.577026,1,20.2363929748535,15.6536836624146,1,8.94165,5.783081,1,15.304565,3.9520264,1,20.874023,3.8604736,1
422,13.412476,25.115967,1,8.987427,19.317627,1,20.1458969116211,14.9030485153198,1,8.331299,5.6610107,1,14.526367,3.540039,1,19.989014,3.753662,1
423,13.702393,24.734497,1,9.109497,19.02771,1,20.1482734680176,14.321813583374,1,7.8582764,5.722046,1,13.931274,3.40271,1,19.348145,3.6621094,1
424,14.022827,24.520874,1,9.246826,18.936157,1,20.082088470459,13.778920173645,1,7.3242188,5.8898926,1,13.320923,3.463745,1,18.661499,3.6621094,1
425,14.328003,24.475098,1,9.277344,18.90564,1,19.9160766601563,13.3543014526367,1,6.8359375,6.011963,1,12.741089,3.4484863,1,18.005371,3.6468506,1
426,14.49585,24.383545,1,9.231567,18.936157,1,19.6695404052734,13.0159645080566,1,6.2408447,6.3323975,1,12.054443,3.5095215,1,17.410278,3.6010742,1
427,14.633179,24.353027,1,9.277344,18.997192,1,19.4473495483398,12.6276578903198,1,5.722046,6.576538,1,11.413574,3.5247803,1,16.723633,3.5552979,1
428,14.801025,24.291992,1,9.277344,19.012451,1,19.1839447021484,12.2405033111572,1,5.203247,6.80542,1,10.772705,3.5095215,1,16.082764,3.463745,1
429,14.907837,24.291992,1,9.277344,19.042969,1,18.9020175933838,11.8759841918945,1,4.699707,7.0495605,1,10.147095,3.5705566,1,15.441895,3.4179688,1
430,14.953613,24.215698,1,9.262085,19.042969,1,18.5832939147949,11.4855155944824,1,4.180908,7.293701,1,9.567261,3.5552979,1,14.724731,3.40271,1
431,14.9383545,24.18518,1,9.231567,19.02771,1,18.2435340881348,11.1040449142456,1,3.6773682,7.522583,1,8.911133,3.616333,1,14.160156,3.3874512,1
432,14.968872,24.093628,1,9.0789795,19.012451,1,17.8096542358398,10.7798728942871,1,3.1280518,7.7056885,1,8.270264,3.692627,1,13.519287,3.3111572,1
433,14.907837,24.002075,1,8.987427,18.981934,1,17.405122756958,10.4296016693115,1,2.6245117,7.873535,1,7.7209473,3.692627,1,12.817383,3.2653809,1
434,14.877319,23.925781,1,8.834839,18.951416,1,17.0012817382813,10.1588497161865,1,2.1514893,8.041382,1,7.0648193,3.768921,1,12.161255,3.2348633,1
435,14.755249,23.880005,1,8.621216,18.920898,1,16.5569953918457,9.91959953308106,1,1.6479492,8.270264,1,6.4849854,3.8146973,1,11.581421,3.2653809,1
436,14.61792,23.880005,1,8.514404,18.90564,1,16.1021480560303,9.60907363891602,1,1.1444092,8.483887,1,5.92041,3.8757324,1,10.910034,3.2348633,1
437,14.556885,23.81897,1,8.361816,18.920898,1,15.6700439453125,9.40303039550781,1,0.6866455,8.69751,1,5.279541,3.9978027,1,10.299683,3.2348633,1
438,14.465332,23.757935,1,8.117676,18.936157,1,15.2242946624756,9.26682662963867,1,0.22888184,8.895874,1,4.7302246,3.982544,1,9.613037,3.2653809,1
439,14.266968,23.773193,1,7.949829,18.966675,1,14.7863216400146,9.10450553894043,1,-0.21362305,9.063721,1,4.119873,4.0740967,1,8.94165,3.3111572,1
440,14.0686035,23.68164,1,7.7667236,18.951416,1,14.2637548446655,8.86238288879395,1,-0.7324219,9.20105,1,3.4942627,4.1046143,1,8.361816,3.2806396,1
441,13.931274,23.68164,1,7.583618,18.90564,1,13.7926797866821,8.63687324523926,1,-1.1901855,9.353638,1,2.9144287,4.180908,1,7.6446533,3.2958984,1
442,13.626099,23.651123,1,7.2784424,18.844604,1,13.3313179016113,8.48300647735596,1,-1.6326904,9.521484,1,2.3345947,4.2266846,1,7.019043,3.2958984,1
443,13.366699,23.635864,1,6.958008,18.814087,1,12.832013130188,8.3500509262085,1,-2.1209717,9.536743,1,1.6937256,4.2877197,1,6.4086914,3.2806396,1
444,13.1073,23.529053,1,6.652832,18.76831,1,12.3606128692627,8.21268463134766,1,-2.5634766,9.719849,1,1.159668,4.3029785,1,5.783081,3.3111572,1
445,12.786865,23.513794,1,6.3934326,18.722534,1,11.8974170684814,8.05922508239746,1,-2.9907227,9.887695,1,0.5493164,4.425049,1,5.1574707,3.326416,1
446,12.496948,23.498535,1,6.0577393,18.722534,1,11.4729518890381,8.01387119293213,1,-3.3874512,10.055542,1,-0.015258789,4.486084,1,4.5318604,3.3721924,1
447,12.207031,23.422241,1,5.92041,18.661499,1,10.974326133728,7.77766132354736,1,-3.829956,10.192871,1,-0.579834,4.547119,1,3.90625,3.4484863,1
448,11.947632,23.483276,1,5.6762695,18.692017,1,10.5605182647705,7.73099040985107,1,-4.196167,10.421753,1,-1.2054443,4.623413,1,3.2958984,3.479004,1
449,11.779785,23.468018,1,5.41687,18.707275,1,10.1461515426636,7.67850112915039,1,-4.5776367,10.543823,1,-1.7547607,4.714966,1,2.670288,3.463745,1
450,11.566162,23.406982,1,5.2337646,18.76831,1,9.7396125793457,7.64638042449951,1,-4.9438477,10.71167,1,-2.2735596,4.714966,1,2.1209717,3.463745,1
451,11.383057,23.284912,1,4.974365,18.753052,1,9.32724189758301,7.57036590576172,1,-5.3100586,10.848999,1,-2.7618408,4.776001,1,1.4343262,3.479004,1
452,11.184692,23.269653,1,4.776001,18.707275,1,8.89785194396973,7.4373893737793,1,-5.6762695,10.986328,1,-3.3569336,4.8675537,1,0.8544922,3.5095215,1
453,11.077881,23.147583,1,4.638672,18.692017,1,8.4458646774292,7.31197738647461,1,-6.0577393,11.138916,1,-3.9367676,4.928589,1,0.19836426,3.4942627,1
454,10.986328,23.101807,1,4.486084,18.753052,1,8.05896472930908,7.297287940979,1,-6.378174,11.367798,1,-4.470825,5.004883,1,-0.33569336,3.4942627,1
455,10.879517,23.07129,1,4.348755,18.78357,1,7.7187294960022,7.26648235321045,1,-6.6833496,11.459351,1,-4.989624,5.0964355,1,-0.9460449,3.5552979,1
456,10.757446,23.086548,1,4.2419434,18.814087,1,7.44024181365967,7.24815082550049,1,-6.8969727,11.657715,1,-5.4626465,5.1574707,1,-1.5411377,3.6010742,1
457,10.665894,23.05603,1,4.1046143,18.875122,1,7.05448532104492,7.24334239959717,1,-7.247925,11.764526,1,-5.9814453,5.264282,1,-2.166748,3.6010742,1
458,10.5896,23.101807,1,4.043579,18.951416,1,6.83483028411865,7.28055763244629,1,-7.4005127,12.008667,1,-6.454468,5.4016113,1,-2.6855469,3.616333,1
459,10.574341,23.117065,1,3.982544,19.012451,1,6.53550910949707,7.28716468811035,1,-7.6293945,12.22229,1,-6.9122314,5.5236816,1,-3.2348633,3.6621094,1
460,10.543823,23.147583,1,3.90625,19.104004,1,6.32251739501953,7.3497838973999,1,-7.7667236,12.496948,1,-7.3394775,5.7678223,1,-3.753662,3.692627,1
461,10.574341,23.223877,1,3.9520264,19.241333,1,6.15622425079346,7.44550609588623,1,-7.8430176,12.832642,1,-7.751465,6.1035156,1,-4.211426,3.8604736,1
462,10.650635,23.31543,1,4.043579,19.40918,1,6.04229021072388,7.57680225372314,1,-7.888794,13.137817,1,-8.010864,6.378174,1,-4.6539307,3.982544,1
463,10.772705,23.391724,1,4.1656494,19.577026,1,5.92243766784668,7.70631790161133,1,-7.949829,13.412476,1,-8.43811,6.6375732,1,-5.1574707,3.9978027,1
464,10.940552,23.544312,1,4.3182373,19.760132,1,5.86322212219238,7.86000442504883,1,-7.965088,13.671875,1,-8.728027,6.8511963,1,-5.645752,4.0283203,1
465,11.016846,23.635864,1,4.3945312,19.943237,1,5.84534072875977,8.0312614440918,1,-7.965088,13.885498,1,-9.094238,7.019043,1,-6.011963,4.0740967,1
466,11.199951,23.80371,1,4.5776367,20.095825,1,5.7904806137085,8.1572732925415,1,-7.9956055,14.0686035,1,-9.338379,7.2021484,1,-6.515503,4.0740967,1
467,11.367798,23.956299,1,4.714966,20.339966,1,5.91139078140259,8.39975833892822,1,-7.9193115,14.205933,1,-9.674072,7.3242188,1,-7.019043,4.0893555,1
468,11.535645,24.093628,1,4.8980713,20.53833,1,6.03221225738525,8.59204483032227,1,-7.827759,14.328003,1,-9.994507,7.507324,1,-7.537842,4.0740967,1
469,11.703491,24.276733,1,5.065918,20.767212,1,6.13452339172363,8.81488704681397,1,-7.7667236,14.450073,1,-10.269165,7.6141357,1,-8.087158,4.0283203,1
470,11.917114,24.475098,1,5.203247,21.04187,1,6.33050012588501,9.09493350982666,1,-7.675171,14.465332,1,-10.604858,7.7667236,1,-8.590698,4.0130615,1
471,12.039185,24.627686,1,5.3863525,21.255493,1,6.47429513931274,9.30491065979004,1,-7.598877,14.49585,1,-10.894775,7.7819824,1,-9.109497,3.9978027,1
472,12.22229,24.871826,1,5.5999756,21.514893,1,6.7796893119812,9.57302093505859,1,-7.4157715,14.419556,1,-11.154175,7.888794,1,-9.643555,3.9978027,1
473,12.466431,25.100708,1,5.79834,21.80481,1,7.13442945480347,9.87942218780518,1,-7.171631,14.389038,1,-11.33728,7.9956055,1,-10.20813,4.0283203,1
474,12.634277,25.32959,1,5.9509277,22.04895,1,7.56857776641846,10.1584825515747,1,-6.866455,14.23645,1,-11.505127,8.071899,1,-10.7421875,3.9672852,1
475,12.893677,25.543213,1,6.2408447,22.216797,1,8.03182029724121,10.3512001037598,1,-6.500244,14.0686035,1,-11.489868,8.224487,1,-11.199951,4.0130615,1
476,13.076782,25.604248,1,6.5307617,22.354126,1,8.70100975036621,10.5520057678223,1,-5.92041,13.900757,1,-11.383057,8.377075,1,-11.566162,4.0130615,1
477,13.320923,25.802612,1,6.8359375,22.338867,1,9.47154808044434,10.6318798065186,1,-5.0964355,14.205933,1,-10.650635,8.773804,1,-11.474609,4.2419434,1
478,13.595581,25.878906,1,7.2784424,22.384644,1,10.2134761810303,10.7491140365601,1,-4.135132,15.12146,1,-9.246826,9.384155,1,-10.971069,4.425049,1
479,13.946533,25.83313,1,7.827759,22.55249,1,10.9453544616699,10.9645385742188,1,-3.1433105,16.113281,1,-7.232666,9.750366,1,-9.597778,4.6844482,1
480,14.297485,25.924683,1,8.300781,22.766113,1,11.8301219940186,11.2968606948853,1,-2.0751953,16.921997,1,-5.065918,10.131836,1,-6.9885254,4.928589,1
481,14.6484375,25.909424,1,8.850098,23.040771,1,12.585168838501,11.6368560791016,1,-1.2207031,17.501831,1,-2.7770996,10.528564,1,-3.753662,5.065918,1
482,15.060425,25.9552,1,9.338379,23.101807,1,13.381911277771,11.8035840988159,1,-0.35095215,17.837524,1,-0.50354004,10.955811,1,-0.38146973,5.2948,1
483,15.335083,25.985718,1,9.82666,23.147583,1,14.2426805496216,11.9896831512451,1,0.44250488,17.868042,1,1.5869141,11.306763,1,2.5177002,5.6610107,1
484,15.762329,25.924683,1,10.192871,23.132324,1,15.0907440185547,12.17737865448,1,1.1749268,17.77649,1,3.3721924,11.642456,1,5.1574707,6.164551,1
485,16.021729,25.924683,1,10.665894,23.010254,1,15.9086599349976,12.2161169052124,1,1.8310547,17.39502,1,4.852295,11.535645,1,7.1258545,6.3934326,1
486,16.26587,25.909424,1,11.016846,22.842407,1,16.9542465209961,12.4142112731934,1,2.532959,16.540527,1,6.2713623,11.184692,1,9.094238,6.3323975,1
487,16.464233,25.939941,1,11.276245,22.567749,1,18.0471458435059,12.6604318618774,1,3.2958984,15.380859,1,7.751465,10.574341,1,11.260986,6.286621,1
488,16.647339,25.970459,1,11.59668,22.216797,1,19.2331581115723,12.9602193832397,1,4.257202,13.809204,1,9.506226,9.811401,1,13.824463,6.3476562,1
489,16.845703,26.016235,1,11.84082,21.80481,1,20.4049682617187,13.3991327285767,1,5.4626465,12.084961,1,11.3220215,9.0789795,1,16.311646,6.6223145,1
490,16.952515,26.062012,1,12.176514,21.392822,1,21.5139427185059,13.8554191589355,1,6.9122314,10.421753,1,13.153076,8.392334,1,18.600464,7.217407,1
491,17.028809,26.062012,1,12.451172,20.980835,1,22.4437713623047,14.3364419937134,1,8.453369,8.926392,1,14.953613,7.6446533,1,20.553589,7.5683594,1
492,17.13562,26.016235,1,12.741089,20.614624,1,23.2308578491211,14.786696434021,1,10.040283,7.6446533,1,16.555786,7.003784,1,22.232056,7.6904297,1
493,17.13562,25.9552,1,12.908936,20.339966,1,23.8046569824219,15.3117218017578,1,11.428833,6.8359375,1,17.807007,6.286621,1,23.4375,7.1258545,1
494,17.196655,25.863647,1,13.000488,20.111084,1,24.0791244506836,15.4998092651367,1,12.313843,6.1950684,1,18.64624,5.3253174,1,24.18518,6.072998,1
495,17.166138,25.665283,1,13.031006,19.866943,1,24.1809539794922,15.4308815002441,1,12.6953125,5.783081,1,18.89038,4.3640137,1,24.32251,4.8065186,1
496,17.166138,25.344849,1,13.000488,19.607544,1,24.0466384887695,14.9189901351929,1,12.329102,5.554199,1,18.356323,3.8146973,1,23.742676,3.8757324,1
497,17.150879,24.932861,1,12.771606,19.210815,1,23.6882286071777,14.2281055450439,1,11.627197,5.3100586,1,17.532349,3.479004,1,22.979736,3.6010742,1
498,17.089844,24.536133,1,12.588501,18.89038,1,23.4234886169434,13.7325658798218,1,11.0321045,5.279541,1,16.845703,3.3874512,1,22.277832,3.5858154,1
499,17.074585,24.20044,1,12.390137,18.615723,1,23.1302394866943,13.2631349563599,1,10.421753,5.2948,1,16.26587,3.2348633,1,21.591187,3.5247803,1
500,16.921997,23.94104,1,12.176514,18.432617,1,22.8235626220703,12.8972454071045,1,9.857178,5.355835,1,15.563965,3.2348633,1,20.889282,3.540039,1
501,16.815186,23.6969,1,12.039185,18.203735,1,22.5109100341797,12.343451499939,1,9.262085,5.3100586,1,14.923096,3.1433105,1,20.29419,3.5552979,1
502,16.693115,23.376465,1,11.795044,17.990112,1,22.1298446655273,11.8915967941284,1,8.621216,5.3710938,1,14.266968,3.1738281,1,19.607544,3.5247803,1
503,16.555786,23.086548,1,11.520386,17.77649,1,21.7240104675293,11.4609489440918,1,7.9956055,5.41687,1,13.580322,3.112793,1,18.951416,3.4942627,1
504,16.37268,22.81189,1,11.276245,17.547607,1,21.3263320922852,10.9904937744141,1,7.369995,5.493164,1,12.939453,3.1280518,1,18.28003,3.4484863,1
505,16.281128,22.567749,1,11.047363,17.318726,1,20.9211616516113,10.4990386962891,1,6.7596436,5.554199,1,12.298584,3.0975342,1,17.623901,3.4942627,1
506,16.098022,22.30835,1,10.818481,17.166138,1,20.4925842285156,10.0660190582275,1,6.149292,5.6762695,1,11.672974,3.0670166,1,17.044067,3.4179688,1
507,16.082764,22.262573,1,10.574341,17.105103,1,20.0756549835205,9.77536487579346,1,5.5999756,5.844116,1,11.016846,3.0670166,1,16.357422,3.3721924,1
508,15.991211,22.140503,1,10.360718,17.059326,1,19.6186447143555,9.42448616027832,1,5.004883,6.0424805,1,10.345459,3.1433105,1,15.625,3.3721924,1
509,15.853882,22.140503,1,10.1623535,17.059326,1,19.203540802002,9.16902160644531,1,4.486084,6.2713623,1,9.750366,3.2348633,1,14.968872,3.3111572,1
510,15.808105,22.140503,1,9.94873,17.181396,1,18.7357177734375,9.00895118713379,1,3.9367676,6.5612793,1,9.140015,3.3111572,1,14.343262,3.3721924,1
511,15.716553,22.216797,1,9.796143,17.227173,1,18.3064231872559,8.76696586608887,1,3.4332275,6.8206787,1,8.483887,3.3416748,1,13.702393,3.3111572,1
512,15.686035,22.247314,1,9.613037,17.39502,1,17.8428039550781,8.66169548034668,1,2.9296875,7.0495605,1,7.949829,3.4484863,1,13.015747,3.3111572,1
513,15.625,22.232056,1,9.475708,17.425537,1,17.4259262084961,8.43698692321777,1,2.4719238,7.2631836,1,7.293701,3.4942627,1,12.374878,3.3111572,1
514,15.487671,22.262573,1,9.292603,17.51709,1,16.9478816986084,8.27605628967285,1,1.9683838,7.4920654,1,6.713867,3.540039,1,11.734009,3.2958984,1
515,15.304565,22.323608,1,9.033203,17.608643,1,16.4573135375977,8.18088722229004,1,1.4648438,7.7056885,1,6.149292,3.6010742,1,11.09314,3.2348633,1
516,15.075684,22.338867,1,8.81958,17.63916,1,15.9455165863037,7.98405742645264,1,0.9460449,7.8582764,1,5.508423,3.692627,1,10.391235,3.189087,1
517,14.831543,22.369385,1,8.575439,17.63916,1,15.4721546173096,7.81901168823242,1,0.47302246,7.9803467,1,4.8675537,3.692627,1,9.735107,3.2196045,1
518,14.572144,22.354126,1,8.255005,17.684937,1,14.9482507705688,7.72499561309814,1,-0.045776367,8.148193,1,4.3182373,3.753662,1,9.140015,3.189087,1
519,14.205933,22.415161,1,7.8430176,17.684937,1,14.3740968704224,7.61791038513184,1,-0.61035156,8.300781,1,3.7078857,3.8146973,1,8.422852,3.1738281,1
520,13.870239,22.43042,1,7.5531006,17.745972,1,13.8626594543457,7.53864622116089,1,-1.1138916,8.377075,1,3.036499,3.8452148,1,7.797241,3.112793,1
521,13.473511,22.491455,1,7.019043,17.822266,1,13.3219804763794,7.61085081100464,1,-1.6479492,8.560181,1,2.456665,3.90625,1,7.171631,3.189087,1
522,13.015747,22.55249,1,6.515503,17.852783,1,12.7346000671387,7.59009170532227,1,-2.2277832,8.651733,1,1.8463135,3.9520264,1,6.439209,3.189087,1
523,12.481689,22.628784,1,6.072998,17.944336,1,12.0697717666626,7.55016899108887,1,-2.8839111,8.728027,1,1.1901855,3.90625,1,5.9051514,3.189087,1
524,11.917114,22.67456,1,5.508423,17.929077,1,11.612117767334,7.59733486175537,1,-3.3416748,8.773804,1,0.50354004,3.9367676,1,5.1879883,3.189087,1
525,11.413574,22.68982,1,4.928589,18.051147,1,11.0015430450439,7.70130443572998,1,-3.9520264,8.880615,1,-0.10681152,3.982544,1,4.5318604,3.112793,1
526,10.925293,22.68982,1,4.40979,18.066406,1,10.4000434875488,7.66847991943359,1,-4.547119,8.926392,1,-0.8087158,3.9367676,1,3.829956,3.112793,1
527,10.391235,22.735596,1,3.8604736,18.096924,1,9.84799003601074,7.69742202758789,1,-5.0964355,8.987427,1,-1.3885498,3.982544,1,3.2196045,3.1280518,1
528,9.933472,22.705078,1,3.326416,18.096924,1,9.26141738891602,7.66736125946045,1,-5.6762695,9.033203,1,-2.105713,3.9978027,1,2.5634766,3.0975342,1
529,9.429932,22.705078,1,2.8686523,18.066406,1,8.677978515625,7.56632423400879,1,-6.2408447,9.124756,1,-2.7008057,4.0283203,1,1.9226074,3.0975342,1
530,8.94165,22.67456,1,2.3040771,18.02063,1,8.10470771789551,7.51574230194092,1,-6.80542,9.155273,1,-3.326416,4.043579,1,1.2512207,3.1433105,1
531,8.361816,22.567749,1,1.7852783,18.035889,1,7.58046531677246,7.52799510955811,1,-7.3242188,9.216309,1,-3.9215088,4.058838,1,0.6866455,3.112793,1
532,7.9345703,22.491455,1,1.3885498,17.929077,1,7.03538084030151,7.34072113037109,1,-7.8430176,9.246826,1,-4.5318604,4.0740967,1,0.045776367,3.1280518,1
533,7.4310303,22.491455,1,0.93078613,17.89856,1,6.47780323028564,7.25757312774658,1,-8.361816,9.44519,1,-5.142212,4.1046143,1,-0.579834,3.189087,1
534,7.0495605,22.445679,1,0.5493164,17.89856,1,5.97044467926025,7.19289016723633,1,-8.850098,9.506226,1,-5.706787,4.180908,1,-1.1901855,3.2196045,1
535,6.652832,22.399902,1,0.1373291,17.8833,1,5.40626049041748,7.10191154479981,1,-9.3688965,9.689331,1,-6.2713623,4.2419434,1,-1.8920898,3.2653809,1
536,6.2713623,22.384644,1,-0.21362305,17.8833,1,4.89298915863037,7.02408695220947,1,-9.857178,9.750366,1,-6.8511963,4.3029785,1,-2.4719238,3.2806396,1
537,5.9051514,22.30835,1,-0.6866455,17.89856,1,4.37121105194092,7.01655197143555,1,-10.345459,9.918213,1,-7.4768066,4.3029785,1,-3.1280518,3.2958984,1
538,5.5389404,22.216797,1,-1.0986328,17.868042,1,3.80773043632507,6.91689491271973,1,-10.879517,9.963989,1,-8.071899,4.3182373,1,-3.7384033,3.2958984,1
539,5.1116943,22.125244,1,-1.5106201,17.852783,1,3.22267198562622,6.82572841644287,1,-11.428833,10.040283,1,-8.682251,4.3792725,1,-4.3945312,3.3111572,1
540,4.699707,22.003174,1,-1.9836426,17.822266,1,2.76237392425537,6.80068016052246,1,-11.856079,10.1623535,1,-9.262085,4.425049,1,-4.989624,3.2958984,1
541,4.3792725,21.957397,1,-2.319336,17.730713,1,2.259192943573,6.63850402832031,1,-12.298584,10.253906,1,-9.872437,4.4555664,1,-5.630493,3.3111572,1
542,4.0130615,21.835327,1,-2.6397705,17.700195,1,1.66466522216797,6.49877452850342,1,-12.817383,10.406494,1,-10.467529,4.5166016,1,-6.225586,3.326416,1
543,3.7078857,21.774292,1,-2.9449463,17.654419,1,1.22212648391724,6.40117454528809,1,-13.198853,10.528564,1,-11.0321045,4.547119,1,-6.8969727,3.326416,1
544,3.4179688,21.713257,1,-3.2348633,17.63916,1,0.767574310302734,6.32631492614746,1,-13.595581,10.650635,1,-11.581421,4.6081543,1,-7.522583,3.3874512,1
545,3.1433105,21.636963,1,-3.4942627,17.608643,1,0.335789680480957,6.23627662658691,1,-13.961792,10.772705,1,-12.069702,4.699707,1,-8.087158,3.3874512,1
546,2.9754639,21.591187,1,-3.7384033,17.593384,1,-0.0322508811950684,6.18004035949707,1,-14.266968,10.910034,1,-12.634277,4.8217773,1,-8.728027,3.4332275,1
547,2.822876,21.54541,1,-3.9367676,17.608643,1,-0.482819080352783,6.11646175384522,1,-14.633179,11.09314,1,-13.137817,4.8675537,1,-9.262085,3.4332275,1
548,2.670288,21.499634,1,-4.058838,17.654419,1,-0.828741550445557,6.09732151031494,1,-14.923096,11.230469,1,-13.656616,5.050659,1,-9.857178,3.5095215,1
549,2.609253,21.484375,1,-4.1503906,17.715454,1,-1.17405986785889,6.09041881561279,1,-15.197754,11.413574,1,-14.144897,5.0964355,1,-10.437012,3.4942627,1
550,2.6245117,21.438599,1,-4.2877197,17.730713,1,-1.48832654953003,6.06180572509766,1,-15.441895,11.566162,1,-14.633179,5.2490234,1,-10.986328,3.5247803,1
551,2.5634766,21.42334,1,-4.3182373,17.700195,1,-1.87600374221802,5.95134449005127,1,-15.716553,11.734009,1,-15.136719,5.3253174,1,-11.505127,3.5247803,1
552,2.532959,21.362305,1,-4.3640137,17.745972,1,-2.20919227600098,5.94102478027344,1,-15.960693,11.932373,1,-15.563965,5.493164,1,-12.10022,3.5705566,1
553,2.5482178,21.316528,1,-4.3182373,17.745972,1,-2.42748069763184,5.89586353302002,1,-16.098022,12.069702,1,-15.991211,5.5999756,1,-12.634277,3.6315918,1
554,2.6855469,21.331787,1,-4.196167,17.807007,1,-2.68853664398193,5.90209007263184,1,-16.220093,12.374878,1,-16.418457,5.8288574,1,-13.137817,3.6621094,1
555,2.7770996,21.331787,1,-4.119873,17.868042,1,-2.92534780502319,5.92764377593994,1,-16.296387,12.72583,1,-16.76941,6.149292,1,-13.534546,3.768921,1
556,2.9144287,21.316528,1,-3.982544,17.990112,1,-3.14869070053101,6.019118309021,1,-16.448975,12.954712,1,-17.181396,6.286621,1,-14.038086,3.8146973,1
557,2.9449463,21.362305,1,-3.9520264,18.066406,1,-3.34866428375244,6.08158588409424,1,-16.601562,13.1073,1,-17.593384,6.4849854,1,-14.572144,3.768921,1
558,3.1280518,21.469116,1,-3.8146973,18.203735,1,-3.52369117736816,6.20726299285889,1,-16.75415,13.2751465,1,-17.990112,6.729126,1,-15.014648,3.8604736,1
559,3.2196045,21.621704,1,-3.6621094,18.371582,1,-3.56404757499695,6.37198352813721,1,-16.784668,13.458252,1,-18.325806,6.9122314,1,-15.50293,3.8452148,1
560,3.40271,21.759033,1,-3.463745,18.569946,1,-3.54683303833008,6.57023429870606,1,-16.799927,13.595581,1,-18.615723,7.080078,1,-15.975952,3.8452148,1
561,3.6010742,21.957397,1,-3.2653809,18.753052,1,-3.49913501739502,6.75532817840576,1,-16.76941,13.748169,1,-18.875122,7.171631,1,-16.418457,3.829956,1
562,3.8757324,22.140503,1,-3.036499,18.966675,1,-3.29059505462646,6.9693660736084,1,-16.616821,13.85498,1,-19.088745,7.3394775,1,-16.921997,3.829956,1
563,4.1656494,22.29309,1,-2.7923584,19.210815,1,-2.9770655632019,7.21223831176758,1,-16.418457,13.870239,1,-19.363403,7.522583,1,-17.425537,3.7841797,1
564,4.4403076,22.521973,1,-2.532959,19.470215,1,-2.66886568069458,7.47098445892334,1,-16.235352,13.870239,1,-19.500732,7.6446533,1,-17.959595,3.692627,1
565,4.7302246,22.766113,1,-2.2735596,19.729614,1,-2.2157096862793,7.7297534942627,1,-15.914917,13.839722,1,-19.638062,7.736206,1,-18.508911,3.6468506,1
566,5.0811768,23.010254,1,-1.9226074,20.019531,1,-1.61408519744873,8.02349853515625,1,-15.472412,13.763428,1,-19.592285,7.8125,1,-18.966675,3.5705566,1
567,5.41687,23.208618,1,-1.5411377,20.17212,1,-0.750593662261963,8.19818687438965,1,-14.73999,13.61084,1,-19.470215,7.888794,1,-19.378662,3.5858154,1
568,5.8288574,23.406982,1,-1.1444092,20.29419,1,0.314600467681885,8.38321590423584,1,-13.778687,13.519287,1,-18.875122,7.9956055,1,-19.424438,3.692627,1
569,6.286621,23.57483,1,-0.5187988,20.41626,1,1.34566402435303,8.56198596954346,1,-12.619019,14.038086,1,-17.745972,8.377075,1,-19.577026,3.692627,1
570,6.6833496,23.6969,1,0.061035156,20.568848,1,2.2064950466156,8.7621955871582,1,-11.550903,14.73999,1,-16.021729,8.804321,1,-18.630981,3.90625,1
571,7.156372,23.788452,1,0.579834,20.78247,1,3.13826680183411,9.05837440490723,1,-10.513306,15.274048,1,-14.0686035,8.94165,1,-16.418457,3.9520264,1
572,7.675171,23.880005,1,1.1291504,20.935059,1,4.10417556762695,9.30968856811523,1,-9.536743,15.548706,1,-11.901855,8.956909,1,-13.549805,3.6468506,1
573,8.010864,23.925781,1,1.6784668,20.980835,1,4.87573194503784,9.41461181640625,1,-8.743286,15.701294,1,-9.613037,8.926392,1,-10.498047,3.3569336,1
574,8.468628,23.925781,1,2.090454,20.889282,1,5.70478343963623,9.44652938842773,1,-7.949829,15.655518,1,-7.6446533,8.972168,1,-7.736206,3.2958984,1
575,8.7890625,23.94104,1,2.5939941,20.843506,1,6.5560474395752,9.51645278930664,1,-7.217407,15.457153,1,-5.92041,8.987427,1,-5.264282,3.4942627,1
576,9.216309,23.94104,1,2.960205,20.751953,1,7.40632009506226,9.6060094833374,1,-6.5307617,15.151978,1,-4.486084,9.033203,1,-3.0975342,3.616333,1
577,9.460449,23.986816,1,3.463745,20.6604,1,8.19260025024414,9.63144111633301,1,-5.9051514,14.755249,1,-3.036499,8.926392,1,-1.1444092,3.6621094,1
578,9.887695,24.047852,1,3.8604736,20.492554,1,9.08727264404297,9.690673828125,1,-5.264282,14.053345,1,-1.6784668,8.636475,1,0.6713867,3.6315918,1
579,10.08606,24.124146,1,4.211426,20.324707,1,10.0912399291992,9.86393451690674,1,-4.501343,13.336182,1,-0.2746582,8.346558,1,2.4108887,3.6468506,1
580,10.391235,24.18518,1,4.6539307,20.17212,1,11.0902290344238,10.0442342758179,1,-3.7078857,12.496948,1,1.0986328,8.087158,1,4.257202,3.768921,1
581,10.71167,24.337769,1,5.0201416,20.065308,1,12.135871887207,10.4026803970337,1,-2.8076172,11.703491,1,2.5482178,7.888794,1,6.1950684,3.9672852,1
582,10.894775,24.490356,1,5.355835,20.03479,1,13.2595176696777,11.0052947998047,1,-1.739502,10.83374,1,4.119873,7.797241,1,8.300781,4.501343,1
583,11.138916,24.795532,1,5.722046,20.019531,1,14.3520345687866,11.681468963623,1,-0.5493164,9.963989,1,5.5999756,7.6141357,1,10.437012,5.218506,1
584,11.383057,25.08545,1,6.1187744,19.989014,1,15.4370422363281,12.4279384613037,1,0.8087158,9.109497,1,7.217407,7.4157715,1,12.435913,5.8135986,1
585,11.535645,25.421143,1,6.515503,20.004272,1,16.4644451141357,13.2946853637695,1,2.3040771,8.346558,1,8.712769,7.293701,1,14.251709,6.378174,1
586,11.825562,25.726318,1,6.8511963,20.126343,1,17.3654937744141,14.3427848815918,1,3.90625,7.7209473,1,10.3302,7.003784,1,15.914917,6.7749023,1
587,12.069702,25.985718,1,7.1411133,20.324707,1,18.0653839111328,15.358793258667,1,5.4473877,7.247925,1,11.84082,6.6375732,1,17.440796,6.9732666,1
588,12.283325,26.184082,1,7.4310303,20.41626,1,18.6475524902344,16.151330947876,1,6.7596436,7.003784,1,13.153076,6.2561035,1,18.692017,6.7596436,1
589,12.451172,26.33667,1,7.6446533,20.568848,1,18.9929370880127,16.6680183410645,1,7.598877,6.9122314,1,13.870239,5.6762695,1,19.439697,6.1187744,1
590,12.664795,26.260376,1,7.7667236,20.568848,1,19.1450061798096,16.7564105987549,1,7.9345703,6.790161,1,14.007568,4.8675537,1,19.515991,4.8828125,1
591,12.8479,26.153564,1,7.797241,20.431519,1,19.0647315979004,16.3031234741211,1,7.8582764,6.3323975,1,13.626099,3.9978027,1,18.951416,3.3874512,1
592,13.031006,25.817871,1,7.8582764,20.141602,1,18.8542308807373,15.3365039825439,1,7.1411133,5.9661865,1,12.786865,3.4332275,1,18.035889,3.3111572,1
593,12.9852295,25.497437,1,7.7667236,19.836426,1,18.6861171722412,14.8597946166992,1,6.6070557,5.9661865,1,12.1154785,3.2958984,1,17.303467,3.2196045,1
594,12.969971,25.161743,1,7.6446533,19.515991,1,18.4948215484619,14.3901882171631,1,6.0424805,6.0272217,1,11.459351,3.250122,1,16.586304,3.1738281,1
595,12.969971,24.82605,1,7.583618,19.226074,1,18.3250045776367,13.8760604858398,1,5.5236816,6.0577393,1,10.818481,3.2196045,1,15.991211,3.1280518,1
596,12.878418,24.505615,1,7.4768066,18.951416,1,18.0773277282715,13.3274536132813,1,4.8980713,6.164551,1,10.147095,3.2806396,1,15.319824,3.1280518,1
597,12.756348,24.169922,1,7.3394775,18.615723,1,17.7811374664307,12.7020311355591,1,4.3029785,6.1187744,1,9.490967,3.2348633,1,14.6484375,3.0975342,1
598,12.588501,23.80371,1,7.080078,18.249512,1,17.4203186035156,12.1602239608765,1,3.6773682,6.149292,1,8.834839,3.189087,1,14.007568,3.0517578,1
599,12.329102,23.361206,1,6.729126,17.974854,1,16.962532043457,11.7076854705811,1,3.036499,6.134033,1,8.132935,3.1433105,1,13.397217,3.0670166,1
600,12.054443,23.086548,1,6.378174,17.669678,1,16.466495513916,11.1715431213379,1,2.3651123,6.0577393,1,7.4920654,3.0975342,1,12.756348,3.0517578,1
601,11.795044,22.827148,1,6.1035156,17.440796,1,16.0632133483887,10.7471837997437,1,1.7852783,6.149292,1,6.8511963,3.1585693,1,12.084961,3.0212402,1
602,11.550903,22.613525,1,5.7525635,17.37976,1,15.5610818862915,10.4665145874023,1,1.159668,6.2713623,1,6.1798096,3.1585693,1,11.474609,3.0670166,1
603,11.291504,22.583008,1,5.432129,17.318726,1,15.0891399383545,10.1953735351563,1,0.5950928,6.3323975,1,5.5999756,3.2043457,1,10.787964,3.0670166,1
604,10.955811,22.476196,1,5.0201416,17.318726,1,14.5669813156128,10.0483856201172,1,0.015258789,6.4086914,1,4.9591064,3.189087,1,10.131836,3.0517578,1
605,10.681152,22.476196,1,4.699707,17.333984,1,14.0671987533569,9.83397674560547,1,-0.5645752,6.5307617,1,4.348755,3.2196045,1,9.521484,3.0517578,1
606,10.299683,22.506714,1,4.3029785,17.410278,1,13.5530109405518,9.7658748626709,1,-1.1138916,6.6223145,1,3.768921,3.250122,1,8.895874,2.9907227,1
607,9.918213,22.476196,1,3.90625,17.39502,1,13.034197807312,9.60524559020996,1,-1.6784668,6.6833496,1,3.112793,3.2348633,1,8.239746,3.0059814,1
608,9.475708,22.491455,1,3.479004,17.364502,1,12.4789867401123,9.42722988128662,1,-2.2735596,6.713867,1,2.4719238,3.3111572,1,7.6141357,3.0059814,1
609,9.017944,22.491455,1,3.112793,17.333984,1,11.9601011276245,9.22688102722168,1,-2.8381348,6.7749023,1,1.8310547,3.2653809,1,6.92749,2.9907227,1
610,8.590698,22.476196,1,2.6550293,17.303467,1,11.3974514007568,9.08336639404297,1,-3.4332275,6.8359375,1,1.1749268,3.3416748,1,6.2408447,3.0212402,1
611,8.178711,22.476196,1,2.243042,17.242432,1,10.8679752349854,8.89913940429688,1,-3.9978027,6.8969727,1,0.5493164,3.2806396,1,5.6610107,2.9754639,1
612,7.736206,22.445679,1,1.8005371,17.196655,1,10.2701768875122,8.69576072692871,1,-4.623413,6.9122314,1,-0.1373291,3.2806396,1,4.9438477,2.9907227,1
613,7.3242188,22.369385,1,1.3122559,17.166138,1,9.70447158813477,8.58880043029785,1,-5.203247,6.92749,1,-0.77819824,3.2348633,1,4.272461,2.9754639,1
614,6.881714,22.338867,1,0.8087158,17.13562,1,9.12388229370117,8.483567237854,1,-5.79834,6.958008,1,-1.4190674,3.2653809,1,3.692627,2.9754639,1
615,6.5307617,22.323608,1,0.45776367,17.242432,1,8.57182216644287,8.40150260925293,1,-6.362915,7.003784,1,-2.0751953,3.2043457,1,2.9907227,2.9144287,1
616,6.164551,22.277832,1,0.10681152,17.288208,1,7.99767780303955,8.24750900268555,1,-6.958008,7.095337,1,-2.670288,3.2653809,1,2.39563,2.9144287,1
617,5.935669,22.216797,1,-0.22888184,17.25769,1,7.47101211547852,8.05379676818848,1,-7.507324,7.247925,1,-3.3569336,3.3111572,1,1.739502,2.9296875,1
618,5.6610107,22.277832,1,-0.5340576,17.39502,1,6.9603123664856,8.02301788330078,1,-8.026123,7.385254,1,-3.9215088,3.2958984,1,1.0681152,2.9754639,1
619,5.5236816,22.323608,1,-0.79345703,17.51709,1,6.51044797897339,7.99590301513672,1,-8.483887,7.583618,1,-4.486084,3.4332275,1,0.47302246,2.9754639,1
620,5.340576,22.384644,1,-1.0070801,17.669678,1,6.02735280990601,7.94770479202271,1,-8.972168,7.827759,1,-5.1574707,3.5247803,1,-0.16784668,2.9907227,1
621,5.1879883,22.415161,1,-1.1901855,17.822266,1,5.53858280181885,7.88628816604614,1,-9.460449,8.056641,1,-5.6762695,3.5705566,1,-0.7324219,3.0517578,1
622,5.0811768,22.460938,1,-1.4038086,17.89856,1,5.17988538742065,7.86586475372314,1,-9.811401,8.377075,1,-6.210327,3.7231445,1,-1.4190674,3.0059814,1
623,5.004883,22.460938,1,-1.449585,17.990112,1,4.79185962677002,7.74099636077881,1,-10.177612,8.69751,1,-6.6986084,3.7994385,1,-2.0446777,3.0822754,1
624,4.989624,22.384644,1,-1.4953613,18.081665,1,4.44254589080811,7.65375709533691,1,-10.498047,8.987427,1,-7.293701,3.9367676,1,-2.6550293,3.112793,1
625,5.065918,22.369385,1,-1.4343262,18.112183,1,4.08192777633667,7.45521545410156,1,-10.803223,9.307861,1,-7.7667236,4.0130615,1,-3.2806396,3.1433105,1
626,5.142212,22.247314,1,-1.4190674,18.1427,1,3.78481793403625,7.3297643661499,1,-11.047363,9.567261,1,-8.239746,4.196167,1,-3.8452148,3.2043457,1
627,5.3253174,22.201538,1,-1.3427734,18.173218,1,3.55808544158936,7.21960735321045,1,-11.199951,9.902954,1,-8.712769,4.3029785,1,-4.425049,3.2196045,1
628,5.493164,22.109985,1,-1.1291504,18.188477,1,3.34947276115417,7.05555629730225,1,-11.3220215,10.177612,1,-9.170532,4.40979,1,-4.9591064,3.250122,1
629,5.7373047,22.064209,1,-0.93078613,18.234253,1,3.09064507484436,6.92814445495606,1,-11.474609,10.513306,1,-9.58252,4.5166016,1,-5.5999756,3.2958984,1
630,5.9661865,21.957397,1,-0.7019043,18.234253,1,2.894282579422,6.78578472137451,1,-11.566162,10.772705,1,-10.025024,4.699707,1,-6.1798096,3.2653809,1
631,6.1798096,21.896362,1,-0.44250488,18.249512,1,2.65314793586731,6.65568065643311,1,-11.703491,11.001587,1,-10.482788,4.837036,1,-6.6833496,3.2958984,1
632,6.439209,21.820068,1,-0.21362305,18.295288,1,2.50998520851135,6.60845851898193,1,-11.779785,11.169434,1,-10.955811,4.9591064,1,-7.293701,3.3569336,1
633,6.6833496,21.820068,1,-0.076293945,18.341064,1,2.36261200904846,6.59152317047119,1,-11.825562,11.459351,1,-11.352539,5.0811768,1,-7.797241,3.40271,1
634,6.92749,21.835327,1,0.091552734,18.432617,1,2.2447772026062,6.62738037109375,1,-11.886597,11.657715,1,-11.734009,5.218506,1,-8.285522,3.4332275,1
635,7.1868896,21.881104,1,0.33569336,18.600464,1,2.20975708961487,6.74770450592041,1,-11.871338,11.917114,1,-12.054443,5.4473877,1,-8.743286,3.4942627,1
636,7.4157715,22.079468,1,0.5340576,18.78357,1,2.19215726852417,6.89867496490479,1,-11.825562,12.237549,1,-12.329102,5.859375,1,-9.140015,3.6315918,1
637,7.6141357,22.201538,1,0.8392334,19.058228,1,2.31284379959106,7.14905166625977,1,-11.611938,12.72583,1,-12.557983,6.362915,1,-9.506226,3.692627,1
638,7.9345703,22.506714,1,1.083374,19.302368,1,2.55013918876648,7.39234828948975,1,-11.33728,13.061523,1,-12.710571,6.6986084,1,-9.872437,3.768921,1
639,8.31604,22.705078,1,1.4343262,19.577026,1,2.91716337203979,7.66899585723877,1,-10.971069,13.336182,1,-12.802124,7.003784,1,-10.177612,3.7841797,1
640,8.575439,22.903442,1,1.8157959,19.805908,1,3.34983777999878,7.9043664932251,1,-10.528564,13.595581,1,-12.771606,7.293701,1,-10.635376,3.7231445,1
641,8.926392,23.223877,1,2.2735596,20.080566,1,3.99226045608521,8.20428371429443,1,-9.933472,13.778687,1,-12.6953125,7.6141357,1,-10.986328,3.6468506,1
642,9.292603,23.590088,1,2.7160645,20.370483,1,4.86088848114014,8.56371784210205,1,-9.140015,13.946533,1,-12.481689,7.8125,1,-11.444092,3.5705566,1
643,9.735107,23.925781,1,3.1585693,20.67566,1,5.99465942382813,9.01561641693115,1,-8.117676,14.099121,1,-11.978149,8.026123,1,-11.779785,3.463745,1
644,10.20813,24.20044,1,3.753662,21.026611,1,6.95251846313477,9.46082878112793,1,-7.1105957,14.678955,1,-11.062622,8.422852,1,-11.444092,3.7078857,1
645,10.696411,24.490356,1,4.3945312,21.377563,1,7.83692836761475,9.88191699981689,1,-6.1187744,15.380859,1,-9.3688965,8.880615,1,-10.879517,3.753662,1
646,11.138916,24.765015,1,4.8980713,21.78955,1,8.84101581573486,10.45583152771,1,-5.142212,15.884399,1,-7.247925,9.231567,1,-8.911133,4.0130615,1
647,11.611938,24.993896,1,5.508423,22.109985,1,9.75273895263672,10.8856468200684,1,-4.272461,16.204834,1,-5.1116943,9.44519,1,-5.8288574,4.043579,1
648,12.039185,25.177002,1,6.011963,22.232056,1,10.5998859405518,11.1437311172485,1,-3.5095215,16.235352,1,-2.960205,9.628296,1,-2.3651123,4.1046143,1
649,12.466431,25.375366,1,6.576538,22.247314,1,11.4907741546631,11.2996988296509,1,-2.7313232,16.067505,1,-1.0528564,9.70459,1,0.5340576,4.333496,1
650,12.924194,25.482178,1,7.080078,22.232056,1,12.3855743408203,11.4686136245728,1,-1.9683838,15.823364,1,0.64086914,9.796143,1,3.112793,4.6539307,1
651,13.397217,25.6958,1,7.6141357,22.18628,1,13.3168296813965,11.6279039382935,1,-1.1901855,15.441895,1,2.1820068,9.735107,1,5.142212,4.8675537,1
652,13.778687,25.83313,1,8.102417,22.17102,1,14.300877571106,11.8958511352539,1,-0.39672852,14.892578,1,3.6315918,9.628296,1,6.8969727,5.0354004,1
653,14.205933,26.062012,1,8.575439,22.079468,1,15.3591537475586,12.1809206008911,1,0.48828125,14.144897,1,5.0964355,9.44519,1,8.7890625,5.279541,1
654,14.541626,26.290894,1,9.048462,22.04895,1,16.418872833252,12.5791530609131,1,1.4343262,13.259888,1,6.6986084,9.185791,1,10.818481,5.584717,1
655,14.968872,26.535034,1,9.536743,21.942139,1,17.6882286071777,13.135703086853,1,2.7160645,12.22229,1,8.43811,8.972168,1,13.198853,6.088257,1
656,15.289307,26.794434,1,10.040283,21.850586,1,18.9491672515869,13.8111953735352,1,4.180908,11.184692,1,10.391235,8.81958,1,15.50293,6.7596436,1
657,15.655518,27.053833,1,10.574341,21.78955,1,20.208381652832,14.6351623535156,1,5.9051514,10.116577,1,12.313843,8.560181,1,17.791748,7.446289,1
658,15.899658,27.297974,1,10.986328,21.850586,1,21.3046112060547,15.7241630554199,1,7.797241,9.20105,1,14.297485,8.19397,1,19.851685,7.9956055,1
659,16.220093,27.48108,1,11.367798,21.865845,1,22.1612930297852,16.6217555999756,1,9.521484,8.544922,1,16.00647,7.6904297,1,21.68274,7.9803467,1
660,16.433716,27.618408,1,11.657715,21.942139,1,22.7020492553711,17.2493095397949,1,10.848999,8.056641,1,17.227173,7.0343018,1,22.872925,7.4005127,1
661,16.677856,27.694702,1,11.84082,21.987915,1,22.9400444030762,17.4264183044434,1,11.581421,7.6293945,1,17.77649,6.0424805,1,23.31543,6.30188,1
662,16.845703,27.58789,1,11.962891,21.865845,1,22.9211120605469,16.9753036499023,1,11.581421,7.156372,1,17.486572,4.8828125,1,23.010254,4.7454834,1
663,16.906738,27.435303,1,12.039185,21.621704,1,22.702808380127,16.1183280944824,1,11.154175,6.5460205,1,16.815186,3.8146973,1,22.125244,3.3721924,1
664,16.983032,26.992798,1,11.978149,21.16394,1,22.3697128295898,15.1626596450806,1,10.391235,6.134033,1,16.021729,3.479004,1,21.316528,3.2958984,1
665,16.89148,26.519775,1,11.932373,20.721436,1,22.1669692993164,14.4562129974365,1,9.811401,5.9509277,1,15.274048,3.2958984,1,20.599365,3.2806396,1
666,16.89148,26.09253,1,11.795044,20.27893,1,21.8882942199707,13.7884502410889,1,9.155273,5.859375,1,14.556885,3.2348633,1,19.958496,3.2196045,1
