LauraSchoenhals/autogait_trial/V3Off_Levelwalk/V3Off_Mouse304_levelwalk_Run1-6DLC-JointTracking.csv
scorer,DLC_JointTracking,DLC_JointTracking,DLC_JointTracking,DLC_JointTracking,DLC_JointTracking,DLC_JointTracking,DLC_JointTracking,DLC_JointTracking,DLC_JointTracking,DLC_JointTracking,DLC_JointTracking,DLC_JointTracking,DLC_JointTracking,DLC_JointTracking,DLC_JointTracking,DLC_JointTracking,DLC_JointTracking,DLC_JointTracking
bodyparts,Crest,Crest,Crest,Hip,Hip,Hip,Knee,Knee,Knee,Ankle,Ankle,Ankle,Metatarsal,Metatarsal,Metatarsal,ToeTip,ToeTip,ToeTip
coords,x,y,likelihood,x,y,likelihood,x,y,likelihood,x,y,likelihood,x,y,likelihood,x,y,likelihood
0,-10.864258,13.061523,1,-19.119263,10.1623535,1,-9.23639583587647,5.33235120773315,1,-15.884399,-6.9885254,1,-10.345459,-10.971069,1,-6.790161,-11.749268,1
1,-11.230469,13.153076,1,-19.485474,10.223389,1,-9.67154693603516,5.25480604171753,1,-16.433716,-7.003784,1,-10.910034,-10.940552,1,-7.369995,-11.779785,1
2,-11.627197,13.214111,1,-19.821167,10.253906,1,-10.0056657791138,5.28843307495117,1,-16.952515,-6.866455,1,-11.520386,-10.910034,1,-7.9803467,-11.749268,1
3,-11.993408,13.22937,1,-20.141602,10.345459,1,-10.3690042495728,5.29607009887695,1,-17.486572,-6.7596436,1,-12.10022,-10.925293,1,-8.590698,-11.734009,1
4,-12.298584,13.290405,1,-20.523071,10.467529,1,-10.7952117919922,5.3324761390686,1,-18.005371,-6.668091,1,-12.664795,-10.83374,1,-9.231567,-11.795044,1
5,-12.680054,13.412476,1,-20.828247,10.574341,1,-11.168309211731,5.31262826919556,1,-18.585205,-6.5612793,1,-13.35144,-10.83374,1,-9.933472,-11.71875,1
6,-12.954712,13.458252,1,-21.1792,10.71167,1,-11.5894269943237,5.32313537597656,1,-19.134521,-6.4697266,1,-13.916016,-10.787964,1,-10.528564,-11.764526,1
7,-13.2751465,13.580322,1,-21.438599,10.910034,1,-11.938307762146,5.36526536941528,1,-19.65332,-6.3171387,1,-14.526367,-10.681152,1,-11.138916,-11.779785,1
8,-13.641357,13.702393,1,-21.713257,11.077881,1,-12.2844648361206,5.41238212585449,1,-20.15686,-6.164551,1,-15.12146,-10.635376,1,-11.795044,-11.703491,1
9,-13.931274,13.885498,1,-21.987915,11.260986,1,-12.6216726303101,5.49266481399536,1,-20.599365,-6.011963,1,-15.670776,-10.559082,1,-12.374878,-11.703491,1
10,-14.251709,13.961792,1,-22.262573,11.444092,1,-12.970025062561,5.5577917098999,1,-21.072388,-5.859375,1,-16.25061,-10.513306,1,-12.969971,-11.734009,1
11,-14.465332,14.0686035,1,-22.506714,11.59668,1,-13.2945938110352,5.58528661727905,1,-21.591187,-5.6915283,1,-16.860962,-10.437012,1,-13.549805,-11.688232,1
12,-14.801025,14.175415,1,-22.781372,11.764526,1,-13.6516437530518,5.62872505187988,1,-22.033691,-5.584717,1,-17.425537,-10.360718,1,-14.205933,-11.657715,1
13,-14.99939,14.312744,1,-22.979736,11.886597,1,-13.9027700424194,5.67300701141357,1,-22.506714,-5.3710938,1,-18.051147,-10.284424,1,-14.785767,-11.688232,1
14,-15.304565,14.434814,1,-23.223877,12.10022,1,-14.2293395996094,5.76789855957031,1,-22.964478,-5.1727295,1,-18.615723,-10.238647,1,-15.380859,-11.611938,1
15,-15.457153,14.572144,1,-23.361206,12.298584,1,-14.5429735183716,5.72296476364136,1,-23.483276,-5.050659,1,-19.16504,-10.192871,1,-16.00647,-11.642456,1
16,-15.594482,14.724731,1,-23.529053,12.542725,1,-14.8496437072754,5.7849235534668,1,-23.880005,-4.91333,1,-19.760132,-10.101318,1,-16.586304,-11.657715,1
17,-15.792847,14.907837,1,-23.68164,12.710571,1,-15.099796295166,5.82929706573486,1,-24.291992,-4.7302246,1,-20.309448,-10.040283,1,-17.196655,-11.642456,1
18,-15.960693,14.9383545,1,-23.834229,12.969971,1,-15.4595127105713,5.83806133270264,1,-24.780273,-4.6081543,1,-20.812988,-9.979248,1,-17.745972,-11.611938,1
19,-16.113281,15.014648,1,-23.956299,13.1073,1,-15.6869297027588,5.85350561141968,1,-25.19226,-4.425049,1,-21.42334,-9.963989,1,-18.356323,-11.642456,1
20,-16.326904,15.029907,1,-24.093628,13.122559,1,-15.9048233032227,5.77793788909912,1,-25.619507,-4.3029785,1,-22.003174,-9.857178,1,-18.981934,-11.611938,1
21,-16.403198,15.029907,1,-24.246216,13.1073,1,-16.1211853027344,5.6921877861023,1,-26.07727,-4.1503906,1,-22.537231,-9.811401,1,-19.592285,-11.611938,1
22,-16.571045,14.984131,1,-24.383545,13.015747,1,-16.2919692993164,5.56414222717285,1,-26.489258,-4.0283203,1,-23.132324,-9.780884,1,-20.17212,-11.611938,1
23,-16.63208,14.862061,1,-24.612427,12.878418,1,-16.50244140625,5.44685745239258,1,-26.947021,-3.8757324,1,-23.742676,-9.719849,1,-20.812988,-11.611938,1
24,-16.830444,14.877319,1,-24.749756,12.802124,1,-16.7445487976074,5.25781154632568,1,-27.420044,-3.7994385,1,-24.337769,-9.70459,1,-21.392822,-11.642456,1
25,-16.967773,14.770508,1,-25.009155,12.649536,1,-16.9491958618164,5.16374731063843,1,-27.816772,-3.6621094,1,-24.856567,-9.643555,1,-22.018433,-11.657715,1
26,-17.044067,14.602661,1,-25.19226,12.451172,1,-17.1154823303223,4.98353242874146,1,-28.198242,-3.5705566,1,-25.390625,-9.58252,1,-22.55249,-11.611938,1
27,-17.13562,14.297485,1,-25.314331,12.10022,1,-17.2150039672852,4.65703964233398,1,-28.640747,-3.4332275,1,-25.924683,-9.521484,1,-23.208618,-11.535645,1
28,-17.227173,14.007568,1,-25.45166,11.749268,1,-17.2872314453125,4.3775577545166,1,-29.006958,-3.2806396,1,-26.504517,-9.414673,1,-23.727417,-11.566162,1
29,-17.333984,13.73291,1,-25.57373,11.459351,1,-17.4039554595947,4.09356784820557,1,-29.388428,-3.1433105,1,-27.08435,-9.307861,1,-24.414062,-11.550903,1
30,-17.39502,13.534546,1,-25.6958,11.291504,1,-17.5085182189941,3.94518351554871,1,-29.678345,-2.9754639,1,-27.60315,-9.246826,1,-24.963379,-11.474609,1
31,-17.349243,13.442993,1,-25.6958,11.260986,1,-17.689640045166,3.71768498420715,1,-30.059814,-2.8381348,1,-28.09143,-9.140015,1,-25.512695,-11.474609,1
32,-17.364502,13.336182,1,-25.772095,11.184692,1,-17.783130645752,3.62318181991577,1,-30.334473,-2.5787354,1,-28.59497,-9.033203,1,-26.138306,-11.459351,1
33,-17.364502,13.336182,1,-25.772095,11.291504,1,-17.9375991821289,3.57006025314331,1,-30.62439,-2.3498535,1,-29.129028,-8.7890625,1,-26.748657,-11.428833,1
34,-17.333984,13.397217,1,-25.787354,11.398315,1,-17.9697856903076,3.65973448753357,1,-30.761719,-2.029419,1,-29.49524,-8.590698,1,-27.236938,-11.245728,1
35,-17.27295,13.473511,1,-25.802612,11.611938,1,-18.0496635437012,3.80861949920654,1,-30.929565,-1.6784668,1,-29.86145,-8.270264,1,-27.786255,-11.09314,1
36,-17.211914,13.641357,1,-25.680542,11.749268,1,-18.0235729217529,3.85174751281738,1,-31.036377,-1.3122559,1,-30.212402,-7.9345703,1,-28.244019,-11.001587,1
37,-17.196655,13.763428,1,-25.650024,11.993408,1,-17.9729537963867,4.11542892456055,1,-31.066895,-0.8392334,1,-30.563354,-7.5531006,1,-28.961182,-10.848999,1
38,-17.13562,14.0686035,1,-25.6958,12.313843,1,-17.7429084777832,4.71440267562866,1,-30.914307,-0.030517578,1,-30.639648,-6.8969727,1,-29.434204,-10.437012,1
39,-16.983032,14.389038,1,-25.604248,12.573242,1,-17.5891265869141,5.03946399688721,1,-31.036377,1.1444092,1,-30.334473,-5.706787,1,-29.266357,-9.658813,1
40,-16.921997,14.678955,1,-25.665283,12.908936,1,-17.38551902771,5.66700887680054,1,-30.944824,2.1820068,1,-29.11377,-4.4403076,1,-27.96936,-8.758545,1
41,-16.906738,15.060425,1,-25.634766,13.214111,1,-17.148551940918,6.21523952484131,1,-30.715942,2.7618408,1,-27.648926,-3.189087,1,-25.894165,-7.293701,1
42,-16.87622,15.350342,1,-25.619507,13.427734,1,-16.9585113525391,6.64635133743286,1,-30.395508,2.7160645,1,-26.245117,-2.3651123,1,-23.68164,-5.996704,1
43,-16.860962,15.655518,1,-25.57373,13.565063,1,-16.6821937561035,7.08890771865845,1,-29.724121,1.9989014,1,-24.82605,-2.2125244,1,-21.697998,-5.279541,1
44,-16.860962,16.052246,1,-25.45166,13.641357,1,-16.3842391967773,7.41385078430176,1,-28.808594,0.9613037,1,-23.468018,-2.6550293,1,-19.989014,-5.1879883,1
45,-16.845703,16.326904,1,-25.375366,13.702393,1,-16.0366802215576,7.88956689834595,1,-27.496338,-0.15258789,1,-21.987915,-3.3111572,1,-18.26477,-5.432129,1
46,-16.830444,16.586304,1,-25.268555,13.702393,1,-15.7678928375244,8.15825843811035,1,-26.09253,-1.2969971,1,-20.27893,-3.9520264,1,-16.38794,-5.6152344,1
47,-16.799927,16.784668,1,-25.146484,13.717651,1,-15.483039855957,8.46238422393799,1,-24.612427,-2.1514893,1,-18.585205,-4.3945312,1,-14.526367,-5.6152344,1
48,-16.799927,16.921997,1,-25.039673,13.748169,1,-15.3508195877075,8.53989410400391,1,-23.422241,-2.89917,1,-17.166138,-4.5776367,1,-12.9852295,-5.3863525,1
49,-16.89148,16.998291,1,-25.024414,13.61084,1,-15.1980581283569,8.66687965393066,1,-22.369385,-3.3569336,1,-16.036987,-4.6539307,1,-11.810303,-5.2337646,1
50,-16.983032,17.074585,1,-25.024414,13.519287,1,-15.1078023910522,8.75894927978516,1,-21.68274,-3.6010742,1,-15.304565,-4.6691895,1,-10.971069,-5.142212,1
51,-17.105103,17.196655,1,-25.039673,13.519287,1,-15.057168006897,8.89872264862061,1,-21.270752,-3.6468506,1,-14.846802,-4.6844482,1,-10.543823,-5.0964355,1
52,-17.242432,17.318726,1,-25.161743,13.458252,1,-15.0530595779419,9.12067794799805,1,-20.996094,-3.5552979,1,-14.556885,-4.5928955,1,-10.238647,-4.989624,1
53,-17.562866,17.440796,1,-25.283813,13.412476,1,-15.0957870483398,9.26469039916992,1,-20.721436,-3.5552979,1,-14.328003,-4.5166016,1,-9.979248,-4.852295,1
54,-17.822266,17.623901,1,-25.45166,13.366699,1,-15.1665515899658,9.46586227416992,1,-20.309448,-3.5552979,1,-13.839722,-4.3029785,1,-9.521484,-4.5318604,1
55,-18.112183,17.730713,1,-25.680542,13.381958,1,-15.3579387664795,9.58144569396973,1,-19.66858,-3.7384033,1,-13.183594,-4.3182373,1,-8.850098,-4.333496,1
56,-18.463135,17.929077,1,-25.878906,13.427734,1,-15.516152381897,9.73810768127441,1,-18.844604,-3.8604736,1,-12.283325,-4.257202,1,-8.010864,-4.1656494,1
57,-18.78357,18.127441,1,-26.138306,13.48877,1,-15.7126636505127,9.98078346252441,1,-18.096924,-3.8146973,1,-11.459351,-4.257202,1,-7.1411133,-4.119873,1
58,-19.058228,18.295288,1,-26.367188,13.549805,1,-15.9015064239502,10.1631374359131,1,-17.425537,-3.753662,1,-10.696411,-4.1046143,1,-6.3476562,-3.9978027,1
59,-19.439697,18.417358,1,-26.611328,13.671875,1,-16.1557464599609,10.2541637420654,1,-16.952515,-3.7231445,1,-10.08606,-4.1046143,1,-5.783081,-4.0283203,1
60,-19.882202,18.585205,1,-26.931763,13.809204,1,-16.4792747497559,10.3820323944092,1,-16.693115,-3.616333,1,-9.70459,-4.135132,1,-5.41687,-4.135132,1
61,-20.202637,18.615723,1,-27.252197,13.824463,1,-16.7903423309326,10.4259910583496,1,-16.479492,-3.5705566,1,-9.460449,-4.3029785,1,-5.1727295,-4.180908,1
62,-20.614624,18.600464,1,-27.60315,13.870239,1,-17.1695556640625,10.3859672546387,1,-16.281128,-3.5858154,1,-9.277344,-4.3792725,1,-4.9591064,-4.425049,1
63,-21.072388,18.585205,1,-27.923584,13.778687,1,-17.5043125152588,10.2518215179443,1,-16.098022,-3.6773682,1,-9.0789795,-4.5928955,1,-4.776001,-4.714966,1
64,-21.453857,18.447876,1,-28.320312,13.641357,1,-17.9045162200928,10.1042432785034,1,-15.914917,-3.753662,1,-8.865356,-4.8675537,1,-4.6844482,-5.0964355,1
65,-21.865845,18.341064,1,-28.717041,13.61084,1,-18.3935012817383,9.8128776550293,1,-15.838623,-3.9520264,1,-8.773804,-5.2948,1,-4.623413,-5.569458,1
66,-22.354126,18.203735,1,-29.083252,13.442993,1,-18.7713813781738,9.61346054077148,1,-15.975952,-4.1046143,1,-8.865356,-5.8135986,1,-4.7302246,-6.2408447,1
67,-22.827148,18.02063,1,-29.510498,13.397217,1,-19.2283000946045,9.48871517181397,1,-16.204834,-4.180908,1,-9.140015,-6.362915,1,-5.1574707,-6.8969727,1
68,-23.284912,17.837524,1,-29.98352,13.198853,1,-19.7163314819336,9.2510871887207,1,-16.586304,-4.3945312,1,-9.613037,-6.80542,1,-5.706787,-7.5683594,1
69,-23.81897,17.669678,1,-30.48706,13.122559,1,-20.2721214294434,9.04150295257568,1,-17.028809,-4.5776367,1,-10.177612,-7.30896,1,-6.2561035,-8.300781,1
70,-24.32251,17.440796,1,-30.960083,12.924194,1,-20.7779941558838,8.76185607910156,1,-17.578125,-4.8675537,1,-10.925293,-7.949829,1,-7.003784,-9.185791,1
71,-24.856567,17.150879,1,-31.570435,12.72583,1,-21.4669075012207,8.37626075744629,1,-18.249512,-5.2490234,1,-11.795044,-8.7890625,1,-7.9193115,-10.345459,1
72,-25.436401,16.799927,1,-32.073975,12.496948,1,-22.0788192749023,7.90381479263306,1,-19.134521,-5.783081,1,-12.863159,-9.613037,1,-8.987427,-11.09314,1
73,-25.924683,16.403198,1,-32.65381,12.34436,1,-22.8082008361816,7.43885231018066,1,-20.126343,-6.30188,1,-13.839722,-10.116577,1,-9.765625,-11.352539,1
74,-26.519775,16.021729,1,-33.294678,12.039185,1,-23.484977722168,7.06226015090942,1,-20.828247,-6.6833496,1,-14.450073,-10.421753,1,-10.421753,-11.428833,1
75,-27.145386,15.731812,1,-33.935547,11.749268,1,-24.0983829498291,6.82684707641602,1,-21.408081,-6.9122314,1,-15.045166,-10.528564,1,-11.0321045,-11.428833,1
76,-27.70996,15.579224,1,-34.576416,11.672974,1,-24.7665500640869,6.69637489318848,1,-22.033691,-7.0343018,1,-15.625,-10.620117,1,-11.627197,-11.459351,1
77,-28.35083,15.457153,1,-35.232544,11.550903,1,-25.4175987243652,6.58432769775391,1,-22.735596,-7.156372,1,-16.26587,-10.681152,1,-12.237549,-11.459351,1
78,-28.930664,15.289307,1,-35.873413,11.489868,1,-26.1037483215332,6.43480730056763,1,-23.4375,-7.30896,1,-16.967773,-10.772705,1,-12.893677,-11.505127,1
79,-29.47998,15.182495,1,-36.42273,11.291504,1,-26.6055793762207,6.32928848266602,1,-24.108887,-7.446289,1,-17.593384,-10.772705,1,-13.504028,-11.550903,1
80,-30.059814,15.106201,1,-36.972046,11.230469,1,-27.1844863891602,6.21014165878296,1,-24.70398,-7.5683594,1,-18.157959,-10.803223,1,-14.099121,-11.566162,1
81,-30.62439,14.99939,1,-37.521362,11.184692,1,-27.7274475097656,6.17677688598633,1,-25.405884,-7.6293945,1,-18.829346,-10.864258,1,-14.755249,-11.505127,1
82,-31.11267,14.953613,1,-38.146973,11.199951,1,-28.4153938293457,6.07195091247559,1,-26.016235,-7.7209473,1,-19.470215,-10.894775,1,-15.335083,-11.520386,1
83,-31.585693,14.9383545,1,-38.650513,11.230469,1,-28.9394283294678,6.06376075744629,1,-26.672363,-7.751465,1,-20.126343,-10.925293,1,-15.960693,-11.535645,1
84,-32.01294,14.892578,1,-39.154053,11.245728,1,-29.4852523803711,6.00032234191895,1,-27.297974,-7.827759,1,-20.721436,-10.971069,1,-16.616821,-11.520386,1
85,-32.424927,14.862061,1,-39.535522,11.230469,1,-29.8330307006836,6.04764366149902,1,-27.96936,-7.827759,1,-21.392822,-10.955811,1,-17.227173,-11.59668,1
86,-32.89795,14.862061,1,-39.993286,11.260986,1,-30.3257293701172,6.01328945159912,1,-28.549194,-7.873535,1,-22.003174,-10.940552,1,-17.852783,-11.550903,1
87,-33.294678,14.816284,1,-40.43579,11.245728,1,-30.7456932067871,6.03976917266846,1,-29.190063,-7.873535,1,-22.644043,-11.001587,1,-18.493652,-11.520386,1
88,-33.706665,14.73999,1,-40.893555,11.184692,1,-31.1091957092285,6.15813159942627,1,-29.815674,-7.7819824,1,-23.223877,-10.955811,1,-19.073486,-11.550903,1
89,-34.118652,14.694214,1,-41.3208,11.123657,1,-31.545015335083,6.08044338226318,1,-30.410767,-7.873535,1,-23.834229,-11.001587,1,-19.729614,-11.505127,1
90,-34.484863,14.663696,1,-41.778564,11.001587,1,-31.9563465118408,6.04941606521606,1,-31.021118,-7.9193115,1,-24.520874,-11.001587,1,-20.355225,-11.59668,1
91,-34.820557,14.587402,1,-42.129517,10.925293,1,-32.2681045532227,6.05163478851318,1,-31.646729,-7.9345703,1,-25.100708,-11.016846,1,-20.935059,-11.581421,1
92,-35.17151,14.480591,1,-42.541504,10.925293,1,-32.6768569946289,6.05818605422974,1,-32.226562,-7.9345703,1,-25.665283,-11.047363,1,-21.652222,-11.566162,1
93,-35.55298,14.434814,1,-42.922974,10.83374,1,-33.0182113647461,6.04879093170166,1,-32.821655,-7.949829,1,-26.306152,-11.09314,1,-22.155762,-11.59668,1
94,-35.7666,14.419556,1,-43.258667,10.83374,1,-33.3459396362305,6.0653190612793,1,-33.40149,-7.9345703,1,-26.885986,-11.047363,1,-22.781372,-11.59668,1
95,-36.132812,14.373779,1,-43.624878,10.83374,1,-33.7136268615723,6.06225442886353,1,-34.01184,-7.9345703,1,-27.557373,-11.062622,1,-23.4375,-11.59668,1
96,-36.331177,14.373779,1,-43.914795,10.910034,1,-34.0671348571777,6.00864601135254,1,-34.622192,-7.9803467,1,-28.167725,-11.108398,1,-23.971558,-11.627197,1
97,-36.514282,14.328003,1,-44.174194,10.879517,1,-34.2964706420898,6.03900241851807,1,-35.15625,-7.9345703,1,-28.747559,-11.047363,1,-24.627686,-11.611938,1
98,-36.712646,14.297485,1,-44.403076,10.894775,1,-34.5442428588867,6.01590347290039,1,-35.720825,-7.9345703,1,-29.35791,-11.138916,1,-25.253296,-11.657715,1
99,-36.865234,14.23645,1,-44.6167,10.879517,1,-34.7468338012695,6.02299785614014,1,-36.315918,-7.888794,1,-30.029297,-11.09314,1,-25.83313,-11.627197,1
100,-36.987305,14.221191,1,-44.815063,10.848999,1,-34.9264068603516,6.03085947036743,1,-36.91101,-7.827759,1,-30.60913,-11.123657,1,-26.45874,-11.642456,1
101,-37.0636,14.160156,1,-44.937134,10.940552,1,-35.104866027832,6.00835990905762,1,-37.42981,-7.797241,1,-31.265259,-11.09314,1,-27.069092,-11.672974,1
102,-37.17041,14.175415,1,-45.12024,10.940552,1,-35.2780151367187,6.02826023101807,1,-37.994385,-7.7056885,1,-31.814575,-11.108398,1,-27.72522,-11.657715,1
103,-37.18567,14.129639,1,-45.181274,10.971069,1,-35.3680953979492,6.00101089477539,1,-38.497925,-7.6446533,1,-32.455444,-11.108398,1,-28.289795,-11.71875,1
104,-37.231445,14.099121,1,-45.303345,11.047363,1,-35.5412940979004,5.97761535644531,1,-39.07776,-7.5683594,1,-33.02002,-11.077881,1,-28.915405,-11.657715,1
105,-37.216187,14.022827,1,-45.303345,11.077881,1,-35.5707931518555,5.95172309875488,1,-39.5813,-7.461548,1,-33.599854,-11.047363,1,-29.49524,-11.71875,1
106,-37.15515,14.038086,1,-45.333862,11.123657,1,-35.6579818725586,5.89132595062256,1,-40.100098,-7.385254,1,-34.210205,-11.062622,1,-30.12085,-11.688232,1
107,-37.124634,13.977051,1,-45.333862,11.138916,1,-35.6716957092285,5.88129711151123,1,-40.57312,-7.232666,1,-34.744263,-11.001587,1,-30.74646,-11.703491,1
108,-36.972046,13.916016,1,-45.303345,11.230469,1,-35.7118988037109,5.84491348266602,1,-41.09192,-7.080078,1,-35.369873,-10.986328,1,-31.356812,-11.734009,1
109,-36.895752,13.809204,1,-45.211792,11.291504,1,-35.688404083252,5.78649616241455,1,-41.549683,-6.92749,1,-35.964966,-10.940552,1,-31.967163,-11.734009,1
110,-36.8042,13.717651,1,-45.166016,11.3220215,1,-35.7118148803711,5.6990270614624,1,-42.037964,-6.790161,1,-36.5448,-10.83374,1,-32.546997,-11.734009,1
111,-36.697388,13.61084,1,-45.166016,11.260986,1,-35.7210273742676,5.62252521514893,1,-42.48047,-6.6375732,1,-37.04834,-10.803223,1,-33.14209,-11.734009,1
112,-36.605835,13.473511,1,-45.181274,11.199951,1,-35.6955299377441,5.63033390045166,1,-42.892456,-6.378174,1,-37.612915,-10.726929,1,-33.706665,-11.71875,1
113,-36.468506,13.381958,1,-45.10498,11.169434,1,-35.6158218383789,5.60563802719116,1,-43.24341,-6.134033,1,-38.146973,-10.635376,1,-34.2865,-11.779785,1
114,-36.376953,13.244629,1,-45.013428,11.154175,1,-35.5846633911133,5.48862457275391,1,-43.655396,-5.9509277,1,-38.69629,-10.559082,1,-34.851074,-11.749268,1
115,-36.224365,13.122559,1,-44.96765,11.154175,1,-35.6156997680664,5.36271190643311,1,-44.067383,-5.79834,1,-39.230347,-10.437012,1,-35.446167,-11.734009,1
116,-36.14807,13.092041,1,-44.98291,11.21521,1,-35.6208038330078,5.44018220901489,1,-44.403076,-5.4626465,1,-39.764404,-10.345459,1,-36.05652,-11.734009,1
117,-36.087036,13.061523,1,-44.937134,11.306763,1,-35.6506423950195,5.41090869903564,1,-44.815063,-5.1727295,1,-40.252686,-10.238647,1,-36.590576,-11.734009,1
118,-35.964966,13.153076,1,-44.891357,11.398315,1,-35.6459007263184,5.43832111358643,1,-45.10498,-4.8828125,1,-40.771484,-10.070801,1,-37.17041,-11.71875,1
119,-35.88867,13.22937,1,-44.73877,11.566162,1,-35.5652923583984,5.4959659576416,1,-45.303345,-4.562378,1,-41.18347,-9.994507,1,-37.719727,-11.734009,1
120,-35.720825,13.412476,1,-44.647217,11.825562,1,-35.5774269104004,5.60149908065796,1,-45.562744,-4.211426,1,-41.671753,-9.780884,1,-38.2843,-11.688232,1
121,-35.568237,13.595581,1,-44.509888,11.978149,1,-35.4702835083008,5.71032905578613,1,-45.73059,-3.8146973,1,-42.06848,-9.643555,1,-38.81836,-11.611938,1
122,-35.41565,13.73291,1,-44.34204,12.252808,1,-35.4010391235352,5.8451132774353,1,-45.898438,-3.4179688,1,-42.556763,-9.460449,1,-39.367676,-11.611938,1
123,-35.339355,13.99231,1,-44.128418,12.512207,1,-35.2968063354492,5.95457077026367,1,-46.066284,-2.9907227,1,-42.95349,-9.277344,1,-39.94751,-11.535645,1
124,-35.217285,14.23645,1,-43.96057,12.817383,1,-35.2671890258789,6.0775671005249,1,-46.23413,-2.6245117,1,-43.411255,-9.048462,1,-40.512085,-11.459351,1
125,-35.110474,14.465332,1,-43.807983,13.137817,1,-35.2367553710937,6.24332141876221,1,-46.37146,-2.243042,1,-43.899536,-8.834839,1,-41.0614,-11.428833,1
126,-34.942627,14.678955,1,-43.5791,13.473511,1,-35.2431907653809,6.29628562927246,1,-46.554565,-1.953125,1,-44.311523,-8.621216,1,-41.625977,-11.33728,1
127,-34.77478,14.9383545,1,-43.380737,13.793945,1,-35.2389373779297,6.39725208282471,1,-46.707153,-1.6326904,1,-44.708252,-8.43811,1,-42.160034,-11.3220215,1
128,-34.591675,15.106201,1,-43.136597,14.144897,1,-35.2602081298828,6.46619319915772,1,-46.89026,-1.3275146,1,-45.135498,-8.270264,1,-42.72461,-11.21521,1
129,-34.439087,15.457153,1,-42.86194,14.465332,1,-35.2851371765137,6.49086618423462,1,-47.088623,-1.0375977,1,-45.547485,-8.132935,1,-43.273926,-11.260986,1
130,-34.210205,15.686035,1,-42.58728,14.877319,1,-35.3689346313477,6.576988697052,1,-47.27173,-0.79345703,1,-45.97473,-7.8582764,1,-43.823242,-11.154175,1
131,-33.996582,15.914917,1,-42.3584,15.151978,1,-35.3433227539062,6.67915344238281,1,-47.37854,-0.47302246,1,-46.325684,-7.659912,1,-44.265747,-11.077881,1
132,-33.798218,16.143799,1,-42.08374,15.533447,1,-35.3983268737793,6.79816102981567,1,-47.51587,-0.21362305,1,-46.813965,-7.4157715,1,-44.952393,-10.879517,1
133,-33.66089,16.281128,1,-41.870117,15.792847,1,-35.3445510864258,6.93751049041748,1,-47.60742,0.18310547,1,-47.210693,-7.080078,1,-45.791626,-10.726929,1
134,-33.615112,16.525269,1,-41.732788,16.036987,1,-35.2757720947266,7.13154220581055,1,-47.60742,0.50354004,1,-47.470093,-6.6986084,1,-46.447754,-10.543823,1
135,-33.52356,16.830444,1,-41.610718,16.296387,1,-35.1301879882813,7.40803909301758,1,-47.48535,0.8239746,1,-47.698975,-6.4697266,1,-47.1344,-10.421753,1
136,-33.477783,17.089844,1,-41.549683,16.433716,1,-35.0006713867187,7.59570217132568,1,-47.3938,1.083374,1,-47.973633,-6.164551,1,-47.74475,-10.223389,1
137,-33.477783,17.318726,1,-41.503906,16.63208,1,-34.8719253540039,7.8561544418335,1,-47.25647,1.3275146,1,-48.171997,-5.874634,1,-48.26355,-10.055542,1
138,-33.432007,17.51709,1,-41.47339,16.693115,1,-34.6639671325684,8.0541467666626,1,-47.088623,1.6021729,1,-48.309326,-5.5236816,1,-48.62976,-9.82666,1
139,-33.37097,17.623901,1,-41.44287,16.647339,1,-34.5068511962891,8.10968017578125,1,-47.01233,1.8157959,1,-48.416138,-5.3253174,1,-48.99597,-9.552002,1
140,-33.355713,17.63916,1,-41.381836,16.540527,1,-34.2371978759766,8.17666625976563,1,-46.85974,2.1209717,1,-48.431396,-4.928589,1,-49.16382,-9.155273,1
141,-33.325195,17.654419,1,-41.412354,16.342163,1,-34.0128784179687,8.20289325714111,1,-46.98181,2.9296875,1,-48.110962,-4.272461,1,-48.736572,-8.636475,1
142,-33.27942,17.623901,1,-41.44287,16.082764,1,-33.8030090332031,8.16869163513184,1,-47.088623,3.753662,1,-47.225952,-3.4332275,1,-47.332764,-7.873535,1
143,-33.37097,17.578125,1,-41.5802,15.777588,1,-33.5134582519531,8.29910850524902,1,-46.99707,4.5318604,1,-45.837402,-2.4871826,1,-45.410156,-6.9122314,1
144,-33.432007,17.456055,1,-41.763306,15.487671,1,-33.3948516845703,8.34841537475586,1,-46.951294,4.852295,1,-44.47937,-1.4038086,1,-43.167114,-5.6610107,1
145,-33.52356,17.288208,1,-41.885376,15.2282715,1,-33.3532180786133,8.28548240661621,1,-46.89026,4.714966,1,-43.258667,-0.61035156,1,-41.229248,-4.5318604,1
146,-33.615112,17.242432,1,-41.992188,14.99939,1,-33.3461036682129,8.19900321960449,1,-46.676636,3.9215088,1,-42.34314,-0.5187988,1,-39.749146,-4.0893555,1
147,-33.691406,17.211914,1,-42.08374,14.862061,1,-33.2420883178711,8.31796073913574,1,-46.11206,2.8076172,1,-41.397095,-1.083374,1,-38.467407,-4.119873,1
148,-33.75244,17.349243,1,-42.160034,14.785767,1,-33.1297187805176,8.50456809997559,1,-45.25757,1.5106201,1,-40.374756,-1.7852783,1,-37.124634,-4.470825,1
149,-33.90503,17.440796,1,-42.144775,14.6484375,1,-32.9212036132812,8.65462970733643,1,-44.158936,0.30517578,1,-39.031982,-2.4719238,1,-35.491943,-4.5928955,1
150,-33.859253,17.608643,1,-42.160034,14.61792,1,-32.712646484375,8.98348712921143,1,-42.922974,-0.5950928,1,-37.506104,-2.822876,1,-33.66089,-4.40979,1
151,-33.950806,17.77649,1,-42.099,14.724731,1,-32.521541595459,9.3143424987793,1,-41.793823,-1.1749268,1,-36.010742,-2.9907227,1,-31.967163,-4.119873,1
152,-33.966064,18.005371,1,-42.053223,14.831543,1,-32.3894348144531,9.576904296875,1,-40.81726,-1.6021729,1,-34.88159,-2.960205,1,-30.685425,-3.768921,1
153,-33.966064,18.218994,1,-42.037964,14.923096,1,-32.2364692687988,9.93002796173096,1,-40.08484,-1.663208,1,-34.072876,-2.822876,1,-29.815674,-3.479004,1
154,-33.996582,18.463135,1,-41.992188,15.029907,1,-32.1552810668945,10.106972694397,1,-39.68811,-1.6937256,1,-33.53882,-2.7160645,1,-29.342651,-3.2348633,1
155,-34.04236,18.676758,1,-41.97693,15.182495,1,-32.0696487426758,10.4027614593506,1,-39.398193,-1.5258789,1,-33.309937,-2.5177002,1,-29.09851,-3.0059814,1
156,-34.088135,18.859863,1,-41.96167,15.319824,1,-32.0012817382812,10.6517696380615,1,-39.3219,-1.2817383,1,-33.14209,-2.380371,1,-28.930664,-2.8686523,1
157,-34.103394,19.073486,1,-41.94641,15.472412,1,-31.9450035095215,10.8929061889648,1,-39.245605,-1.0528564,1,-33.050537,-2.2277832,1,-28.808594,-2.7618408,1
158,-34.16443,19.302368,1,-41.96167,15.579224,1,-31.8857841491699,11.1660032272339,1,-39.138794,-0.8087158,1,-33.03528,-1.9989014,1,-28.778076,-2.5634766,1
159,-34.179688,19.515991,1,-41.96167,15.701294,1,-31.8294486999512,11.4189987182617,1,-39.093018,-0.5493164,1,-32.989502,-1.7547607,1,-28.7323,-2.380371,1
160,-34.225464,19.683838,1,-41.97693,15.808105,1,-31.8343734741211,11.5503368377686,1,-39.031982,-0.45776367,1,-32.88269,-1.5716553,1,-28.656006,-2.1972656,1
161,-34.2865,19.851685,1,-42.007446,15.869141,1,-31.7901515960693,11.793981552124,1,-38.83362,-0.30517578,1,-32.669067,-1.449585,1,-28.442383,-1.9836426,1
162,-34.39331,20.019531,1,-42.007446,15.914917,1,-31.7332229614258,11.9855041503906,1,-38.43689,-0.30517578,1,-32.25708,-1.4038086,1,-27.999878,-1.8920898,1
163,-34.40857,20.217896,1,-42.007446,16.021729,1,-31.6914081573486,12.2034406661987,1,-37.94861,-0.32043457,1,-31.799316,-1.2817383,1,-27.511597,-1.6784668,1
164,-34.439087,20.446777,1,-42.037964,16.159058,1,-31.6973304748535,12.407883644104,1,-37.460327,-0.35095215,1,-31.173706,-1.2512207,1,-26.885986,-1.6021729,1
165,-34.591675,20.629883,1,-42.099,16.296387,1,-31.7519226074219,12.5630264282227,1,-36.895752,-0.45776367,1,-30.578613,-1.2664795,1,-26.290894,-1.6021729,1
166,-34.683228,20.812988,1,-42.175293,16.418457,1,-31.809907913208,12.7362327575684,1,-36.315918,-0.5187988,1,-29.907227,-1.3275146,1,-25.634766,-1.6784668,1
167,-34.820557,20.9198,1,-42.160034,16.571045,1,-31.8419418334961,12.7583045959473,1,-35.79712,-0.6713867,1,-29.296875,-1.4801025,1,-25.054932,-1.8005371,1
168,-34.942627,21.04187,1,-42.23633,16.677856,1,-31.906421661377,12.8972473144531,1,-35.232544,-0.7019043,1,-28.671265,-1.663208,1,-24.383545,-2.0446777,1
169,-35.064697,21.133423,1,-42.34314,16.799927,1,-32.0743637084961,12.8562965393066,1,-34.591675,-0.91552734,1,-27.96936,-1.8920898,1,-23.68164,-2.2735596,1
170,-35.14099,21.194458,1,-42.373657,16.830444,1,-32.1044578552246,12.8879165649414,1,-33.935547,-0.9918213,1,-27.282715,-2.029419,1,-22.994995,-2.4414062,1
171,-35.26306,21.224976,1,-42.541504,16.89148,1,-32.3106842041016,12.8504037857056,1,-33.309937,-1.1138916,1,-26.550293,-2.0751953,1,-22.277832,-2.5177002,1
172,-35.43091,21.28601,1,-42.633057,16.906738,1,-32.4438018798828,12.7619724273682,1,-32.684326,-1.2359619,1,-25.878906,-2.243042,1,-21.621704,-2.5177002,1
173,-35.614014,21.30127,1,-42.663574,17.01355,1,-32.5457191467285,12.6974143981934,1,-32.15027,-1.2969971,1,-25.283813,-2.2888184,1,-21.057129,-2.6397705,1
174,-35.690308,21.270752,1,-42.800903,17.059326,1,-32.8001480102539,12.478401184082,1,-31.723022,-1.4801025,1,-24.841309,-2.6397705,1,-20.645142,-3.0822754,1
175,-35.90393,21.240234,1,-42.83142,17.089844,1,-32.9399375915527,12.2775115966797,1,-31.356812,-1.6326904,1,-24.536133,-3.2043457,1,-20.401001,-3.8757324,1
176,-36.026,21.148682,1,-42.999268,17.059326,1,-33.1791114807129,12.103063583374,1,-31.188965,-1.7547607,1,-24.398804,-3.8909912,1,-20.385742,-4.760742,1
177,-36.209106,20.996094,1,-43.136597,16.983032,1,-33.4004592895508,11.8636903762817,1,-31.051636,-1.9378662,1,-24.307251,-4.5928955,1,-20.41626,-5.508423,1
178,-36.499023,20.767212,1,-43.35022,16.815186,1,-33.7154655456543,11.5075016021729,1,-31.00586,-2.2277832,1,-24.398804,-5.3100586,1,-20.553589,-6.42395,1
179,-36.697388,20.462036,1,-43.563843,16.540527,1,-34.0126800537109,11.0838565826416,1,-31.097412,-2.609253,1,-24.642944,-6.1035156,1,-20.858765,-7.4310303,1
180,-37.04834,19.989014,1,-43.884277,16.098022,1,-34.3719482421875,10.5739316940308,1,-31.356812,-3.0975342,1,-25.20752,-7.095337,1,-21.362305,-8.81958,1
181,-37.384033,19.378662,1,-44.174194,15.625,1,-34.8059501647949,9.85993576049805,1,-31.87561,-3.829956,1,-25.924683,-8.255005,1,-22.277832,-10.421753,1
182,-37.734985,18.630981,1,-44.47937,14.99939,1,-35.3338470458984,8.88715553283691,1,-32.806396,-4.8828125,1,-27.09961,-9.613037,1,-23.529053,-11.428833,1
183,-38.085938,17.700195,1,-44.921875,14.23645,1,-35.8325500488281,8.04095554351807,1,-34.04236,-5.844116,1,-28.198242,-10.345459,1,-24.368286,-11.657715,1
184,-38.513184,16.89148,1,-45.410156,13.473511,1,-36.2563171386719,7.37373685836792,1,-34.75952,-6.5460205,1,-28.85437,-10.726929,1,-24.978638,-11.749268,1
185,-39.07776,16.326904,1,-46.066284,12.878418,1,-36.7630729675293,7.00898456573486,1,-35.43091,-6.92749,1,-29.49524,-10.925293,1,-25.558472,-11.901855,1
186,-39.611816,15.884399,1,-46.64612,12.374878,1,-37.222240447998,6.70120906829834,1,-36.224365,-7.2631836,1,-30.197144,-11.062622,1,-26.229858,-11.932373,1
187,-40.130615,15.441895,1,-47.25647,11.917114,1,-37.7777633666992,6.33552837371826,1,-37.03308,-7.6446533,1,-30.853271,-11.199951,1,-26.855469,-11.932373,1
188,-40.512085,15.075684,1,-47.805786,11.520386,1,-38.2323417663574,6.10290241241455,1,-37.750244,-7.888794,1,-31.49414,-11.33728,1,-27.496338,-11.932373,1
189,-40.985107,14.73999,1,-48.37036,11.230469,1,-38.7598915100098,5.87893962860107,1,-38.45215,-8.117676,1,-32.13501,-11.444092,1,-28.152466,-11.978149,1
190,-41.412354,14.526367,1,-48.843384,10.955811,1,-39.1641540527344,5.72967624664307,1,-39.123535,-8.270264,1,-32.791138,-11.505127,1,-28.762817,-11.978149,1
191,-41.85486,14.328003,1,-49.316406,10.772705,1,-39.5893173217773,5.63619375228882,1,-39.82544,-8.361816,1,-33.432007,-11.520386,1,-29.388428,-11.932373,1
192,-42.22107,14.205933,1,-49.728394,10.604858,1,-39.9647445678711,5.53818321228027,1,-40.45105,-8.453369,1,-34.057617,-11.581421,1,-30.029297,-12.023926,1
193,-42.617798,14.038086,1,-50.125122,10.467529,1,-40.3055458068848,5.51011943817139,1,-41.07666,-8.468628,1,-34.683228,-11.627197,1,-30.670166,-12.008667,1
194,-42.922974,13.931274,1,-50.50659,10.345459,1,-40.6576881408691,5.44657039642334,1,-41.70227,-8.514404,1,-35.339355,-11.688232,1,-31.219482,-11.993408,1
195,-43.121338,13.793945,1,-50.811768,10.223389,1,-40.8975296020508,5.45811176300049,1,-42.32788,-8.468628,1,-35.949707,-11.642456,1,-31.906128,-12.023926,1
196,-43.395996,13.73291,1,-51.132202,10.101318,1,-41.1889724731445,5.39683151245117,1,-42.892456,-8.4991455,1,-36.52954,-11.672974,1,-32.51648,-11.978149,1
197,-43.670654,13.656616,1,-51.376343,10.08606,1,-41.4117698669434,5.42694664001465,1,-43.45703,-8.422852,1,-37.18567,-11.642456,1,-33.111572,-11.993408,1
198,-43.823242,13.565063,1,-51.620483,10.08606,1,-41.692741394043,5.34898805618286,1,-44.036865,-8.453369,1,-37.765503,-11.627197,1,-33.78296,-12.008667,1
199,-44.0979,13.534546,1,-51.9104,10.101318,1,-41.9696922302246,5.39151096343994,1,-44.58618,-8.361816,1,-38.406372,-11.642456,1,-34.332275,-12.039185,1
200,-44.296265,13.549805,1,-52.200317,10.1623535,1,-42.2848892211914,5.39955139160156,1,-45.166016,-8.300781,1,-38.986206,-11.581421,1,-35.003662,-12.008667,1
201,-44.570923,13.519287,1,-52.444458,10.192871,1,-42.5187721252441,5.45147800445557,1,-45.715332,-8.178711,1,-39.627075,-11.550903,1,-35.583496,-11.978149,1
202,-44.72351,13.534546,1,-52.703857,10.238647,1,-42.7955856323242,5.46097469329834,1,-46.26465,-8.102417,1,-40.17639,-11.566162,1,-36.17859,-12.023926,1
203,-44.952393,13.504028,1,-52.947998,10.3302,1,-43.0663452148437,5.49770784378052,1,-46.798706,-7.9956055,1,-40.786743,-11.474609,1,-36.865234,-12.023926,1
204,-45.181274,13.504028,1,-53.19214,10.345459,1,-43.3090362548828,5.51592922210693,1,-47.348022,-7.888794,1,-41.381836,-11.474609,1,-37.506104,-12.008667,1
205,-45.440674,13.48877,1,-53.497314,10.345459,1,-43.58642578125,5.57322359085083,1,-47.88208,-7.751465,1,-41.96167,-11.459351,1,-38.04016,-12.023926,1
206,-45.684814,13.366699,1,-53.726196,10.3302,1,-43.8407211303711,5.50554132461548,1,-48.38562,-7.736206,1,-42.510986,-11.413574,1,-38.619995,-12.023926,1
207,-45.928955,13.290405,1,-54.000854,10.253906,1,-44.077938079834,5.50672245025635,1,-48.919678,-7.6293945,1,-43.136597,-11.352539,1,-39.230347,-12.039185,1
208,-46.203613,13.22937,1,-54.367065,10.269165,1,-44.4289093017578,5.55397415161133,1,-49.468994,-7.507324,1,-43.71643,-11.276245,1,-39.871216,-12.008667,1
209,-46.49353,13.183594,1,-54.6875,10.269165,1,-44.7284049987793,5.59835529327393,1,-50.00305,-7.369995,1,-44.296265,-11.306763,1,-40.405273,-12.023926,1
210,-46.85974,13.183594,1,-55.038452,10.3302,1,-45.0912208557129,5.63418960571289,1,-50.53711,-7.2631836,1,-44.906616,-11.260986,1,-41.0614,-12.054443,1
211,-47.164917,13.214111,1,-55.41992,10.498047,1,-45.5439300537109,5.6540060043335,1,-51.086426,-7.2021484,1,-45.547485,-11.199951,1,-41.732788,-12.069702,1
212,-47.50061,13.259888,1,-55.786133,10.650635,1,-45.9580268859863,5.71015453338623,1,-51.651,-7.080078,1,-46.11206,-11.154175,1,-42.297363,-12.039185,1
213,-47.821045,13.427734,1,-56.152344,10.772705,1,-46.3303680419922,5.82004737854004,1,-52.18506,-6.8969727,1,-46.661377,-11.09314,1,-42.922974,-12.008667,1
214,-48.171997,13.519287,1,-56.549072,11.047363,1,-46.8175239562988,5.91930389404297,1,-52.6886,-6.790161,1,-47.27173,-11.0321045,1,-43.48755,-12.008667,1
215,-48.49243,13.61084,1,-56.884766,11.138916,1,-47.1829566955566,5.95480728149414,1,-53.237915,-6.668091,1,-47.89734,-10.971069,1,-44.174194,-12.008667,1
216,-48.843384,13.61084,1,-57.235718,11.245728,1,-47.5655288696289,6.00287532806397,1,-53.741455,-6.5612793,1,-48.461914,-10.940552,1,-44.677734,-11.993408,1
217,-49.16382,13.641357,1,-57.525635,11.21521,1,-47.8721466064453,5.94167232513428,1,-54.29077,-6.500244,1,-49.01123,-10.910034,1,-45.34912,-12.023926,1
218,-49.468994,13.626099,1,-57.84607,11.306763,1,-48.1979942321777,6.02332735061646,1,-54.80957,-6.3171387,1,-49.63684,-10.910034,1,-45.959473,-12.054443,1
219,-49.743652,13.595581,1,-58.120728,11.3220215,1,-48.5134658813477,5.96473455429077,1,-55.343628,-6.2561035,1,-50.201416,-10.848999,1,-46.539307,-12.023926,1
220,-50.01831,13.595581,1,-58.441162,11.383057,1,-48.8558807373047,5.98654079437256,1,-55.862427,-6.134033,1,-50.76599,-10.757446,1,-47.195435,-12.039185,1
221,-50.308228,13.61084,1,-58.73108,11.459351,1,-49.1993179321289,5.96886110305786,1,-56.365967,-6.0577393,1,-51.3916,-10.757446,1,-47.76001,-12.069702,1
222,-50.613403,13.671875,1,-59.005737,11.505127,1,-49.492790222168,5.98210382461548,1,-56.83899,-5.935669,1,-51.92566,-10.726929,1,-48.324585,-12.008667,1
223,-50.872803,13.702393,1,-59.249878,11.581421,1,-49.7853736877441,5.97578859329224,1,-57.31201,-5.8288574,1,-52.520752,-10.650635,1,-48.919678,-11.993408,1
224,-51.132202,13.748169,1,-59.4635,11.749268,1,-50.0783157348633,6.01181554794312,1,-57.83081,-5.645752,1,-53.07007,-10.635376,1,-49.591064,-12.008667,1
225,-51.437378,13.793945,1,-59.661865,11.871338,1,-50.3739814758301,5.97768020629883,1,-58.33435,-5.5389404,1,-53.604126,-10.513306,1,-50.14038,-12.023926,1
226,-51.696777,13.809204,1,-59.936523,11.932373,1,-50.6985626220703,5.96076917648315,1,-58.792114,-5.4626465,1,-54.214478,-10.437012,1,-50.78125,-12.008667,1
227,-52.03247,13.900757,1,-60.180664,12.039185,1,-50.9987373352051,5.98177528381348,1,-59.295654,-5.2948,1,-54.763794,-10.498047,1,-51.376343,-11.993408,1
228,-52.352905,13.931274,1,-60.47058,12.10022,1,-51.3222045898438,5.992262840271,1,-59.768677,-5.1727295,1,-55.374146,-10.375977,1,-51.956177,-12.008667,1
229,-52.703857,13.931274,1,-60.71472,12.10022,1,-51.5971221923828,5.94640779495239,1,-60.2417,-5.065918,1,-55.908203,-10.3302,1,-52.55127,-11.993408,1
230,-52.993774,13.977051,1,-60.97412,12.1154785,1,-51.8537521362305,5.9657735824585,1,-60.684204,-4.8980713,1,-56.45752,-10.299683,1,-53.100586,-11.993408,1
231,-53.253174,13.99231,1,-61.23352,12.130737,1,-52.1679039001465,5.9006028175354,1,-61.187744,-4.8065186,1,-56.991577,-10.192871,1,-53.69568,-11.932373,1
232,-53.588867,14.099121,1,-61.50818,12.161255,1,-52.4518661499023,5.91760158538818,1,-61.63025,-4.6539307,1,-57.57141,-10.177612,1,-54.30603,-11.932373,1
233,-53.863525,14.129639,1,-61.75232,12.161255,1,-52.7103996276856,5.89677429199219,1,-62.11853,-4.470825,1,-58.120728,-10.08606,1,-54.901123,-11.932373,1
234,-54.1687,14.205933,1,-61.950684,12.22229,1,-53.0109024047852,5.81289625167847,1,-62.576294,-4.40979,1,-58.670044,-9.963989,1,-55.526733,-11.901855,1
235,-54.4281,14.221191,1,-62.179565,12.237549,1,-53.2805442810059,5.77168464660645,1,-63.064575,-4.2419434,1,-59.2041,-9.963989,1,-56.09131,-11.917114,1
236,-54.656982,14.221191,1,-62.39319,12.237549,1,-53.5389404296875,5.7105016708374,1,-63.50708,-4.119873,1,-59.814453,-9.902954,1,-56.70166,-11.901855,1
237,-54.9469,14.266968,1,-62.60681,12.283325,1,-53.7939186096191,5.70054721832275,1,-63.934326,-3.9520264,1,-60.287476,-9.872437,1,-57.266235,-11.917114,1
238,-55.17578,14.266968,1,-62.805176,12.359619,1,-54.0546493530273,5.69416522979736,1,-64.315796,-3.829956,1,-60.86731,-9.796143,1,-57.84607,-11.84082,1
239,-55.43518,14.328003,1,-63.064575,12.4053955,1,-54.36572265625,5.67264270782471,1,-64.7583,-3.7078857,1,-61.35559,-9.750366,1,-58.441162,-11.901855,1
240,-55.740356,14.419556,1,-63.293457,12.512207,1,-54.6764678955078,5.67499542236328,1,-65.216064,-3.540039,1,-61.88965,-9.597778,1,-59.005737,-11.810303,1
241,-56.045532,14.465332,1,-63.537598,12.60376,1,-54.9696578979492,5.70517873764038,1,-65.62805,-3.3721924,1,-62.48474,-9.536743,1,-59.60083,-11.779785,1
242,-56.33545,14.587402,1,-63.796997,12.649536,1,-55.2862854003906,5.68047714233398,1,-66.0553,-3.2653809,1,-62.957764,-9.44519,1,-60.150146,-11.779785,1
243,-56.610107,14.6484375,1,-64.086914,12.786865,1,-55.624698638916,5.75900268554688,1,-66.467285,-3.0975342,1,-63.415527,-9.292603,1,-60.74524,-11.734009,1
244,-56.884766,14.694214,1,-64.37683,12.8479,1,-55.9938545227051,5.7257022857666,1,-66.92505,-3.0212402,1,-64.086914,-9.292603,1,-61.38611,-11.672974,1
245,-57.174683,14.785767,1,-64.60571,12.908936,1,-56.2984313964844,5.69859218597412,1,-67.38281,-2.8533936,1,-64.62097,-9.140015,1,-62.01172,-11.734009,1
246,-57.510376,14.862061,1,-64.89563,12.954712,1,-56.6367874145508,5.68893575668335,1,-67.81006,-2.746582,1,-65.12451,-9.124756,1,-62.591553,-11.672974,1
247,-57.69348,14.99939,1,-65.15503,13.031006,1,-56.9666748046875,5.68588590621948,1,-68.222046,-2.6397705,1,-65.61279,-9.017944,1,-63.201904,-11.672974,1
248,-58.029175,15.106201,1,-65.42969,13.092041,1,-57.2874641418457,5.69581604003906,1,-68.67981,-2.4414062,1,-66.28418,-8.956909,1,-63.934326,-11.59668,1
249,-58.303833,15.136719,1,-65.76538,13.137817,1,-57.6529312133789,5.70894384384155,1,-69.122314,-2.319336,1,-66.80298,-8.880615,1,-64.63623,-11.581421,1
250,-58.563232,15.090942,1,-66.101074,12.9852295,1,-57.956787109375,5.59126949310303,1,-69.58008,-2.2125244,1,-67.41333,-8.81958,1,-65.23132,-11.550903,1
251,-58.85315,14.877319,1,-66.42151,12.710571,1,-58.2295608520508,5.36945199966431,1,-70.03784,-2.1514893,1,-68.02368,-8.728027,1,-65.841675,-11.566162,1
252,-59.066772,14.633179,1,-66.66565,12.374878,1,-58.412036895752,5.10315895080566,1,-70.44983,-2.0446777,1,-68.496704,-8.69751,1,-66.467285,-11.520386,1
253,-59.387207,14.450073,1,-66.94031,12.176514,1,-58.7412071228027,4.84338855743408,1,-70.93811,-2.029419,1,-69.18335,-8.666992,1,-67.13867,-11.474609,1
254,-59.539795,14.282227,1,-67.230225,12.008667,1,-59.0068626403809,4.70275497436523,1,-71.380615,-1.8463135,1,-69.71741,-8.544922,1,-67.81006,-11.459351,1
255,-59.799194,14.23645,1,-67.5354,11.932373,1,-59.2801971435547,4.66246223449707,1,-71.77734,-1.6479492,1,-70.20569,-8.31604,1,-68.40515,-11.352539,1
256,-60.028076,14.221191,1,-67.76428,11.856079,1,-59.4185943603516,4.69022178649902,1,-72.052,-1.3427734,1,-70.64819,-8.041382,1,-69.06128,-11.260986,1
257,-60.22644,14.251709,1,-67.977905,11.886597,1,-59.6177406311035,4.73763561248779,1,-72.35718,-1.0681152,1,-71.10596,-7.873535,1,-69.625854,-11.199951,1
258,-60.409546,14.297485,1,-68.237305,11.917114,1,-59.8288497924805,4.8250093460083,1,-72.631836,-0.8392334,1,-71.57898,-7.736206,1,-70.28198,-11.154175,1
259,-60.531616,14.343262,1,-68.43567,11.993408,1,-60.1019859313965,4.81359195709229,1,-72.98279,-0.6713867,1,-72.052,-7.537842,1,-70.81604,-11.062622,1
260,-60.71472,14.480591,1,-68.55774,12.130737,1,-60.2805557250977,4.8858585357666,1,-73.22693,-0.44250488,1,-72.402954,-7.4005127,1,-71.30432,-10.971069,1
261,-60.836792,14.511108,1,-68.69507,12.298584,1,-60.4740676879883,4.99001884460449,1,-73.47107,-0.21362305,1,-72.99805,-7.247925,1,-71.85364,-10.864258,1
262,-60.97412,14.556885,1,-68.81714,12.4053955,1,-60.6790580749512,5.00460720062256,1,-73.73047,-0.061035156,1,-73.33374,-7.080078,1,-72.37244,-10.803223,1
263,-61.09619,14.663696,1,-69.03076,12.60376,1,-60.9546508789063,5.13539409637451,1,-74.020386,0.10681152,1,-73.74573,-6.958008,1,-72.87598,-10.757446,1
264,-61.35559,14.709473,1,-69.18335,12.756348,1,-61.1422348022461,5.25031518936157,1,-74.23401,0.289917,1,-74.09668,-6.790161,1,-73.33374,-10.620117,1
265,-61.50818,14.862061,1,-69.45801,12.924194,1,-61.310001373291,5.53433322906494,1,-74.3866,0.5340576,1,-74.46289,-6.515503,1,-73.8678,-10.421753,1
266,-61.691284,15.151978,1,-69.68689,13.168335,1,-61.5138740539551,5.80614614486694,1,-74.783325,1.3427734,1,-74.3103,-5.645752,1,-73.85254,-9.811401,1
267,-61.828613,15.396118,1,-69.885254,13.458252,1,-61.629524230957,6.18893766403198,1,-75.0885,2.3345947,1,-73.50159,-4.486084,1,-72.69287,-8.81958,1
268,-62.10327,15.686035,1,-70.15991,13.702393,1,-61.7407913208008,6.62295770645142,1,-75.39368,3.5247803,1,-72.55554,-2.7923584,1,-70.98389,-6.92749,1
269,-62.347412,15.930176,1,-70.495605,14.038086,1,-61.9757118225098,7.08026027679443,1,-75.74463,4.547119,1,-72.09778,-1.0375977,1,-69.83948,-4.9591064,1
270,-62.652588,16.220093,1,-70.755005,14.297485,1,-62.2906723022461,7.27216243743897,1,-76.11084,5.0354004,1,-71.884155,0.12207031,1,-69.44275,-3.6315918,1
271,-62.89673,16.479492,1,-71.02966,14.572144,1,-62.6387977600098,7.4592399597168,1,-76.37024,4.7302246,1,-71.92993,0.35095215,1,-69.244385,-3.112793,1
272,-63.217163,16.723633,1,-71.33484,14.6484375,1,-62.8784446716309,7.6135687828064,1,-76.37024,3.8757324,1,-71.7926,0,1,-68.862915,-3.112793,1
273,-63.49182,16.937256,1,-71.48743,14.801025,1,-62.9855651855469,7.82116937637329,1,-76.08032,2.8686523,1,-71.2738,-0.64086914,1,-68.00842,-3.2806396,1
274,-63.827515,17.105103,1,-71.7926,14.862061,1,-62.9993133544922,8.25312232971191,1,-75.43945,1.8310547,1,-70.251465,-1.159668,1,-66.63513,-3.40271,1
275,-64.04114,17.25769,1,-72.03674,14.892578,1,-62.9884834289551,8.63726711273193,1,-74.67651,0.93078613,1,-69.0918,-1.6021729,1,-65.216064,-3.40271,1
276,-64.37683,17.486572,1,-72.25037,14.968872,1,-63.0341186523438,8.9638032913208,1,-73.913574,0.15258789,1,-68.115234,-1.8310547,1,-64.071655,-3.326416,1
277,-64.62097,17.730713,1,-72.525024,15.106201,1,-63.0982475280762,9.43735504150391,1,-73.19641,-0.2593994,1,-67.352295,-2.0141602,1,-63.293457,-3.250122,1
278,-64.88037,17.990112,1,-72.81494,15.182495,1,-63.2700996398926,9.71477508544922,1,-72.70813,-0.62561035,1,-66.833496,-2.1209717,1,-62.667847,-3.326416,1
279,-65.13977,18.249512,1,-73.07434,15.304565,1,-63.3968925476074,10.0751352310181,1,-72.29614,-0.7324219,1,-66.39099,-2.090454,1,-62.286377,-3.0517578,1
280,-65.475464,18.508911,1,-73.37952,15.426636,1,-63.5581169128418,10.4728393554688,1,-72.052,-0.6561279,1,-66.13159,-1.8310547,1,-61.935425,-2.5634766,1
281,-65.61279,18.829346,1,-73.532104,15.579224,1,-63.5587005615234,10.9390459060669,1,-71.899414,-0.30517578,1,-65.99426,-1.373291,1,-61.76758,-2.0446777,1
282,-65.826416,19.14978,1,-73.74573,15.808105,1,-63.6943511962891,11.3393478393555,1,-71.884155,-0.015258789,1,-65.88745,-0.93078613,1,-61.691284,-1.6174316,1
283,-65.963745,19.515991,1,-73.92883,16.082764,1,-63.787769317627,11.8214511871338,1,-71.7926,0.33569336,1,-65.78064,-0.5340576,1,-61.569214,-1.2054443,1
284,-66.085815,19.958496,1,-74.08142,16.433716,1,-63.8576126098633,12.3749256134033,1,-71.56372,0.6866455,1,-65.582275,-0.12207031,1,-61.37085,-0.88500977,1
285,-66.2384,20.370483,1,-74.1272,16.76941,1,-63.8453025817871,12.8601131439209,1,-71.19751,0.9460449,1,-65.13977,0.10681152,1,-60.958862,-0.579834,1
286,-66.29944,20.78247,1,-74.35608,17.044067,1,-63.9946823120117,13.3506326675415,1,-70.5719,0.9918213,1,-64.55994,0.38146973,1,-60.302734,-0.24414062,1
287,-66.45203,21.148682,1,-74.3866,17.364502,1,-63.9911651611328,13.7679738998413,1,-69.91577,1.083374,1,-63.720703,0.5950928,1,-59.47876,0.10681152,1
288,-66.55884,21.469116,1,-74.49341,17.608643,1,-64.0402603149414,14.1834812164307,1,-69.13757,1.1444092,1,-62.911987,0.869751,1,-58.563232,0.4272461,1
289,-66.63513,21.697998,1,-74.55444,17.837524,1,-64.0692596435547,14.511736869812,1,-68.37463,1.1901855,1,-61.965942,0.9460449,1,-57.69348,0.5340576,1
290,-66.7572,21.972656,1,-74.67651,18.066406,1,-64.2019348144531,14.7073593139648,1,-67.67273,1.1444092,1,-61.172485,0.9765625,1,-56.869507,0.4272461,1
291,-66.89453,22.125244,1,-74.783325,18.28003,1,-64.3457412719727,14.8077211380005,1,-66.78772,1.0223389,1,-60.272217,0.8087158,1,-55.96924,0.22888184,1
292,-67.04712,22.201538,1,-74.87488,18.38684,1,-64.4802017211914,14.7881355285645,1,-65.841675,0.8544922,1,-59.265137,0.5340576,1,-54.977417,-0.045776367,1
293,-67.214966,22.247314,1,-74.920654,18.38684,1,-64.5410385131836,14.7449131011963,1,-64.819336,0.74768066,1,-58.151245,0.32043457,1,-53.92456,-0.36621094,1
294,-67.276,22.262573,1,-74.96643,18.325806,1,-64.6390533447266,14.5383033752441,1,-63.78174,0.5645752,1,-57.052612,0.091552734,1,-52.78015,-0.5645752,1
295,-67.41333,22.277832,1,-74.99695,18.249512,1,-64.7643585205078,14.2129316329956,1,-62.698364,0.36621094,1,-55.908203,-0.12207031,1,-51.651,-0.5950928,1
296,-67.56592,22.17102,1,-75.01221,18.173218,1,-64.8969039916992,13.8511085510254,1,-61.798096,0.19836426,1,-54.91638,-0.5187988,1,-50.689697,-1.0986328,1
297,-67.64221,21.972656,1,-75.027466,17.913818,1,-65.0326385498047,13.3199825286865,1,-61.172485,-0.1373291,1,-54.244995,-1.3275146,1,-50.094604,-2.0751953,1
298,-67.840576,21.591187,1,-75.027466,17.578125,1,-65.1487731933594,12.739577293396,1,-60.836792,-0.579834,1,-53.863525,-2.5482178,1,-49.88098,-3.5095215,1
299,-67.91687,21.118164,1,-75.07324,17.211914,1,-65.4175872802734,11.9423408508301,1,-60.821533,-1.2817383,1,-54.07715,-3.90625,1,-50.04883,-5.218506,1
300,-68.00842,20.462036,1,-75.10376,16.647339,1,-65.6592025756836,11.0081691741943,1,-61.141968,-2.243042,1,-54.611206,-5.5389404,1,-50.704956,-7.156372,1
301,-68.06946,19.714355,1,-75.164795,16.00647,1,-65.8750457763672,10.1157550811768,1,-61.85913,-3.2958984,1,-55.69458,-7.3547363,1,-51.956177,-9.277344,1
302,-68.0542,18.798828,1,-75.25635,15.274048,1,-66.1434020996094,9.11334991455078,1,-62.88147,-4.501343,1,-57.08313,-9.216309,1,-53.604126,-11.428833,1
303,-68.16101,17.837524,1,-75.39368,14.602661,1,-66.5188522338867,8.10362434387207,1,-64.13269,-5.6915283,1,-58.36487,-10.223389,1,-54.611206,-11.703491,1
304,-68.26782,17.089844,1,-75.59204,13.85498,1,-66.6517333984375,7.44632196426392,1,-64.86511,-6.439209,1,-59.020996,-10.665894,1,-55.267334,-11.810303,1
305,-68.43567,16.662598,1,-75.82092,13.381958,1,-66.6786575317383,7.26485252380371,1,-65.475464,-6.6833496,1,-59.661865,-10.772705,1,-55.80139,-11.901855,1
306,-68.58826,16.38794,1,-76.049805,13.122559,1,-66.7847137451172,7.19313859939575,1,-66.101074,-6.790161,1,-60.256958,-10.848999,1,-56.411743,-11.932373,1
307,-68.618774,16.098022,1,-76.21765,12.771606,1,-66.9133148193359,6.90395641326904,1,-66.77246,-7.095337,1,-60.897827,-10.940552,1,-57.06787,-11.978149,1
308,-68.69507,15.74707,1,-76.431274,12.557983,1,-67.1107940673828,6.71601152420044,1,-67.50488,-7.2784424,1,-61.569214,-11.0321045,1,-57.754517,-11.978149,1
309,-68.80188,15.441895,1,-76.58386,12.329102,1,-67.2676239013672,6.48036861419678,1,-68.14575,-7.4920654,1,-62.22534,-11.154175,1,-58.33435,-12.008667,1
310,-68.8324,15.213013,1,-76.812744,12.176514,1,-67.408447265625,6.47045230865479,1,-68.78662,-7.461548,1,-62.88147,-11.169434,1,-58.99048,-12.008667,1
311,-68.93921,15.136719,1,-76.95007,12.054443,1,-67.5219039916992,6.38790893554688,1,-69.3512,-7.4920654,1,-63.49182,-11.184692,1,-59.539795,-12.039185,1
312,-69.04602,15.075684,1,-77.13318,11.993408,1,-67.6853942871094,6.35964679718018,1,-69.91577,-7.461548,1,-64.10217,-11.184692,1,-60.2417,-12.023926,1
313,-69.06128,14.968872,1,-77.194214,12.023926,1,-67.7853622436524,6.32537317276001,1,-70.46509,-7.4157715,1,-64.66675,-11.184692,1,-60.86731,-12.008667,1
314,-69.107056,14.923096,1,-77.37732,11.993408,1,-67.9785614013672,6.27822828292847,1,-71.02966,-7.385254,1,-65.30762,-11.154175,1,-61.431885,-12.039185,1
315,-69.16809,14.862061,1,-77.423096,12.023926,1,-68.0164489746094,6.32173633575439,1,-71.57898,-7.217407,1,-65.91797,-11.138916,1,-62.088013,-12.039185,1
316,-69.15283,14.801025,1,-77.52991,11.978149,1,-68.1409912109375,6.2468113899231,1,-72.08252,-7.1868896,1,-66.482544,-11.09314,1,-62.698364,-12.023926,1
317,-69.19861,14.755249,1,-77.63672,12.023926,1,-68.2174377441406,6.34262657165527,1,-72.54028,-6.9732666,1,-67.04712,-11.047363,1,-63.308716,-12.023926,1
318,-69.19861,14.755249,1,-77.66724,12.1154785,1,-68.3065185546875,6.33820056915283,1,-73.04382,-6.8359375,1,-67.67273,-10.986328,1,-63.919067,-12.008667,1
319,-69.2749,14.846802,1,-77.697754,12.298584,1,-68.4057846069336,6.41137409210205,1,-73.516846,-6.6223145,1,-68.222046,-10.864258,1,-64.54468,-12.023926,1
320,-69.25964,14.923096,1,-77.77405,12.451172,1,-68.4729919433594,6.57833051681519,1,-73.95935,-6.30188,1,-68.78662,-10.787964,1,-65.12451,-12.008667,1
321,-69.2749,15.136719,1,-77.804565,12.6953125,1,-68.5958480834961,6.6787052154541,1,-74.34082,-6.088257,1,-69.32068,-10.71167,1,-65.76538,-11.978149,1
322,-69.366455,15.274048,1,-77.83508,12.893677,1,-68.7236480712891,6.7307391166687,1,-74.783325,-5.8898926,1,-69.869995,-10.574341,1,-66.36047,-11.932373,1
323,-69.39697,15.472412,1,-77.89612,13.168335,1,-68.8304138183594,6.93832206726074,1,-75.18005,-5.5389404,1,-70.41931,-10.437012,1,-66.970825,-11.978149,1
324,-69.45801,15.625,1,-77.97241,13.381958,1,-68.9884262084961,7.03466987609863,1,-75.59204,-5.3100586,1,-70.98389,-10.314941,1,-67.52014,-11.932373,1
325,-69.41223,15.838623,1,-77.97241,13.626099,1,-69.0629653930664,7.17460536956787,1,-75.912476,-5.0354004,1,-71.48743,-10.192871,1,-68.115234,-11.917114,1
326,-69.44275,16.021729,1,-77.95715,13.85498,1,-69.1001052856445,7.33173799514771,1,-76.23291,-4.714966,1,-71.99097,-10.116577,1,-68.66455,-11.886597,1
327,-69.488525,16.204834,1,-77.941895,14.083862,1,-69.142448425293,7.48312187194824,1,-76.553345,-4.3945312,1,-72.46399,-10.009766,1,-69.2749,-11.917114,1
328,-69.39697,16.326904,1,-77.89612,14.251709,1,-69.1494140625,7.58124017715454,1,-76.812744,-4.135132,1,-72.96753,-9.841919,1,-69.85474,-11.825562,1
329,-69.3512,16.51001,1,-77.83508,14.450073,1,-69.1611251831055,7.68527746200562,1,-77.056885,-3.8757324,1,-73.30322,-9.689331,1,-70.388794,-11.871338,1
330,-69.2749,16.647339,1,-77.66724,14.6484375,1,-69.0255126953125,7.84250974655151,1,-77.23999,-3.4942627,1,-73.69995,-9.536743,1,-70.90759,-11.779785,1
331,-69.16809,16.75415,1,-77.49939,14.816284,1,-68.9675216674805,7.87314224243164,1,-77.46887,-3.250122,1,-74.09668,-9.338379,1,-71.45691,-11.779785,1
332,-69.04602,16.906738,1,-77.3468,15.029907,1,-68.9194564819336,7.96026706695557,1,-77.77405,-2.8839111,1,-74.67651,-9.20105,1,-72.06726,-11.71875,1
333,-68.90869,17.044067,1,-77.178955,15.2282715,1,-68.8639297485352,8.02686023712158,1,-78.00293,-2.5787354,1,-75.10376,-8.956909,1,-72.61658,-11.657715,1
334,-68.77136,17.13562,1,-76.95007,15.441895,1,-68.7683715820313,8.08935737609863,1,-78.23181,-2.2277832,1,-75.62256,-8.7890625,1,-73.21167,-11.566162,1
335,-68.58826,17.196655,1,-76.72119,15.50293,1,-68.6253051757813,8.05601119995117,1,-78.47595,-1.8920898,1,-76.06506,-8.529663,1,-73.898315,-11.505127,1
336,-68.46619,17.227173,1,-76.52283,15.701294,1,-68.6147766113281,8.05520057678223,1,-78.75061,-1.6021729,1,-76.538086,-8.453369,1,-74.539185,-11.459351,1
337,-68.3136,17.196655,1,-76.37024,15.838623,1,-68.6307373046875,8.02196311950684,1,-79.01001,-1.373291,1,-77.01111,-8.224487,1,-75.149536,-11.367798,1
338,-68.20679,17.25769,1,-76.26343,15.945435,1,-68.6941375732422,7.96384334564209,1,-79.29993,-1.1749268,1,-77.48413,-8.041382,1,-75.77515,-11.306763,1
339,-68.06946,17.196655,1,-76.1261,16.052246,1,-68.695930480957,7.94097900390625,1,-79.51355,-0.9460449,1,-77.95715,-7.888794,1,-76.416016,-11.352539,1
340,-67.94739,17.25769,1,-76.01929,16.12854,1,-68.7612152099609,7.86292123794556,1,-79.78821,-0.76293945,1,-78.430176,-7.751465,1,-77.07214,-11.21521,1
341,-67.81006,17.181396,1,-75.912476,16.082764,1,-68.7194747924805,7.76046276092529,1,-79.98657,-0.5493164,1,-78.9032,-7.6446533,1,-77.75879,-11.199951,1
342,-67.64221,17.01355,1,-75.77515,16.00647,1,-68.7311248779297,7.55770063400269,1,-80.23071,-0.4272461,1,-79.40674,-7.5531006,1,-78.3844,-11.184692,1
343,-67.50488,16.87622,1,-75.63782,15.869141,1,-68.7140350341797,7.32155466079712,1,-80.444336,-0.32043457,1,-79.87976,-7.446289,1,-78.99475,-11.123657,1
344,-67.29126,16.616821,1,-75.51575,15.594482,1,-68.6050186157227,7.03633546829224,1,-80.62744,-0.1373291,1,-80.30701,-7.293701,1,-79.574585,-11.0321045,1
345,-67.15393,16.26587,1,-75.3479,15.213013,1,-68.455078125,6.64044284820557,1,-80.78003,0,1,-80.703735,-7.156372,1,-80.10864,-10.925293,1
346,-66.986084,15.930176,1,-75.21057,14.831543,1,-68.1998977661133,6.35507774353027,1,-80.81055,0.2746582,1,-81.02417,-6.881714,1,-80.62744,-10.7421875,1
347,-66.833496,15.777588,1,-75.07324,14.49585,1,-67.8994750976563,6.15695571899414,1,-80.78003,0.6713867,1,-81.25305,-6.4849854,1,-80.9021,-10.421753,1
348,-66.726685,15.701294,1,-74.96643,14.373779,1,-67.4530792236328,6.33950042724609,1,-80.459595,1.159668,1,-80.99365,-5.92041,1,-80.99365,-9.918213,1
349,-66.43677,15.823364,1,-74.87488,14.312744,1,-66.9946746826172,6.6379542350769,1,-80.24597,2.1209717,1,-80.35278,-4.8828125,1,-80.36804,-9.155273,1
350,-66.26892,15.945435,1,-74.73755,14.389038,1,-66.6174621582031,6.96851015090942,1,-80.09338,3.1738281,1,-79.29993,-3.8757324,1,-79.02527,-8.19397,1
351,-66.101074,16.220093,1,-74.63074,14.633179,1,-66.3299789428711,7.41532707214356,1,-79.91028,4.0130615,1,-77.91138,-2.7160645,1,-77.041626,-7.003784,1
352,-65.91797,16.571045,1,-74.523926,14.968872,1,-65.996696472168,8.02003479003906,1,-79.574585,4.6081543,1,-76.58386,-1.5716553,1,-74.93591,-5.783081,1
353,-65.75012,17.044067,1,-74.35608,15.304565,1,-65.7110137939453,8.50288581848145,1,-79.193115,4.7302246,1,-75.33264,-0.6713867,1,-73.12012,-4.562378,1
354,-65.582275,17.547607,1,-74.11194,15.74707,1,-65.4233627319336,9.00105857849121,1,-78.6438,4.3945312,1,-74.157715,-0.091552734,1,-71.59424,-3.7078857,1
355,-65.39917,18.081665,1,-73.97461,16.113281,1,-65.1495895385742,9.54677772521973,1,-77.88086,3.7231445,1,-73.05908,0,1,-70.17517,-3.1280518,1
356,-65.23132,18.630981,1,-73.776245,16.51001,1,-64.817138671875,10.1276578903198,1,-76.84326,2.960205,1,-71.83838,-0.21362305,1,-68.58826,-2.822876,1
357,-65.06348,19.180298,1,-73.54736,16.89148,1,-64.4455337524414,10.7143611907959,1,-75.63782,2.3040771,1,-70.34302,-0.32043457,1,-66.77246,-2.4871826,1
358,-64.834595,19.65332,1,-73.33374,17.242432,1,-64.0649948120117,11.3187217712402,1,-74.401855,1.876831,1,-68.89343,-0.30517578,1,-65.04822,-2.090454,1
359,-64.697266,20.141602,1,-73.150635,17.547607,1,-63.745491027832,11.8429317474365,1,-73.24219,1.5563965,1,-67.55066,-0.35095215,1,-63.62915,-1.8157959,1
360,-64.453125,20.507812,1,-72.93701,17.837524,1,-63.4209327697754,12.319899559021,1,-72.28088,1.4801025,1,-66.4978,-0.30517578,1,-62.48474,-1.7242432,1
361,-64.193726,20.843506,1,-72.66235,18.02063,1,-63.0836601257324,12.6124229431152,1,-71.47217,1.4038086,1,-65.597534,-0.289917,1,-61.61499,-1.5411377,1
362,-63.99536,21.133423,1,-72.387695,18.218994,1,-62.7397003173828,12.9354190826416,1,-70.8313,1.5106201,1,-64.91089,-0.1373291,1,-60.86731,-1.373291,1
363,-63.720703,21.42334,1,-72.052,18.341064,1,-62.2893104553223,13.2725524902344,1,-70.06836,1.6326904,1,-64.16321,-0.061035156,1,-60.08911,-1.1749268,1
364,-63.415527,21.713257,1,-71.71631,18.478394,1,-61.9025077819824,13.5095548629761,1,-69.29016,1.6174316,1,-63.339233,0.12207031,1,-59.23462,-0.869751,1
365,-63.217163,22.04895,1,-71.45691,18.661499,1,-61.5415802001953,13.8984937667847,1,-68.20679,1.5869141,1,-62.286377,0.2593994,1,-58.135986,-0.5340576,1
366,-62.942505,22.354126,1,-71.07544,18.798828,1,-61.0534973144531,14.2644367218018,1,-66.89453,1.5411377,1,-61.019897,0.39672852,1,-56.854248,-0.33569336,1
367,-62.60681,22.68982,1,-70.67871,18.997192,1,-60.5928764343262,14.6067581176758,1,-65.460205,1.4801025,1,-59.49402,0.50354004,1,-55.374146,-0.061035156,1
368,-62.22534,23.010254,1,-70.251465,19.16504,1,-60.1103401184082,14.9038782119751,1,-63.87329,1.4190674,1,-57.739258,0.62561035,1,-53.588867,0.15258789,1
369,-61.965942,23.254395,1,-69.80896,19.28711,1,-59.6205520629883,15.1402559280396,1,-62.164307,1.373291,1,-55.877686,0.64086914,1,-51.757812,0.289917,1
370,-61.50818,23.345947,1,-69.30542,19.348145,1,-59.1651916503906,15.0848388671875,1,-60.455322,1.1444092,1,-53.985596,0.64086914,1,-49.819946,0.33569336,1
371,-61.141968,23.376465,1,-68.8324,19.302368,1,-58.7717895507813,14.8544311523438,1,-58.73108,0.8544922,1,-52.108765,0.36621094,1,-47.912598,0.1373291,1
372,-60.85205,23.284912,1,-68.29834,19.28711,1,-58.3447608947754,14.6045541763306,1,-57.144165,0.6561279,1,-50.369263,0,1,-46.188354,-0.50354004,1
373,-60.5011,23.1781,1,-67.93213,19.14978,1,-58.1114044189453,14.1946468353271,1,-55.83191,0.38146973,1,-49.041748,-0.8087158,1,-44.784546,-1.4648438,1
374,-60.195923,22.964478,1,-67.474365,18.936157,1,-57.8169555664063,13.669807434082,1,-54.79431,0,1,-47.912598,-1.7852783,1,-43.8385,-2.746582,1
375,-59.936523,22.598267,1,-67.15393,18.630981,1,-57.6965141296387,13.0133934020996,1,-54.107666,-0.5187988,1,-47.25647,-3.1433105,1,-43.289185,-4.3029785,1
376,-59.70764,22.094727,1,-66.833496,18.249512,1,-57.6555709838867,12.1860408782959,1,-53.726196,-1.2512207,1,-47.164917,-4.5166016,1,-43.19763,-6.2561035,1
377,-59.47876,21.392822,1,-66.61987,17.715454,1,-57.7221565246582,11.2477941513062,1,-53.66516,-2.1514893,1,-47.48535,-6.1798096,1,-43.73169,-8.331299,1
378,-59.387207,20.477295,1,-66.42151,16.952515,1,-57.7542152404785,10.1791868209839,1,-54.122925,-3.3416748,1,-48.355103,-8.041382,1,-44.799805,-10.528564,1
379,-59.32617,19.40918,1,-66.3147,16.098022,1,-58.0197296142578,8.87351512908936,1,-55.114746,-4.8217773,1,-49.713135,-9.857178,1,-46.157837,-11.71875,1
380,-59.32617,18.203735,1,-66.42151,15.12146,1,-58.1574783325195,7.86158275604248,1,-56.396484,-6.0272217,1,-50.79651,-10.681152,1,-47.027588,-11.932373,1
381,-59.402466,17.181396,1,-66.61987,14.175415,1,-58.1430740356445,7.16514682769775,1,-57.235718,-6.80542,1,-51.42212,-11.047363,1,-47.668457,-12.008667,1
382,-59.61609,16.464233,1,-66.89453,13.305664,1,-57.9599266052246,6.88905572891235,1,-57.86133,-7.1105957,1,-52.108765,-11.230469,1,-48.233032,-12.10022,1
383,-59.799194,15.914917,1,-67.19971,12.527466,1,-57.9700698852539,6.54300403594971,1,-58.517456,-7.446289,1,-52.6886,-11.352539,1,-48.8739,-12.161255,1
384,-60.028076,15.213013,1,-67.45911,11.856079,1,-58.0665473937988,6.13071870803833,1,-59.32617,-7.8125,1,-53.31421,-11.474609,1,-49.468994,-12.176514,1
385,-60.256958,14.61792,1,-67.74902,11.199951,1,-58.1579437255859,5.81374454498291,1,-60.058594,-8.056641,1,-54.07715,-11.581421,1,-50.14038,-12.130737,1
386,-60.546875,14.099121,1,-68.00842,10.604858,1,-58.2680511474609,5.49357557296753,1,-60.74524,-8.285522,1,-54.70276,-11.703491,1,-50.78125,-12.176514,1
387,-60.791016,13.717651,1,-68.32886,10.116577,1,-58.4691886901855,5.23938751220703,1,-61.38611,-8.453369,1,-55.32837,-11.795044,1,-51.42212,-12.207031,1
388,-61.065674,13.320923,1,-68.67981,9.674072,1,-58.7358283996582,4.97118186950684,1,-62.026978,-8.636475,1,-55.93872,-11.825562,1,-52.04773,-12.176514,1
389,-61.340332,13.046265,1,-69.03076,9.307861,1,-58.9951438903809,4.80382823944092,1,-62.698364,-8.69751,1,-56.59485,-11.825562,1,-52.703857,-12.176514,1
390,-61.584473,12.817383,1,-69.33594,9.048462,1,-59.2551765441895,4.64638996124268,1,-63.293457,-8.758545,1,-57.22046,-11.871338,1,-53.359985,-12.176514,1
391,-61.85913,12.72583,1,-69.610596,8.880615,1,-59.4834518432617,4.58633089065552,1,-63.90381,-8.69751,1,-57.84607,-11.84082,1,-54.04663,-12.176514,1
392,-62.13379,12.664795,1,-69.94629,8.7890625,1,-59.7994995117188,4.54140090942383,1,-64.48364,-8.651733,1,-58.502197,-11.779785,1,-54.67224,-12.176514,1
393,-62.332153,12.710571,1,-70.20569,8.895874,1,-60.0922012329102,4.56952905654907,1,-65.03296,-8.529663,1,-59.09729,-11.703491,1,-55.32837,-12.130737,1
394,-62.60681,12.802124,1,-70.46509,9.0789795,1,-60.3979644775391,4.64580678939819,1,-65.5365,-8.377075,1,-59.677124,-11.611938,1,-55.96924,-12.176514,1
395,-62.789917,12.969971,1,-70.69397,9.353638,1,-60.6688652038574,4.82625102996826,1,-66.04004,-8.102417,1,-60.2417,-11.535645,1,-56.549072,-12.176514,1
396,-62.973022,13.168335,1,-70.93811,9.735107,1,-61.0244255065918,4.96867561340332,1,-66.52832,-7.9040527,1,-60.775757,-11.428833,1,-57.18994,-12.130737,1
397,-63.156128,13.412476,1,-71.0907,9.994507,1,-61.2370300292969,5.10521173477173,1,-66.986084,-7.659912,1,-61.37085,-11.3220215,1,-57.86133,-12.084961,1
398,-63.24768,13.61084,1,-71.243286,10.345459,1,-61.5009841918945,5.23785972595215,1,-67.45911,-7.4310303,1,-61.950684,-11.230469,1,-58.532715,-12.084961,1
399,-63.40027,13.793945,1,-71.3501,10.696411,1,-61.7059669494629,5.40578508377075,1,-67.91687,-7.1411133,1,-62.545776,-11.123657,1,-59.143066,-12.054443,1
400,-63.461304,13.961792,1,-71.41113,11.001587,1,-61.838264465332,5.58308744430542,1,-68.359375,-6.80542,1,-63.14087,-11.016846,1,-59.783936,-12.10022,1
401,-63.568115,14.099121,1,-71.42639,11.260986,1,-61.9730644226074,5.63651561737061,1,-68.81714,-6.576538,1,-63.735962,-10.910034,1,-60.455322,-12.054443,1
402,-63.598633,14.221191,1,-71.42639,11.520386,1,-62.1161117553711,5.66217184066772,1,-69.25964,-6.378174,1,-64.315796,-10.818481,1,-61.019897,-12.069702,1
403,-63.598633,14.343262,1,-71.33484,11.84082,1,-62.1540489196777,5.78168964385986,1,-69.625854,-6.0577393,1,-64.84985,-10.757446,1,-61.676025,-12.023926,1
404,-63.598633,14.465332,1,-71.28906,12.10022,1,-62.2408561706543,5.84482288360596,1,-69.992065,-5.8135986,1,-65.36865,-10.604858,1,-62.210083,-12.023926,1
405,-63.50708,14.587402,1,-71.16699,12.283325,1,-62.2203941345215,5.88345432281494,1,-70.35828,-5.508423,1,-65.963745,-10.543823,1,-62.805176,-11.978149,1
406,-63.461304,14.694214,1,-71.10596,12.496948,1,-62.3160018920899,5.88357448577881,1,-70.72449,-5.3100586,1,-66.482544,-10.437012,1,-63.38501,-12.008667,1
407,-63.339233,14.755249,1,-70.96863,12.710571,1,-62.365852355957,5.8554835319519,1,-71.10596,-5.0811768,1,-67.00134,-10.375977,1,-63.980103,-11.962891,1
408,-63.2782,14.770508,1,-70.98389,12.878418,1,-62.4899673461914,5.88890171051025,1,-71.48743,-4.837036,1,-67.5354,-10.284424,1,-64.575195,-12.023926,1
409,-63.201904,14.892578,1,-70.93811,13.000488,1,-62.5658836364746,5.86566305160522,1,-71.83838,-4.623413,1,-68.115234,-10.20813,1,-65.12451,-12.008667,1
410,-63.186646,14.907837,1,-70.96863,13.046265,1,-62.683479309082,5.81049776077271,1,-72.23511,-4.425049,1,-68.603516,-10.177612,1,-65.68909,-11.993408,1
411,-63.14087,14.892578,1,-70.999146,13.046265,1,-62.7661666870117,5.75119733810425,1,-72.55554,-4.257202,1,-69.16809,-10.055542,1,-66.26892,-12.008667,1
412,-63.156128,14.862061,1,-71.07544,13.000488,1,-62.907958984375,5.63216686248779,1,-72.96753,-4.1046143,1,-69.71741,-10.101318,1,-66.848755,-12.023926,1
413,-63.049316,14.724731,1,-71.0907,12.908936,1,-62.9761390686035,5.48236608505249,1,-73.33374,-3.9367676,1,-70.236206,-9.994507,1,-67.41333,-12.008667,1
414,-63.00354,14.572144,1,-71.10596,12.771606,1,-62.9951858520508,5.34089851379395,1,-73.638916,-3.753662,1,-70.70923,-9.902954,1,-68.00842,-12.008667,1
415,-62.973022,14.419556,1,-71.0907,12.542725,1,-62.976634979248,5.11561393737793,1,-73.94409,-3.5858154,1,-71.31958,-9.82666,1,-68.618774,-11.993408,1
416,-62.911987,14.144897,1,-71.07544,12.298584,1,-62.9799880981445,4.85118913650513,1,-74.3103,-3.3721924,1,-71.83838,-9.658813,1,-69.18335,-11.917114,1
417,-62.805176,13.900757,1,-70.98389,12.023926,1,-62.8925094604492,4.57210063934326,1,-74.55444,-3.1738281,1,-72.28088,-9.58252,1,-69.77844,-11.886597,1
418,-62.713623,13.73291,1,-70.93811,11.810303,1,-62.8486747741699,4.35637760162354,1,-74.73755,-3.036499,1,-72.73865,-9.460449,1,-70.373535,-11.886597,1
419,-62.591553,13.656616,1,-70.78552,11.856079,1,-62.8492126464844,4.23932600021362,1,-74.98169,-2.746582,1,-73.19641,-9.292603,1,-70.93811,-11.795044,1
420,-62.454224,13.671875,1,-70.72449,11.917114,1,-62.7908325195313,4.29759693145752,1,-75.10376,-2.3651123,1,-73.6084,-8.972168,1,-71.517944,-11.749268,1
421,-62.316895,13.824463,1,-70.632935,11.993408,1,-62.6788635253906,4.39520359039307,1,-75.19531,-1.876831,1,-73.95935,-8.544922,1,-72.021484,-11.489868,1
422,-62.10327,13.916016,1,-70.40405,12.176514,1,-62.5018272399902,4.52439975738525,1,-75.24109,-1.2817383,1,-74.295044,-8.071899,1,-72.769165,-11.306763,1
423,-61.85913,14.144897,1,-70.20569,12.451172,1,-62.2525291442871,4.85200786590576,1,-75.10376,-0.7019043,1,-74.50867,-7.598877,1,-73.33374,-11.09314,1
424,-61.645508,14.480591,1,-70.114136,12.786865,1,-61.9757843017578,5.38637399673462,1,-74.93591,0.091552734,1,-74.50867,-6.8206787,1,-73.68469,-10.604858,1
425,-61.47766,14.877319,1,-69.97681,13.153076,1,-61.7488059997559,5.85238885879517,1,-74.98169,1.2817383,1,-74.06616,-5.584717,1,-73.272705,-9.719849,1
426,-61.187744,15.335083,1,-69.83948,13.534546,1,-61.3505973815918,6.53891086578369,1,-74.73755,2.4414062,1,-72.784424,-4.135132,1,-71.71631,-8.514404,1
427,-61.035156,15.884399,1,-69.68689,13.977051,1,-60.9830627441406,7.25072717666626,1,-74.47815,3.5247803,1,-71.41113,-2.5787354,1,-69.76318,-6.6986084,1
428,-60.86731,16.403198,1,-69.5343,14.526367,1,-60.7113761901856,7.95704412460327,1,-74.157715,4.058838,1,-70.17517,-1.159668,1,-67.74902,-4.8980713,1
429,-60.71472,17.059326,1,-69.33594,14.99939,1,-60.3753890991211,8.61905956268311,1,-73.54736,3.8757324,1,-68.93921,-0.32043457,1,-66.02478,-3.6621094,1
430,-60.546875,17.700195,1,-69.13757,15.396118,1,-60.0185699462891,9.24439239501953,1,-72.67761,3.2653809,1,-67.70325,-0.19836426,1,-64.54468,-3.0822754,1
431,-60.409546,18.310547,1,-68.95447,15.838623,1,-59.7018737792969,9.88970947265625,1,-71.59424,2.5024414,1,-66.45203,-0.5645752,1,-63.00354,-2.960205,1
432,-60.2417,18.859863,1,-68.67981,16.204834,1,-59.3311233520508,10.4081020355225,1,-70.3125,1.7242432,1,-64.92615,-0.93078613,1,-61.24878,-2.960205,1
433,-60.028076,19.332886,1,-68.51196,16.586304,1,-59.0156211853027,11.0347690582275,1,-68.96973,1.1901855,1,-63.38501,-1.1901855,1,-59.509277,-2.8686523,1
434,-59.86023,19.79065,1,-68.3136,16.967773,1,-58.7616119384766,11.5125513076782,1,-67.74902,0.77819824,1,-61.920166,-1.3275146,1,-57.96814,-2.7313232,1
435,-59.661865,20.187378,1,-68.099976,17.242432,1,-58.455379486084,11.9526538848877,1,-66.61987,0.579834,1,-60.74524,-1.2969971,1,-56.6864,-2.5024414,1
436,-59.61609,20.53833,1,-67.88635,17.486572,1,-58.1676025390625,12.334303855896,1,-65.7959,0.5950928,1,-59.86023,-1.083374,1,-55.725098,-2.2583008,1
437,-59.417725,20.889282,1,-67.65747,17.730713,1,-57.8763008117676,12.697943687439,1,-65.093994,0.7019043,1,-59.11255,-0.91552734,1,-55.023193,-1.9683838,1
438,-59.2041,21.240234,1,-67.45911,17.944336,1,-57.5829811096191,13.1005563735962,1,-64.42261,0.88500977,1,-58.410645,-0.6866455,1,-54.32129,-1.6174316,1
439,-59.036255,21.606445,1,-67.230225,18.26477,1,-57.3152313232422,13.5010585784912,1,-63.75122,1.0681152,1,-57.69348,-0.38146973,1,-53.604126,-1.3122559,1
440,-58.95996,22.018433,1,-67.03186,18.539429,1,-57.0481758117676,13.9214086532593,1,-63.00354,1.2512207,1,-56.97632,-0.10681152,1,-52.825928,-0.8392334,1
441,-58.71582,22.491455,1,-66.77246,18.875122,1,-56.760009765625,14.3198127746582,1,-62.088013,1.373291,1,-56.07605,0.16784668,1,-51.940918,-0.5340576,1
442,-58.563232,22.842407,1,-66.604614,19.210815,1,-56.5569152832031,14.7337970733643,1,-61.11145,1.4953613,1,-54.977417,0.36621094,1,-50.811768,-0.16784668,1
443,-58.425903,23.239136,1,-66.345215,19.500732,1,-56.3207626342773,14.9718990325928,1,-60.058594,1.4801025,1,-53.771973,0.45776367,1,-49.63684,0.030517578,1
444,-58.19702,23.452759,1,-66.14685,19.699097,1,-56.1576309204102,15.0930662155151,1,-58.944702,1.373291,1,-52.53601,0.39672852,1,-48.37036,-0.061035156,1
445,-58.059692,23.590088,1,-65.91797,19.836426,1,-55.9893913269043,15.1010913848877,1,-57.81555,1.2207031,1,-51.30005,0.19836426,1,-47.11914,-0.4119873,1
446,-57.922363,23.651123,1,-65.73486,19.91272,1,-55.9025421142578,14.9806308746338,1,-56.762695,1.0070801,1,-50.109863,-0.19836426,1,-45.913696,-0.9918213,1
447,-57.81555,23.57483,1,-65.56702,19.866943,1,-55.8469657897949,14.7171306610107,1,-55.81665,0.7171631,1,-49.02649,-0.76293945,1,-44.906616,-1.6784668,1
448,-57.769775,23.406982,1,-65.41443,19.77539,1,-55.8244323730469,14.3872575759888,1,-54.992676,0.4119873,1,-48.187256,-1.4648438,1,-44.128418,-2.5177002,1
449,-57.81555,23.254395,1,-65.2771,19.66858,1,-55.8758544921875,13.9574871063232,1,-54.30603,0.045776367,1,-47.546387,-2.1514893,1,-43.518066,-3.3721924,1
450,-57.754517,23.132324,1,-65.17029,19.515991,1,-55.9228096008301,13.5591354370117,1,-53.771973,-0.2746582,1,-47.027588,-2.7770996,1,-43.09082,-4.1656494,1
451,-57.754517,22.872925,1,-65.13977,19.226074,1,-55.995288848877,13.112286567688,1,-53.29895,-0.62561035,1,-46.6156,-3.5247803,1,-42.72461,-5.0201416,1
452,-57.86133,22.521973,1,-65.12451,18.90564,1,-56.1237297058105,12.5822010040283,1,-52.947998,-1.0528564,1,-46.38672,-4.3182373,1,-42.617798,-5.9661865,1
453,-57.922363,21.987915,1,-65.17029,18.478394,1,-56.3222961425781,11.942873954773,1,-52.841187,-1.6174316,1,-46.50879,-5.355835,1,-42.73987,-7.3242188,1
454,-57.9834,21.28601,1,-65.13977,17.929077,1,-56.5151977539063,11.1014308929443,1,-53.085327,-2.4719238,1,-47.11914,-6.866455,1,-43.426514,-9.185791,1
455,-58.09021,20.339966,1,-65.24658,17.150879,1,-56.7579078674316,10.1549940109253,1,-53.92456,-3.5552979,1,-48.40088,-8.529663,1,-44.906616,-11.0321045,1
456,-58.242798,19.28711,1,-65.42969,16.281128,1,-57.1226348876953,9.07052040100098,1,-55.389404,-4.8217773,1,-49.89624,-9.765625,1,-46.173096,-11.566162,1
457,-58.45642,18.081665,1,-65.7959,15.289307,1,-57.5172805786133,8.04607009887695,1,-56.549072,-5.92041,1,-50.933838,-10.574341,1,-47.088623,-11.764526,1
458,-58.761597,16.983032,1,-66.28418,14.221191,1,-57.7246055603027,7.31223487854004,1,-57.373047,-6.6833496,1,-51.589966,-10.879517,1,-47.790527,-11.779785,1
459,-59.143066,16.204834,1,-66.726685,13.214111,1,-57.6767196655274,6.96125936508179,1,-58.029175,-7.0343018,1,-52.230835,-11.062622,1,-48.294067,-11.825562,1
460,-59.4635,15.548706,1,-67.276,12.329102,1,-57.9322700500488,6.52438926696777,1,-58.83789,-7.446289,1,-52.856445,-11.184692,1,-48.950195,-11.871338,1
461,-59.783936,14.755249,1,-67.718506,11.398315,1,-58.1089782714844,6.04510498046875,1,-59.61609,-7.873535,1,-53.54309,-11.352539,1,-49.575806,-11.917114,1
462,-60.08911,14.099121,1,-68.115234,10.604858,1,-58.2973098754883,5.64417695999146,1,-60.317993,-8.2092285,1,-54.19922,-11.505127,1,-50.231934,-11.962891,1
463,-60.48584,13.534546,1,-68.496704,9.963989,1,-58.523983001709,5.32234907150269,1,-61.019897,-8.453369,1,-54.80957,-11.581421,1,-50.90332,-11.917114,1
464,-60.72998,13.183594,1,-68.80188,9.429932,1,-58.6949653625488,5.08823776245117,1,-61.676025,-8.590698,1,-55.41992,-11.688232,1,-51.52893,-11.962891,1
465,-61.080933,12.817383,1,-69.0918,9.002686,1,-58.8930931091309,4.88121891021729,1,-62.301636,-8.69751,1,-56.121826,-11.703491,1,-52.139282,-11.978149,1
466,-61.340332,12.588501,1,-69.366455,8.758545,1,-59.1284332275391,4.73576068878174,1,-62.911987,-8.743286,1,-56.671143,-11.734009,1,-52.749634,-11.962891,1
467,-61.660767,12.466431,1,-69.65637,8.529663,1,-59.353199005127,4.67678737640381,1,-63.49182,-8.69751,1,-57.296753,-11.703491,1,-53.40576,-11.962891,1
468,-61.88965,12.329102,1,-69.85474,8.422852,1,-59.5607719421387,4.54543828964233,1,-64.10217,-8.69751,1,-57.907104,-11.657715,1,-54.031372,-11.932373,1
469,-62.088013,12.268066,1,-70.114136,8.361816,1,-59.8120307922363,4.5060920715332,1,-64.63623,-8.636475,1,-58.48694,-11.581421,1,-54.626465,-11.901855,1
470,-62.332153,12.268066,1,-70.32776,8.392334,1,-60.0476379394531,4.47836685180664,1,-65.26184,-8.514404,1,-59.143066,-11.520386,1,-55.252075,-11.917114,1
471,-62.545776,12.252808,1,-70.58716,8.453369,1,-60.3251495361328,4.49216842651367,1,-65.76538,-8.407593,1,-59.7229,-11.489868,1,-55.892944,-11.901855,1
472,-62.683105,12.283325,1,-70.80078,8.544922,1,-60.5529937744141,4.54705953598022,1,-66.25366,-8.239746,1,-60.287476,-11.428833,1,-56.488037,-11.886597,1
473,-62.911987,12.374878,1,-71.014404,8.666992,1,-60.7828063964844,4.62788867950439,1,-66.77246,-8.026123,1,-60.85205,-11.33728,1,-57.06787,-11.901855,1
474,-63.049316,12.466431,1,-71.21277,8.850098,1,-61.038818359375,4.66790390014648,1,-67.26074,-7.873535,1,-61.462402,-11.3220215,1,-57.678223,-11.901855,1
475,-63.23242,12.557983,1,-71.44165,9.0789795,1,-61.3343200683594,4.73824977874756,1,-67.74902,-7.7056885,1,-61.99646,-11.199951,1,-58.31909,-11.886597,1
476,-63.339233,12.6953125,1,-71.624756,9.3688965,1,-61.5848426818848,4.8744330406189,1,-68.17627,-7.4768066,1,-62.530518,-11.138916,1,-58.86841,-11.886597,1
477,-63.476562,12.878418,1,-71.7926,9.658813,1,-61.8513832092285,4.95008563995361,1,-68.69507,-7.2631836,1,-63.095093,-11.077881,1,-59.448242,-11.886597,1
478,-63.583374,13.015747,1,-71.97571,9.933472,1,-62.1112594604492,5.06595754623413,1,-69.15283,-7.0343018,1,-63.705444,-11.001587,1,-60.043335,-11.901855,1
479,-63.75122,13.198853,1,-72.11304,10.223389,1,-62.3440322875977,5.16705560684204,1,-69.625854,-6.790161,1,-64.28528,-10.910034,1,-60.71472,-11.856079,1
480,-63.90381,13.305664,1,-72.29614,10.528564,1,-62.6099739074707,5.31530284881592,1,-70.02258,-6.5612793,1,-64.834595,-10.848999,1,-61.24878,-11.886597,1
481,-64.01062,13.458252,1,-72.47925,10.818481,1,-62.8827362060547,5.44195747375488,1,-70.48035,-6.3171387,1,-65.322876,-10.726929,1,-61.843872,-11.825562,1
482,-64.10217,13.626099,1,-72.525024,11.108398,1,-63.0333251953125,5.54892873764038,1,-70.86182,-6.0577393,1,-65.88745,-10.635376,1,-62.39319,-11.886597,1
483,-64.17847,13.748169,1,-72.60132,11.428833,1,-63.2422409057617,5.64889764785767,1,-71.258545,-5.8288574,1,-66.43677,-10.559082,1,-63.034058,-11.84082,1
484,-64.193726,13.916016,1,-72.5708,11.734009,1,-63.3470230102539,5.74052238464356,1,-71.640015,-5.5389404,1,-66.986084,-10.467529,1,-63.568115,-11.871338,1
485,-64.25476,14.022827,1,-72.54028,12.039185,1,-63.4800567626953,5.80121326446533,1,-72.03674,-5.279541,1,-67.474365,-10.3302,1,-64.16321,-11.856079,1
486,-64.22424,14.053345,1,-72.509766,12.268066,1,-63.6111526489258,5.80163860321045,1,-72.41821,-5.0811768,1,-68.03894,-10.269165,1,-64.77356,-11.871338,1
487,-64.208984,14.099121,1,-72.44873,12.4053955,1,-63.6982955932617,5.739821434021,1,-72.79968,-4.8980713,1,-68.573,-10.147095,1,-65.39917,-11.810303,1
488,-64.193726,14.11438,1,-72.43347,12.451172,1,-63.7659606933594,5.67811298370361,1,-73.19641,-4.6691895,1,-69.07654,-10.116577,1,-65.93323,-11.856079,1
489,-64.208984,14.099121,1,-72.402954,12.512207,1,-63.8633804321289,5.5785493850708,1,-73.54736,-4.5318604,1,-69.610596,-10.009766,1,-66.52832,-11.810303,1
490,-64.17847,14.007568,1,-72.37244,12.557983,1,-63.9482154846191,5.48461723327637,1,-73.898315,-4.3640137,1,-70.19043,-10.055542,1,-67.04712,-11.825562,1
491,-64.17847,14.007568,1,-72.387695,12.496948,1,-64.0264663696289,5.3492283821106,1,-74.3103,-4.1503906,1,-70.77026,-9.94873,1,-67.70325,-11.810303,1
492,-64.27002,14.0686035,1,-72.387695,12.466431,1,-64.1246719360352,5.20541477203369,1,-74.661255,-4.0130615,1,-71.243286,-9.918213,1,-68.222046,-11.810303,1
493,-64.315796,14.099121,1,-72.43347,12.435913,1,-64.246452331543,5.08930206298828,1,-75.01221,-3.8604736,1,-71.7926,-9.811401,1,-68.81714,-11.734009,1
494,-64.37683,14.160156,1,-72.509766,12.466431,1,-64.3926696777344,5.04263734817505,1,-75.39368,-3.616333,1,-72.37244,-9.689331,1,-69.45801,-11.734009,1
495,-64.52942,14.160156,1,-72.58606,12.4053955,1,-64.5146942138672,4.93190717697144,1,-75.72937,-3.4484863,1,-72.906494,-9.567261,1,-70.08362,-11.779785,1
496,-64.590454,14.144897,1,-72.647095,12.329102,1,-64.6478424072266,4.77847290039063,1,-76.09558,-3.2806396,1,-73.394775,-9.552002,1,-70.66345,-11.734009,1
497,-64.62097,14.099121,1,-72.69287,12.252808,1,-64.79833984375,4.59275007247925,1,-76.44653,-3.1738281,1,-73.94409,-9.414673,1,-71.22803,-11.688232,1
498,-64.63623,14.083862,1,-72.67761,12.207031,1,-64.8263931274414,4.50259399414063,1,-76.690674,-2.9296875,1,-74.43237,-9.277344,1,-71.7926,-11.642456,1
499,-64.60571,13.946533,1,-72.67761,12.069702,1,-64.8957366943359,4.29523468017578,1,-76.99585,-2.746582,1,-74.85962,-9.109497,1,-72.44873,-11.581421,1
500,-64.575195,13.778687,1,-72.631836,11.886597,1,-64.8375473022461,4.12457370758057,1,-77.194214,-2.456665,1,-75.36316,-8.926392,1,-72.96753,-11.535645,1
501,-64.4989,13.702393,1,-72.58606,11.657715,1,-64.6521987915039,4.03840827941895,1,-77.20947,-2.1514893,1,-75.805664,-8.651733,1,-73.69995,-11.33728,1
502,-64.39209,13.595581,1,-72.47925,11.566162,1,-64.6862945556641,3.80279421806335,1,-77.46887,-1.9073486,1,-76.26343,-8.453369,1,-74.645996,-11.276245,1
503,-64.37683,13.626099,1,-72.49451,11.672974,1,-64.6850967407227,3.92615914344788,1,-77.560425,-1.5716553,1,-76.6449,-8.148193,1,-75.36316,-11.123657,1
504,-64.34631,13.626099,1,-72.49451,11.734009,1,-64.6605224609375,4.01204347610474,1,-77.65198,-1.2054443,1,-77.01111,-7.7667236,1,-76.034546,-11.016846,1
505,-64.28528,13.824463,1,-72.55554,11.932373,1,-64.5185546875,4.4219331741333,1,-77.6062,-0.5493164,1,-77.11792,-7.1868896,1,-76.37024,-10.635376,1
506,-64.071655,14.083862,1,-72.47925,12.10022,1,-64.2332077026367,4.81991815567017,1,-77.57568,0.579834,1,-76.88904,-6.1035156,1,-76.18713,-9.94873,1
507,-63.964844,14.3585205,1,-72.387695,12.359619,1,-63.9431991577149,5.31047344207764,1,-77.48413,1.7547607,1,-76.034546,-4.837036,1,-74.96643,-8.972168,1
508,-63.78174,14.724731,1,-72.32666,12.680054,1,-63.7225112915039,5.82668256759644,1,-77.36206,2.670288,1,-74.798584,-3.4484863,1,-73.37952,-7.6141357,1
509,-63.674927,15.060425,1,-72.34192,13.076782,1,-63.557559967041,6.45598411560059,1,-77.1637,3.1585693,1,-73.62366,-2.3040771,1,-71.517944,-6.164551,1
510,-63.583374,15.50293,1,-72.23511,13.427734,1,-63.3250732421875,6.97704935073853,1,-76.73645,2.960205,1,-72.37244,-1.6174316,1,-69.71741,-5.004883,1
511,-63.461304,15.930176,1,-72.09778,13.73291,1,-63.0324096679688,7.50241661071777,1,-76.01929,2.2735596,1,-71.18225,-1.3885498,1,-68.115234,-4.348755,1
512,-63.354492,16.296387,1,-71.899414,14.022827,1,-62.7877044677734,7.86029672622681,1,-75.22583,1.4343262,1,-70.114136,-1.6021729,1,-66.711426,-4.135132,1
513,-63.217163,16.647339,1,-71.71631,14.23645,1,-62.4856491088867,8.2535572052002,1,-74.26453,0.6866455,1,-69.04602,-2.1209717,1,-65.38391,-4.1656494,1
514,-63.064575,16.952515,1,-71.48743,14.541626,1,-62.2511138916016,8.56746768951416,1,-73.287964,-0.045776367,1,-67.855835,-2.4108887,1,-64.086914,-4.2419434,1
515,-62.927246,17.303467,1,-71.380615,14.816284,1,-62.0153541564941,9.04637336730957,1,-72.28088,-0.47302246,1,-66.711426,-2.6855469,1,-62.820435,-4.211426,1
516,-62.713623,17.654419,1,-71.19751,15.029907,1,-61.704647064209,9.47242832183838,1,-71.28906,-0.7324219,1,-65.56702,-2.6397705,1,-61.660767,-4.0130615,1
517,-62.561035,17.990112,1,-70.98389,15.24353,1,-61.3686599731445,9.90054702758789,1,-70.40405,-0.79345703,1,-64.66675,-2.5634766,1,-60.577393,-3.753662,1
518,-62.438965,18.371582,1,-70.78552,15.441895,1,-61.0140495300293,10.390326499939,1,-69.59534,-0.6713867,1,-63.76648,-2.3345947,1,-59.7229,-3.3416748,1
519,-62.210083,18.78357,1,-70.5719,15.701294,1,-60.7329864501953,10.782374382019,1,-68.95447,-0.5493164,1,-63.049316,-2.090454,1,-58.929443,-3.0212402,1
520,-62.057495,19.195557,1,-70.29724,15.991211,1,-60.3846206665039,11.2225742340088,1,-68.32886,-0.30517578,1,-62.347412,-1.8157959,1,-58.242798,-2.6397705,1
521,-61.843872,19.65332,1,-70.06836,16.342163,1,-60.0809020996094,11.7323131561279,1,-67.67273,-0.030517578,1,-61.691284,-1.5258789,1,-57.540894,-2.319336,1
522,-61.691284,20.095825,1,-69.885254,16.677856,1,-59.8189544677734,12.2428150177002,1,-66.95557,0.19836426,1,-60.98938,-1.2054443,1,-56.83899,-1.9683838,1
523,-61.462402,20.599365,1,-69.64111,17.105103,1,-59.5539703369141,12.717658996582,1,-66.11633,0.35095215,1,-60.180664,-0.869751,1,-55.999756,-1.5106201,1
524,-61.24878,21.087646,1,-69.381714,17.456055,1,-59.219970703125,13.2442874908447,1,-65.15503,0.5645752,1,-59.11255,-0.5950928,1,-54.977417,-1.2054443,1
525,-61.065674,21.575928,1,-69.122314,17.89856,1,-58.9619102478027,13.6835765838623,1,-64.01062,0.62561035,1,-57.922363,-0.47302246,1,-53.710938,-1.0070801,1
526,-60.760498,21.957397,1,-68.80188,18.218994,1,-58.6627998352051,13.9529666900635,1,-62.805176,0.579834,1,-56.503296,-0.36621094,1,-52.352905,-0.88500977,1
527,-60.546875,22.277832,1,-68.51196,18.52417,1,-58.4064674377441,14.1791725158691,1,-61.538696,0.5340576,1,-55.130005,-0.39672852,1,-50.88806,-0.88500977,1
528,-60.272217,22.521973,1,-68.17627,18.844604,1,-58.1423225402832,14.3368453979492,1,-60.195923,0.48828125,1,-53.68042,-0.5340576,1,-49.468994,-1.0375977,1
529,-60.08911,22.705078,1,-67.840576,18.997192,1,-57.9015884399414,14.2837648391724,1,-58.914185,0.32043457,1,-52.261353,-0.7324219,1,-48.065186,-1.4038086,1
530,-59.829712,22.766113,1,-67.52014,19.119263,1,-57.713005065918,14.1372861862183,1,-57.678223,0.1373291,1,-50.949097,-1.083374,1,-46.783447,-1.8463135,1
531,-59.570312,22.81189,1,-67.12341,19.241333,1,-57.4926681518555,13.9263772964478,1,-56.610107,-0.045776367,1,-49.77417,-1.5563965,1,-45.62378,-2.4108887,1
532,-59.35669,22.766113,1,-66.81824,19.226074,1,-57.3509025573731,13.6252250671387,1,-55.55725,-0.2593994,1,-48.736572,-2.166748,1,-44.677734,-3.326416,1
533,-59.173584,22.68982,1,-66.43677,19.16504,1,-57.0916175842285,13.3626108169556,1,-54.763794,-0.44250488,1,-47.958374,-2.9296875,1,-43.96057,-4.272461,1
534,-58.99048,22.521973,1,-66.17737,19.012451,1,-57.0076026916504,12.9366464614868,1,-54.122925,-0.76293945,1,-47.424316,-3.7994385,1,-43.563843,-5.1879883,1
535,-58.761597,22.232056,1,-65.90271,18.78357,1,-56.8387794494629,12.5509777069092,1,-53.726196,-1.0986328,1,-47.317505,-4.562378,1,-43.395996,-6.4849854,1
536,-58.639526,21.774292,1,-65.76538,18.4021,1,-56.8562431335449,11.9501762390137,1,-53.588867,-1.663208,1,-47.424316,-5.7525635,1,-43.655396,-7.8582764,1
537,-58.57849,21.1792,1,-65.64331,17.929077,1,-56.9396171569824,11.202579498291,1,-53.80249,-2.4414062,1,-48.00415,-7.1105957,1,-44.3573,-9.475708,1
538,-58.517456,20.401001,1,-65.5365,17.318726,1,-57.1488494873047,10.2020320892334,1,-54.473877,-3.540039,1,-49.057007,-8.636475,1,-45.562744,-11.001587,1
539,-58.47168,19.454956,1,-65.50598,16.601562,1,-57.2536773681641,9.3283576965332,1,-55.770874,-4.5928955,1,-50.430298,-9.70459,1,-46.691895,-11.428833,1
540,-58.502197,18.539429,1,-65.52124,15.884399,1,-57.4206619262695,8.44258403778076,1,-56.70166,-5.5389404,1,-51.28479,-10.269165,1,-47.409058,-11.566162,1
541,-58.517456,17.822266,1,-65.65857,15.136719,1,-57.2988586425781,7.98722839355469,1,-57.44934,-6.011963,1,-51.956177,-10.513306,1,-48.065186,-11.581421,1
542,-58.624268,17.364502,1,-65.85693,14.587402,1,-57.2181549072266,7.77774477005005,1,-58.09021,-6.1950684,1,-52.612305,-10.559082,1,-48.675537,-11.627197,1
543,-58.746338,16.906738,1,-66.085815,14.083862,1,-57.2899780273437,7.47831439971924,1,-58.807373,-6.439209,1,-53.19214,-10.696411,1,-49.25537,-11.688232,1
544,-58.85315,16.403198,1,-66.37573,13.580322,1,-57.4643898010254,7.13144683837891,1,-59.539795,-6.713867,1,-53.81775,-10.803223,1,-49.9115,-11.657715,1
545,-59.08203,15.869141,1,-66.68091,13.076782,1,-57.6180534362793,6.84263229370117,1,-60.22644,-6.9122314,1,-54.55017,-10.894775,1,-50.55237,-11.703491,1
546,-59.249878,15.396118,1,-66.92505,12.512207,1,-57.6601142883301,6.58253288269043,1,-60.913086,-7.0343018,1,-55.17578,-10.971069,1,-51.132202,-11.688232,1
547,-59.387207,14.953613,1,-67.230225,12.10022,1,-57.8464813232422,6.36041307449341,1,-61.49292,-7.156372,1,-55.786133,-10.955811,1,-51.818848,-11.688232,1
548,-59.555054,14.633179,1,-67.489624,11.672974,1,-57.9616394042969,6.17593097686768,1,-62.088013,-7.2021484,1,-56.411743,-10.955811,1,-52.41394,-11.734009,1
549,-59.768677,14.389038,1,-67.76428,11.444092,1,-58.1932754516602,6.02229261398315,1,-62.74414,-7.217407,1,-57.037354,-10.986328,1,-53.024292,-11.688232,1
550,-59.951782,14.205933,1,-68.06946,11.276245,1,-58.4142036437988,6.00594902038574,1,-63.308716,-7.1105957,1,-57.632446,-10.986328,1,-53.649902,-11.703491,1
551,-60.195923,14.099121,1,-68.40515,11.230469,1,-58.749641418457,5.9606294631958,1,-63.842773,-7.080078,1,-58.258057,-10.955811,1,-54.275513,-11.71875,1
552,-60.37903,14.099121,1,-68.725586,11.230469,1,-59.068962097168,5.96267366409302,1,-64.42261,-6.9732666,1,-58.82263,-10.910034,1,-54.901123,-11.688232,1
553,-60.668945,14.083862,1,-69.0155,11.291504,1,-59.388427734375,5.96991395950317,1,-64.94141,-6.881714,1,-59.432983,-10.894775,1,-55.57251,-11.734009,1
554,-60.913086,14.175415,1,-69.32068,11.383057,1,-59.6783599853516,6.0891227722168,1,-65.44495,-6.668091,1,-59.9823,-10.772705,1,-56.152344,-11.734009,1
555,-61.11145,14.221191,1,-69.5343,11.535645,1,-59.9649696350098,6.11089611053467,1,-65.94849,-6.5460205,1,-60.577393,-10.787964,1,-56.777954,-11.688232,1
556,-61.309814,14.312744,1,-69.77844,11.71875,1,-60.2380294799805,6.24329900741577,1,-66.42151,-6.3171387,1,-61.172485,-10.665894,1,-57.388306,-11.734009,1
557,-61.431885,14.404297,1,-69.97681,11.886597,1,-60.4951934814453,6.30995655059814,1,-66.90979,-6.134033,1,-61.73706,-10.5896,1,-58.013916,-11.734009,1
558,-61.59973,14.49585,1,-70.14465,12.039185,1,-60.6946029663086,6.40920877456665,1,-67.38281,-5.8898926,1,-62.301636,-10.482788,1,-58.670044,-11.703491,1
559,-61.691284,14.663696,1,-70.20569,12.313843,1,-60.8503379821777,6.52787971496582,1,-67.76428,-5.645752,1,-62.835693,-10.360718,1,-59.23462,-11.734009,1
560,-61.798096,14.801025,1,-70.3125,12.573242,1,-61.0528182983398,6.63536882400513,1,-68.17627,-5.41687,1,-63.339233,-10.269165,1,-59.829712,-11.657715,1
561,-61.843872,14.968872,1,-70.3125,12.863159,1,-61.1611633300781,6.75962543487549,1,-68.55774,-5.126953,1,-63.934326,-10.192871,1,-60.440063,-11.688232,1
562,-61.85913,15.182495,1,-70.3125,13.122559,1,-61.2963829040527,6.82099723815918,1,-68.90869,-4.928589,1,-64.42261,-10.070801,1,-61.00464,-11.627197,1
563,-61.85913,15.411377,1,-70.251465,13.366699,1,-61.2989807128906,6.97506952285767,1,-69.229126,-4.562378,1,-64.94141,-9.979248,1,-61.553955,-11.642456,1
564,-61.843872,15.563965,1,-70.15991,13.656616,1,-61.3430786132813,7.07912874221802,1,-69.47327,-4.3182373,1,-65.44495,-9.841919,1,-62.149048,-11.581421,1
565,-61.798096,15.701294,1,-70.08362,13.900757,1,-61.3806457519531,7.17333126068115,1,-69.77844,-4.0283203,1,-65.963745,-9.674072,1,-62.7594,-11.581421,1
566,-61.73706,15.975952,1,-69.91577,14.160156,1,-61.320426940918,7.29574823379517,1,-70.0531,-3.6468506,1,-66.39099,-9.597778,1,-63.2782,-11.581421,1
567,-61.59973,16.12854,1,-69.76318,14.450073,1,-61.3492202758789,7.36450672149658,1,-70.29724,-3.40271,1,-66.86401,-9.475708,1,-63.88855,-11.489868,1
568,-61.47766,16.25061,1,-69.5343,14.678955,1,-61.3136901855469,7.36994981765747,1,-70.54138,-3.1585693,1,-67.32178,-9.338379,1,-64.40735,-11.520386,1
569,-61.340332,16.37268,1,-69.39697,14.892578,1,-61.3092956542969,7.43674087524414,1,-70.78552,-2.8686523,1,-67.82532,-9.170532,1,-65.00244,-11.474609,1
570,-61.187744,16.433716,1,-69.244385,14.984131,1,-61.236930847168,7.44219970703125,1,-71.06018,-2.532959,1,-68.26782,-9.0789795,1,-65.55176,-11.428833,1
571,-61.050415,16.555786,1,-69.07654,15.090942,1,-61.2129592895508,7.39912128448486,1,-71.31958,-2.2888184,1,-68.77136,-8.895874,1,-66.14685,-11.383057,1
572,-60.836792,16.571045,1,-68.95447,15.24353,1,-61.1603775024414,7.48130512237549,1,-71.517944,-1.9378662,1,-69.229126,-8.682251,1,-66.68091,-11.33728,1
573,-60.71472,16.693115,1,-68.81714,15.396118,1,-61.1915893554688,7.46825313568115,1,-71.77734,-1.6937256,1,-69.70215,-8.43811,1,-67.276,-11.3220215,1
574,-60.60791,16.723633,1,-68.67981,15.487671,1,-61.1950721740723,7.42672824859619,1,-72.021484,-1.449585,1,-70.09888,-8.300781,1,-67.840576,-11.260986,1
575,-60.47058,16.693115,1,-68.618774,15.533447,1,-61.2047462463379,7.40743207931519,1,-72.265625,-1.1749268,1,-70.5719,-8.102417,1,-68.359375,-11.169434,1
576,-60.36377,16.63208,1,-68.496704,15.441895,1,-61.1673164367676,7.23945331573486,1,-72.525024,-0.9460449,1,-71.02966,-7.965088,1,-68.89343,-11.09314,1
577,-60.2417,16.51001,1,-68.359375,15.365601,1,-61.2288246154785,6.98972415924072,1,-72.84546,-0.8239746,1,-71.44165,-7.7819824,1,-69.41223,-11.062622,1
578,-59.9823,16.37268,1,-68.16101,15.258789,1,-61.0256614685059,6.88700199127197,1,-72.906494,-0.5187988,1,-71.899414,-7.5531006,1,-70.09888,-10.894775,1
579,-59.84497,16.189575,1,-67.977905,14.984131,1,-60.8071174621582,6.64268302917481,1,-73.013306,-0.21362305,1,-72.402954,-7.3394775,1,-70.90759,-10.864258,1
580,-59.646606,15.991211,1,-67.7948,14.724731,1,-60.5477447509766,6.44945573806763,1,-73.028564,0.10681152,1,-72.67761,-7.080078,1,-71.48743,-10.681152,1
581,-59.448242,15.853882,1,-67.596436,14.511108,1,-60.1870994567871,6.38081026077271,1,-72.92175,0.5645752,1,-72.92175,-6.6070557,1,-72.08252,-10.421753,1
582,-59.32617,15.975952,1,-67.50488,14.389038,1,-59.6844329833984,6.65337038040161,1,-72.631836,1.3275146,1,-72.72339,-5.7525635,1,-72.387695,-9.811401,1
583,-59.09729,16.12854,1,-67.36755,14.3585205,1,-59.3213577270508,6.85793828964233,1,-72.61658,2.4719238,1,-72.08252,-4.562378,1,-71.7926,-8.865356,1
584,-58.95996,16.342163,1,-67.32178,14.450073,1,-58.9010162353516,7.37259006500244,1,-72.387695,3.616333,1,-70.95337,-3.2806396,1,-70.28198,-7.598877,1
585,-58.82263,16.662598,1,-67.30652,14.709473,1,-58.6659622192383,7.90206384658814,1,-72.23511,4.4555664,1,-69.68689,-1.9226074,1,-68.40515,-6.149292,1
586,-58.73108,16.967773,1,-67.230225,15.060425,1,-58.5611343383789,8.28939056396484,1,-72.17407,5.0201416,1,-68.618774,-0.5645752,1,-66.55884,-4.501343,1
587,-58.624268,17.288208,1,-67.18445,15.350342,1,-58.5022430419922,8.59613513946533,1,-72.143555,5.4473877,1,-67.87109,0.62561035,1,-65.50598,-3.0822754,1
588,-58.517456,17.684937,1,-67.07764,15.701294,1,-58.3590469360352,8.99411392211914,1,-71.94519,5.6152344,1,-67.52014,1.3275146,1,-64.834595,-2.1972656,1
589,-58.45642,18.203735,1,-67.04712,16.098022,1,-58.1971588134766,9.56516075134277,1,-71.56372,5.4016113,1,-67.0166,1.4648438,1,-64.13269,-1.739502,1
590,-58.45642,18.737793,1,-66.95557,16.555786,1,-57.9794158935547,10.1974277496338,1,-70.96863,4.974365,1,-66.207886,1.4648438,1,-63.0188,-1.3122559,1
591,-58.36487,19.302368,1,-66.94031,16.906738,1,-57.7223815917969,10.9042530059814,1,-70.06836,4.3029785,1,-65.03296,1.449585,1,-61.553955,-0.8392334,1
592,-58.33435,19.805908,1,-66.848755,17.303467,1,-57.4619140625,11.5687274932861,1,-69.0155,3.6621094,1,-63.674927,1.3427734,1,-59.906006,-0.5340576,1
593,-58.22754,20.217896,1,-66.81824,17.623901,1,-57.2690010070801,12.1638622283936,1,-67.96265,3.1280518,1,-62.39319,1.2207031,1,-58.441162,-0.35095215,1
594,-58.19702,20.6604,1,-66.69617,17.929077,1,-57.0293350219727,12.6800413131714,1,-66.986084,2.8381348,1,-61.279297,1.0986328,1,-57.22046,-0.289917,1
595,-58.135986,21.072388,1,-66.65039,18.096924,1,-56.8600158691406,13.0820960998535,1,-66.11633,2.5787354,1,-60.272217,1.0223389,1,-56.243896,-0.19836426,1
596,-58.10547,21.392822,1,-66.55884,18.310547,1,-56.6772804260254,13.4778690338135,1,-65.36865,2.5024414,1,-59.539795,1.0375977,1,-55.41992,0,1
597,-57.96814,21.636963,1,-66.42151,18.539429,1,-56.4814262390137,13.8283071517944,1,-64.77356,2.5482178,1,-58.86841,1.2359619,1,-54.82483,0.32043457,1
598,-57.876587,21.896362,1,-66.3147,18.676758,1,-56.2940063476563,14.1396045684814,1,-64.30054,2.6550293,1,-58.380127,1.4648438,1,-54.260254,0.5340576,1
599,-57.724,22.109985,1,-66.13159,18.859863,1,-56.0659866333008,14.4232444763184,1,-63.90381,2.822876,1,-57.96814,1.6174316,1,-53.756714,0.869751,1
600,-57.58667,22.323608,1,-66.00952,18.981934,1,-55.8848876953125,14.6817359924316,1,-63.446045,2.89917,1,-57.495117,1.8310547,1,-53.237915,1.0681152,1
601,-57.540894,22.567749,1,-65.93323,19.073486,1,-55.6983337402344,15.0427398681641,1,-62.74414,2.9449463,1,-56.732178,1.9836426,1,-52.55127,1.2054443,1
602,-57.47986,22.735596,1,-65.719604,19.104004,1,-55.4477043151856,15.1685199737549,1,-61.904907,2.746582,1,-55.83191,1.9989014,1,-51.620483,1.373291,1
603,-57.357788,22.888184,1,-65.582275,19.180298,1,-55.2846984863281,15.3124923706055,1,-60.684204,2.39563,1,-54.641724,1.8157959,1,-50.430298,1.3580322,1
604,-57.281494,23.05603,1,-65.36865,19.195557,1,-55.0344390869141,15.4267425537109,1,-59.34143,2.105713,1,-53.16162,1.4953613,1,-48.965454,1.1749268,1
605,-57.18994,23.162842,1,-65.17029,19.256592,1,-54.8736534118652,15.3862724304199,1,-57.998657,1.739502,1,-51.66626,1.2054443,1,-47.439575,0.8544922,1
606,-57.09839,23.1781,1,-64.971924,19.256592,1,-54.702449798584,15.3147735595703,1,-56.640625,1.449585,1,-50.125122,0.8392334,1,-45.898438,0.35095215,1
607,-57.052612,23.19336,1,-64.819336,19.241333,1,-54.6532554626465,15.0400438308716,1,-55.252075,1.0528564,1,-48.599243,0.35095215,1,-44.37256,-0.076293945,1
608,-56.915283,23.147583,1,-64.54468,19.256592,1,-54.4954414367676,14.7830238342285,1,-53.95508,0.79345703,1,-47.164917,-0.12207031,1,-42.938232,-0.76293945,1
609,-56.732178,23.025513,1,-64.28528,19.226074,1,-54.4660377502441,14.2680006027222,1,-52.81067,0.36621094,1,-45.913696,-0.6866455,1,-41.763306,-1.4190674,1
610,-56.6864,22.918701,1,-64.071655,19.104004,1,-54.3505096435547,13.9562501907349,1,-51.92566,0.16784668,1,-44.96765,-1.2664795,1,-40.863037,-2.1209717,1
611,-56.57959,22.81189,1,-63.827515,18.966675,1,-54.2094497680664,13.6288089752197,1,-51.208496,-0.045776367,1,-44.281006,-1.8310547,1,-40.19165,-2.8381348,1
612,-56.488037,22.720337,1,-63.61389,18.875122,1,-54.0951919555664,13.3620080947876,1,-50.735474,-0.22888184,1,-43.823242,-2.532959,1,-39.764404,-3.5858154,1
613,-56.411743,22.55249,1,-63.50708,18.737793,1,-54.1997985839844,12.8748149871826,1,-50.27771,-0.5645752,1,-43.45703,-3.4179688,1,-39.535522,-4.714966,1
614,-56.259155,22.18628,1,-63.308716,18.493652,1,-54.1649055480957,12.3788566589355,1,-50.064087,-1.0070801,1,-43.59436,-4.501343,1,-39.642334,-6.2408447,1
615,-56.18286,21.68274,1,-63.095093,18.188477,1,-54.2856712341309,11.6010580062866,1,-50.186157,-1.7852783,1,-44.11316,-5.92041,1,-40.283203,-7.9956055,1
616,-56.07605,21.04187,1,-62.98828,17.745972,1,-54.4495964050293,10.8112154006958,1,-50.842285,-2.7160645,1,-45.10498,-7.507324,1,-41.59546,-10.101318,1
617,-56.106567,20.17212,1,-63.00354,17.105103,1,-54.8061332702637,9.77008247375488,1,-51.956177,-3.9367676,1,-46.64612,-9.20105,1,-43.07556,-11.428833,1
618,-56.09131,19.256592,1,-63.034058,16.479492,1,-55.1588821411133,8.79954528808594,1,-53.222656,-5.065918,1,-47.88208,-10.177612,1,-44.143677,-11.688232,1
619,-56.21338,18.463135,1,-63.24768,15.74707,1,-55.2765617370605,8.16674995422363,1,-54.092407,-5.783081,1,-48.62976,-10.559082,1,-44.75403,-11.810303,1
620,-56.427002,17.89856,1,-63.552856,15.167236,1,-55.3369445800781,7.85294628143311,1,-54.733276,-6.134033,1,-49.240112,-10.71167,1,-45.394897,-11.856079,1
621,-56.59485,17.471313,1,-63.827515,14.633179,1,-55.3644027709961,7.60638904571533,1,-55.43518,-6.3934326,1,-49.819946,-10.803223,1,-45.928955,-11.932373,1
622,-56.777954,16.87622,1,-64.16321,14.129639,1,-55.6220054626465,7.19797992706299,1,-56.19812,-6.790161,1,-50.50659,-10.925293,1,-46.585083,-11.901855,1
623,-56.915283,16.235352,1,-64.4989,13.519287,1,-55.8094444274902,6.77441549301147,1,-57.037354,-7.171631,1,-51.16272,-11.108398,1,-47.195435,-11.962891,1
624,-57.22046,15.640259,1,-64.88037,12.8479,1,-55.9198760986328,6.46749782562256,1,-57.724,-7.4157715,1,-51.834106,-11.184692,1,-47.821045,-11.932373,1
625,-57.418823,15.136719,1,-65.24658,12.252808,1,-56.035945892334,6.23913764953613,1,-58.34961,-7.5683594,1,-52.459717,-11.276245,1,-48.446655,-12.008667,1
626,-57.70874,14.694214,1,-65.67383,11.749268,1,-56.3031311035156,5.98819065093994,1,-58.99048,-7.751465,1,-53.100586,-11.367798,1,-49.102783,-11.993408,1
627,-58.013916,14.297485,1,-66.04004,11.276245,1,-56.4870491027832,5.82276916503906,1,-59.661865,-7.8125,1,-53.710938,-11.398315,1,-49.697876,-11.932373,1
628,-58.273315,13.977051,1,-66.42151,10.879517,1,-56.7181358337402,5.69834518432617,1,-60.272217,-7.8430176,1,-54.336548,-11.367798,1,-50.369263,-11.978149,1
629,-58.60901,13.687134,1,-66.77246,10.681152,1,-57.0434188842773,5.54834747314453,1,-60.86731,-7.9193115,1,-54.977417,-11.398315,1,-50.979614,-12.008667,1
630,-58.914185,13.580322,1,-67.108154,10.543823,1,-57.2974472045898,5.56887865066528,1,-61.462402,-7.797241,1,-55.55725,-11.367798,1,-51.66626,-12.008667,1
631,-59.173584,13.580322,1,-67.45911,10.543823,1,-57.6560935974121,5.55374145507813,1,-62.01172,-7.751465,1,-56.167603,-11.291504,1,-52.29187,-12.008667,1
632,-59.47876,13.519287,1,-67.77954,10.650635,1,-57.9657363891602,5.68180704116821,1,-62.530518,-7.5531006,1,-56.732178,-11.3220215,1,-52.90222,-12.008667,1
633,-59.7229,13.656616,1,-68.13049,10.864258,1,-58.3687591552734,5.79389572143555,1,-63.049316,-7.4005127,1,-57.34253,-11.21521,1,-53.512573,-11.978149,1
634,-60.043335,13.763428,1,-68.42041,11.047363,1,-58.6952514648438,5.90719604492188,1,-63.568115,-7.217407,1,-57.907104,-11.138916,1,-54.107666,-12.008667,1
635,-60.34851,13.931274,1,-68.7561,11.276245,1,-59.1181907653809,5.97430229187012,1,-64.0564,-7.1258545,1,-58.45642,-11.09314,1,-54.718018,-11.993408,1
636,-60.562134,14.007568,1,-69.06128,11.566162,1,-59.5017127990723,6.12422466278076,1,-64.60571,-6.9122314,1,-59.11255,-11.047363,1,-55.389404,-11.978149,1
637,-60.821533,14.160156,1,-69.244385,11.749268,1,-59.7393188476562,6.2126898765564,1,-65.078735,-6.729126,1,-59.70764,-10.971069,1,-55.95398,-11.993408,1
638,-60.98938,14.282227,1,-69.488525,12.023926,1,-60.1337776184082,6.23698425292969,1,-65.597534,-6.652832,1,-60.256958,-10.910034,1,-56.57959,-11.978149,1
639,-61.172485,14.328003,1,-69.65637,12.252808,1,-60.3636093139648,6.36685276031494,1,-66.0553,-6.42395,1,-60.775757,-10.818481,1,-57.18994,-11.901855,1
640,-61.35559,14.480591,1,-69.7937,12.451172,1,-60.5811958312988,6.44036245346069,1,-66.51306,-6.2408447,1,-61.340332,-10.772705,1,-57.754517,-11.978149,1
641,-61.523438,14.633179,1,-69.869995,12.680054,1,-60.749885559082,6.52996397018433,1,-66.970825,-6.011963,1,-61.920166,-10.681152,1,-58.395386,-11.901855,1
642,-61.645508,14.755249,1,-69.97681,12.939453,1,-60.9630470275879,6.63451957702637,1,-67.42859,-5.783081,1,-62.5,-10.574341,1,-58.95996,-11.978149,1
