LauraSchoenhals/autogait_trial/V3Off_Levelwalk/V3Off_Mouse502_levelwalk_Run1-6DLC-JointTracking.csv
scorer,DLC_JointTracking,DLC_JointTracking,DLC_JointTracking,DLC_JointTracking,DLC_JointTracking,DLC_JointTracking,DLC_JointTracking,DLC_JointTracking,DLC_JointTracking,DLC_JointTracking,DLC_JointTracking,DLC_JointTracking,DLC_JointTracking,DLC_JointTracking,DLC_JointTracking,DLC_JointTracking,DLC_JointTracking,DLC_JointTracking
bodyparts,Crest,Crest,Crest,Hip,Hip,Hip,Knee,Knee,Knee,Ankle,Ankle,Ankle,Metatarsal,Metatarsal,Metatarsal,ToeTip,ToeTip,ToeTip
coords,x,y,likelihood,x,y,likelihood,x,y,likelihood,x,y,likelihood,x,y,likelihood,x,y,likelihood
0,-54.397583,19.241333,1,-62.545776,11.184692,1,-53.5397872924805,3.25423121452332,1,-64.89563,-6.5460205,1,-60.455322,-9.796143,1,-54.79431,-11.703491,1
1,-53.771973,19.226074,1,-62.072754,11.383057,1,-53.4462394714356,3.04140043258667,1,-65.2771,-6.1798096,1,-61.019897,-9.658813,1,-55.511475,-11.642456,1
2,-53.03955,19.104004,1,-61.63025,11.444092,1,-53.2776794433594,2.82814145088196,1,-65.61279,-5.706787,1,-61.49292,-9.490967,1,-56.06079,-11.642456,1
3,-52.29187,18.89038,1,-61.157227,11.459351,1,-53.0884628295898,2.57706093788147,1,-65.85693,-5.2948,1,-62.01172,-9.3688965,1,-56.70166,-11.59668,1
4,-51.452637,18.737793,1,-60.455322,11.398315,1,-52.8189888000488,2.14161992073059,1,-66.04004,-4.9438477,1,-62.469482,-9.155273,1,-57.296753,-11.627197,1
5,-50.53711,18.508911,1,-59.829712,11.33728,1,-52.4728660583496,1.85694241523743,1,-66.101074,-4.40979,1,-62.88147,-9.002686,1,-57.95288,-11.581421,1
6,-49.49951,18.295288,1,-59.066772,11.245728,1,-52.1800651550293,1.41855621337891,1,-66.16211,-4.0130615,1,-63.2782,-8.758545,1,-58.547974,-11.611938,1
7,-48.583984,18.112183,1,-58.21228,11.169434,1,-51.7191848754883,1.07786560058594,1,-66.02478,-3.4332275,1,-63.64441,-8.4991455,1,-59.143066,-11.566162,1
8,-47.60742,17.89856,1,-57.388306,11.0321045,1,-51.2946929931641,0.694412231445313,1,-65.88745,-2.7770996,1,-63.812256,-8.163452,1,-59.661865,-11.489868,1
9,-46.63086,17.745972,1,-56.45752,10.940552,1,-50.7591247558594,0.379854679107666,1,-65.55176,-2.105713,1,-64.071655,-7.6141357,1,-60.165405,-11.3220215,1
10,-45.74585,17.654419,1,-55.618286,10.925293,1,-50.1539916992188,0.241589546203613,1,-65.06348,-1.4038086,1,-64.13269,-7.1105957,1,-60.59265,-11.21521,1
11,-44.906616,17.669678,1,-54.763794,11.0321045,1,-49.3626136779785,0.316357135772705,1,-64.331055,-0.6561279,1,-63.99536,-6.5307617,1,-60.98938,-10.910034,1
12,-44.006348,17.76123,1,-53.894043,11.184692,1,-48.5071411132813,0.461761474609375,1,-63.50708,0.50354004,1,-63.583374,-5.5389404,1,-61.09619,-10.498047,1
13,-43.151855,17.8833,1,-53.05481,11.489868,1,-47.605541229248,0.798495292663574,1,-62.561035,1.953125,1,-62.042236,-3.8452148,1,-60.440063,-9.94873,1
14,-42.312622,18.081665,1,-52.108765,11.84082,1,-46.3736190795899,1.30003452301025,1,-61.294556,2.8381348,1,-59.539795,-2.3651123,1,-58.36487,-8.590698,1
15,-41.381836,18.295288,1,-51.086426,12.22229,1,-44.89208984375,1.94463634490967,1,-59.829712,3.3111572,1,-57.18994,-1.4953613,1,-55.08423,-7.232666,1
16,-40.420532,18.569946,1,-49.987793,12.557983,1,-43.1611785888672,2.68897294998169,1,-58.151245,3.2348633,1,-54.641724,-0.869751,1,-51.635742,-6.1798096,1
17,-39.520264,18.936157,1,-48.934937,12.908936,1,-41.3250732421875,3.63046646118164,1,-56.30493,2.8533936,1,-52.06299,-0.5493164,1,-48.40088,-5.279541,1
18,-38.5437,19.39392,1,-47.805786,13.168335,1,-39.3202705383301,4.68328666687012,1,-54.107666,2.166748,1,-49.453735,-0.32043457,1,-44.952393,-4.425049,1
19,-37.628174,19.866943,1,-46.676636,13.412476,1,-37.3226318359375,5.89565420150757,1,-51.605225,1.3122559,1,-46.47827,-0.289917,1,-41.366577,-3.4484863,1
20,-36.68213,20.462036,1,-45.455933,13.641357,1,-35.2338943481445,7.35566806793213,1,-48.75183,0.8544922,1,-43.624878,-0.35095215,1,-37.857056,-2.532959,1
21,-35.78186,21.240234,1,-44.158936,13.885498,1,-33.4691390991211,8.43313217163086,1,-46.066284,0.289917,1,-40.55786,-0.47302246,1,-34.484863,-1.953125,1
22,-34.942627,22.018433,1,-42.907715,14.190674,1,-31.8399543762207,9.5533561706543,1,-42.800903,-0.6866455,1,-37.216187,-0.5950928,1,-30.9906,-1.3427734,1
23,-34.04236,22.750854,1,-41.519165,14.511108,1,-30.1062316894531,10.8036890029907,1,-39.215088,-1.1138916,1,-33.721924,-0.62561035,1,-27.328491,-0.7324219,1
24,-33.218384,23.406982,1,-40.222168,14.785767,1,-28.5816612243652,11.8705253601074,1,-35.53772,-1.4190674,1,-30.10559,-0.5187988,1,-23.81897,-0.21362305,1
25,-32.36389,23.94104,1,-39.001465,15.029907,1,-27.2113075256348,12.7955894470215,1,-32.13501,-1.373291,1,-26.550293,-0.30517578,1,-20.187378,0.21362305,1
26,-31.555176,24.32251,1,-37.81128,15.24353,1,-25.9525718688965,13.4074792861938,1,-28.915405,-1.2969971,1,-23.31543,-0.15258789,1,-16.937256,0.50354004,1
27,-30.807495,24.536133,1,-36.575317,15.319824,1,-24.7281227111816,13.4109144210815,1,-26.260376,-1.5106201,1,-20.446777,-0.39672852,1,-14.221191,0.32043457,1
28,-29.953003,24.520874,1,-35.583496,15.12146,1,-23.7621555328369,13.0584726333618,1,-24.093628,-1.9378662,1,-18.02063,-1.5258789,1,-11.749268,-0.9918213,1
29,-29.190063,24.291992,1,-34.439087,14.73999,1,-22.7061805725098,12.2222595214844,1,-22.567749,-2.7770996,1,-16.159058,-3.2958984,1,-9.841919,-3.6010742,1
30,-28.320312,23.925781,1,-33.40149,14.175415,1,-21.7532920837402,11.2910652160645,1,-21.575928,-3.7078857,1,-15.182495,-5.432129,1,-8.926392,-6.7749023,1
31,-27.313232,23.498535,1,-32.440186,13.458252,1,-20.8847599029541,10.2221832275391,1,-21.118164,-4.776001,1,-14.877319,-7.369995,1,-8.758545,-9.521484,1
32,-26.382446,22.81189,1,-31.570435,12.649536,1,-20.103084564209,9.1140193939209,1,-20.996094,-5.859375,1,-15.060425,-9.063721,1,-9.048462,-11.276245,1
33,-25.466919,21.942139,1,-30.929565,11.779785,1,-19.5197048187256,8.06291770935059,1,-21.820068,-6.7596436,1,-15.991211,-9.613037,1,-9.780884,-11.520386,1
34,-24.765015,21.057129,1,-30.426025,10.910034,1,-19.0156192779541,7.19484329223633,1,-22.476196,-7.4005127,1,-16.815186,-9.933472,1,-10.772705,-11.520386,1
35,-24.139404,20.17212,1,-30.059814,10.070801,1,-18.5488090515137,6.68011474609375,1,-22.949219,-7.659912,1,-17.410278,-9.933472,1,-11.016846,-11.520386,1
36,-23.6969,19.485474,1,-29.800415,9.353638,1,-18.2128524780273,6.23459911346436,1,-23.391724,-7.8430176,1,-18.005371,-10.040283,1,-11.749268,-11.520386,1
37,-23.31543,18.920898,1,-29.434204,8.7890625,1,-17.8389739990234,5.69864940643311,1,-23.925781,-8.010864,1,-18.554688,-10.070801,1,-12.237549,-11.520386,1
38,-22.827148,18.447876,1,-29.11377,8.331299,1,-17.5385284423828,5.16683959960938,1,-24.475098,-8.132935,1,-19.226074,-10.1623535,1,-12.72583,-11.505127,1
39,-22.338867,17.974854,1,-28.808594,7.888794,1,-17.2483787536621,4.66988372802734,1,-24.963379,-8.19397,1,-19.836426,-10.147095,1,-13.458252,-11.505127,1
40,-21.957397,17.608643,1,-28.503418,7.598877,1,-16.9986724853516,4.18701457977295,1,-25.466919,-8.19397,1,-20.507812,-10.238647,1,-13.961792,-11.505127,1
41,-21.530151,17.440796,1,-28.320312,7.537842,1,-16.9043502807617,3.83976030349731,1,-26.000977,-8.087158,1,-21.026611,-10.177612,1,-14.61792,-11.413574,1
42,-21.148682,17.471313,1,-28.198242,7.7209473,1,-16.9122848510742,3.64329814910889,1,-26.504517,-7.888794,1,-21.606445,-10.131836,1,-15.213013,-11.474609,1
43,-20.78247,17.654419,1,-28.182983,8.132935,1,-17.070240020752,3.60447382926941,1,-26.992798,-7.6446533,1,-22.18628,-10.055542,1,-15.823364,-11.474609,1
44,-20.41626,17.959595,1,-28.182983,8.651733,1,-17.2555751800537,3.69272828102112,1,-27.435303,-7.3242188,1,-22.67456,-9.918213,1,-16.448975,-11.520386,1
45,-20.111084,18.417358,1,-28.213501,9.338379,1,-17.5098915100098,3.91318607330322,1,-27.893066,-6.9122314,1,-23.223877,-9.872437,1,-17.01355,-11.489868,1
46,-19.714355,18.90564,1,-28.10669,9.979248,1,-17.6956615447998,4.01179218292236,1,-28.35083,-6.5460205,1,-23.834229,-9.689331,1,-17.63916,-11.734009,1
47,-19.39392,19.439697,1,-28.152466,10.696411,1,-17.9940757751465,4.30836629867554,1,-28.747559,-6.149292,1,-24.32251,-9.567261,1,-18.356323,-11.489868,1
48,-18.981934,19.91272,1,-28.060913,11.306763,1,-18.1971015930176,4.47263908386231,1,-29.129028,-5.79834,1,-24.82605,-9.44519,1,-18.981934,-11.459351,1
49,-18.52417,20.431519,1,-27.801514,11.886597,1,-18.2498588562012,4.62258386611939,1,-29.449463,-5.355835,1,-25.32959,-9.246826,1,-19.638062,-11.520386,1
50,-18.005371,20.935059,1,-27.542114,12.4053955,1,-18.2702751159668,4.7874550819397,1,-29.724121,-4.8980713,1,-25.802612,-9.048462,1,-20.324707,-11.550903,1
51,-17.562866,21.408081,1,-27.236938,12.924194,1,-18.2947406768799,4.92187786102295,1,-29.953003,-4.5166016,1,-26.260376,-8.911133,1,-20.9198,-11.520386,1
52,-17.028809,21.942139,1,-26.855469,13.427734,1,-18.2458782196045,5.06861209869385,1,-30.090332,-4.135132,1,-26.657104,-8.743286,1,-21.560669,-11.734009,1
53,-16.677856,22.506714,1,-26.443481,13.916016,1,-18.1925601959229,5.20267534255981,1,-30.303955,-3.6468506,1,-27.023315,-8.560181,1,-22.30835,-11.734009,1
54,-16.174316,22.979736,1,-26.031494,14.434814,1,-18.1476783752441,5.38796854019165,1,-30.410767,-3.250122,1,-27.450562,-8.407593,1,-22.79663,-11.489868,1
55,-15.640259,23.468018,1,-25.421143,14.846802,1,-17.9091300964355,5.48893547058106,1,-30.426025,-2.7770996,1,-27.816772,-8.19397,1,-23.529053,-11.489868,1
56,-15.182495,23.971558,1,-24.749756,15.274048,1,-17.6687641143799,5.58593463897705,1,-30.426025,-2.3040771,1,-28.152466,-8.026123,1,-24.017334,-11.489868,1
57,-14.572144,24.337769,1,-23.956299,15.579224,1,-17.3991813659668,5.52913856506348,1,-30.426025,-1.9073486,1,-28.442383,-7.8582764,1,-24.765015,-11.245728,1
58,-13.809204,24.612427,1,-23.330688,15.975952,1,-17.1781234741211,5.67323684692383,1,-30.395508,-1.4190674,1,-28.869629,-7.5531006,1,-25.253296,-11.245728,1
59,-13.336182,24.810791,1,-22.705078,16.26587,1,-16.8549575805664,5.78846216201782,1,-30.258179,-0.9460449,1,-29.159546,-7.217407,1,-25.680542,-11.123657,1
60,-12.710571,24.932861,1,-22.201538,16.525269,1,-16.6620388031006,5.88036584854126,1,-30.24292,-0.48828125,1,-29.49524,-6.8511963,1,-26.184082,-11.016846,1
61,-12.34436,25.039673,1,-21.743774,16.693115,1,-16.4299774169922,5.93376779556274,1,-30.166626,-0.091552734,1,-29.693604,-6.500244,1,-26.70288,-10.864258,1
62,-11.917114,24.978638,1,-21.270752,16.677856,1,-16.0901756286621,5.8537335395813,1,-30.014038,0.2746582,1,-29.86145,-6.1798096,1,-27.160645,-10.7421875,1
63,-11.505127,24.780273,1,-20.874023,16.525269,1,-15.5574932098389,5.76726961135864,1,-29.708862,0.79345703,1,-29.907227,-5.706787,1,-27.679443,-10.543823,1
64,-11.138916,24.505615,1,-20.385742,16.296387,1,-14.8394002914429,5.65504741668701,1,-29.251099,1.4953613,1,-29.922485,-5.1574707,1,-27.98462,-10.375977,1
65,-10.757446,24.154663,1,-19.882202,15.975952,1,-14.1276683807373,5.44574213027954,1,-28.839111,2.5177002,1,-29.434204,-3.9520264,1,-27.84729,-10.025024,1
66,-10.4522705,23.712158,1,-19.39392,15.548706,1,-13.4013175964355,5.15213346481323,1,-28.289795,3.326416,1,-27.96936,-2.7008057,1,-27.46582,-9.216309,1
67,-10.08606,23.162842,1,-18.951416,15.090942,1,-12.7008371353149,4.84739589691162,1,-27.664185,3.7994385,1,-26.275635,-1.5563965,1,-25.45166,-7.8125,1
68,-9.94873,22.67456,1,-18.569946,14.6484375,1,-11.9061651229858,4.66875743865967,1,-26.885986,3.8909912,1,-24.56665,-0.8087158,1,-22.323608,-6.80542,1
69,-9.765625,22.155762,1,-18.249512,14.144897,1,-10.8520774841309,4.69619417190552,1,-25.802612,3.479004,1,-22.628784,-0.5950928,1,-19.302368,-5.996704,1
70,-9.70459,21.713257,1,-18.005371,13.641357,1,-9.71026039123535,4.97007465362549,1,-24.520874,2.5939941,1,-20.492554,-0.7171631,1,-16.494751,-5.142212,1
71,-9.796143,21.42334,1,-17.76123,13.168335,1,-8.77836608886719,5.21169471740723,1,-23.254395,1.2817383,1,-18.615723,-1.1901855,1,-13.85498,-4.623413,1
72,-9.841919,21.148682,1,-17.63916,12.72583,1,-7.96845436096191,5.62108135223389,1,-21.850586,-0.061035156,1,-16.921997,-1.7089844,1,-11.71875,-4.3945312,1
73,-9.872437,20.996094,1,-17.63916,12.374878,1,-7.46718788146973,6.00848579406738,1,-20.507812,-1.4038086,1,-15.411377,-2.1972656,1,-9.82666,-4.272461,1
74,-9.979248,20.843506,1,-17.623901,12.130737,1,-7.0439920425415,6.46809387207031,1,-19.088745,-2.4719238,1,-13.977051,-2.7618408,1,-8.117676,-4.2266846,1
75,-10.1623535,20.736694,1,-17.684937,11.947632,1,-6.75967693328857,6.98389101028442,1,-17.852783,-3.112793,1,-12.756348,-3.0975342,1,-6.576538,-4.1046143,1
76,-10.314941,20.67566,1,-17.700195,11.917114,1,-6.59994316101074,7.35812377929688,1,-16.906738,-3.540039,1,-11.779785,-3.2806396,1,-5.4473877,-3.6468506,1
77,-10.467529,20.736694,1,-17.913818,11.932373,1,-6.62788486480713,7.85466480255127,1,-16.418457,-3.5095215,1,-11.138916,-3.0975342,1,-4.8675537,-3.0975342,1
78,-10.5896,20.889282,1,-18.02063,12.145996,1,-6.64351654052734,8.33007049560547,1,-16.159058,-3.2653809,1,-10.787964,-2.7008057,1,-4.5166016,-2.6397705,1
79,-10.7421875,21.118164,1,-18.081665,12.390137,1,-6.61614513397217,8.84868907928467,1,-16.113281,-2.7618408,1,-10.772705,-2.1820068,1,-4.5166016,-2.166748,1
80,-10.787964,21.42334,1,-18.1427,12.786865,1,-6.64417362213135,9.35409736633301,1,-16.082764,-2.3040771,1,-10.757446,-1.663208,1,-4.5166016,-1.6326904,1
81,-10.940552,21.774292,1,-18.081665,13.244629,1,-6.56357669830322,9.87808418273926,1,-15.823364,-1.9226074,1,-10.574341,-1.1291504,1,-4.3182373,-1.1138916,1
82,-11.09314,22.140503,1,-18.051147,13.702393,1,-6.49821758270264,10.457426071167,1,-15.335083,-1.663208,1,-10.238647,-0.7019043,1,-4.0130615,-0.6713867,1
83,-10.986328,22.506714,1,-17.974854,14.190674,1,-6.38065147399902,11.0964136123657,1,-14.785767,-1.3275146,1,-9.689331,-0.289917,1,-3.3569336,-0.15258789,1
84,-11.047363,22.903442,1,-17.913818,14.587402,1,-6.28668880462647,11.6192569732666,1,-14.312744,-1.0528564,1,-9.109497,0.076293945,1,-2.8533936,0.30517578,1
85,-11.108398,23.223877,1,-17.807007,14.968872,1,-6.14264106750488,12.15061378479,1,-13.977051,-0.64086914,1,-8.544922,0.36621094,1,-2.3040771,0.6561279,1
86,-11.154175,23.544312,1,-17.791748,15.258789,1,-6.0901517868042,12.5993413925171,1,-13.168335,-0.62561035,1,-7.9803467,0.5340576,1,-1.7089844,0.8544922,1
87,-11.169434,23.80371,1,-17.730713,15.518188,1,-6.01245307922363,12.9331512451172,1,-12.741089,-0.47302246,1,-7.293701,0.50354004,1,-1.0375977,0.869751,1
88,-11.169434,24.047852,1,-17.608643,15.716553,1,-5.88003349304199,13.1788883209229,1,-11.993408,-0.5187988,1,-6.439209,0.36621094,1,-0.091552734,0.61035156,1
89,-11.169434,24.291992,1,-17.593384,15.884399,1,-5.84504985809326,13.4396839141846,1,-11.138916,-0.5950928,1,-5.508423,0.21362305,1,0.77819824,0.2746582,1
90,-11.169434,24.520874,1,-17.410278,15.991211,1,-5.64897632598877,13.609658241272,1,-10.284424,-0.6561279,1,-4.562378,-0.030517578,1,1.8157959,-0.061035156,1
91,-11.154175,24.68872,1,-17.227173,16.052246,1,-5.44712734222412,13.7652111053467,1,-9.353638,-0.7171631,1,-3.5552979,-0.19836426,1,2.822876,-0.45776367,1
92,-11.047363,24.917603,1,-16.998291,16.12854,1,-5.20244026184082,13.9244737625122,1,-8.392334,-0.7324219,1,-2.532959,-0.32043457,1,3.8604736,-0.7324219,1
93,-10.986328,25.08545,1,-16.799927,16.235352,1,-4.9859676361084,14.1305065155029,1,-7.4157715,-0.6713867,1,-1.4190674,-0.289917,1,4.974365,-0.8087158,1
94,-10.879517,25.390625,1,-16.51001,16.37268,1,-4.68352699279785,14.3393888473511,1,-6.378174,-0.5645752,1,-0.33569336,-0.35095215,1,6.0272217,-0.8087158,1
95,-10.7421875,25.58899,1,-16.296387,16.494751,1,-4.46524047851563,14.4887628555298,1,-5.2948,-0.48828125,1,0.8239746,-0.35095215,1,7.1868896,-0.869751,1
96,-10.620117,25.817871,1,-15.975952,16.616821,1,-4.15405416488647,14.5570278167725,1,-4.272461,-0.44250488,1,1.8920898,-0.45776367,1,8.285522,-1.0375977,1
97,-10.391235,26.016235,1,-15.50293,16.662598,1,-3.70674657821655,14.4603137969971,1,-3.2958984,-0.5340576,1,3.0059814,-0.76293945,1,9.429932,-1.4648438,1
98,-10.20813,26.153564,1,-15.060425,16.662598,1,-3.28595399856567,14.3470277786255,1,-2.380371,-0.62561035,1,4.0283203,-1.2512207,1,10.467529,-2.2125244,1
99,-9.857178,26.260376,1,-14.511108,16.616821,1,-2.79051828384399,14.0423812866211,1,-1.4801025,-0.90026855,1,4.8828125,-2.0446777,1,11.276245,-3.250122,1
100,-9.552002,26.229858,1,-13.946533,16.448975,1,-2.27136898040771,13.6757946014404,1,-0.79345703,-1.2512207,1,5.554199,-3.036499,1,11.886597,-4.5776367,1
101,-9.124756,26.07727,1,-13.504028,16.235352,1,-1.90729093551636,13.1506061553955,1,-0.36621094,-1.7700195,1,5.9509277,-4.0893555,1,12.084961,-6.210327,1
102,-8.69751,25.802612,1,-12.954712,15.869141,1,-1.44014453887939,12.4905700683594,1,-0.18310547,-2.456665,1,5.8898926,-5.5236816,1,11.810303,-8.102417,1
103,-8.19397,25.405884,1,-12.527466,15.411377,1,-1.14928245544434,11.5986442565918,1,-0.50354004,-3.3874512,1,5.3863525,-7.095337,1,11.062622,-9.963989,1
104,-7.8125,24.932861,1,-12.237549,14.785767,1,-1.00147724151611,10.5726099014282,1,-1.2664795,-4.425049,1,4.2419434,-8.514404,1,9.765625,-11.566162,1
105,-7.4920654,24.337769,1,-12.161255,14.175415,1,-1.04998779296875,9.64333820343018,1,-2.4108887,-5.2948,1,3.1433105,-9.140015,1,8.7890625,-11.566162,1
106,-7.1868896,23.727417,1,-12.22229,13.504028,1,-1.11435413360596,8.96379280090332,1,-3.2043457,-5.8898926,1,2.4108887,-9.475708,1,8.056641,-11.566162,1
107,-7.0648193,23.132324,1,-12.313843,13.000488,1,-1.15154457092285,8.5955924987793,1,-3.90625,-6.149292,1,1.663208,-9.597778,1,7.5683594,-11.566162,1
108,-6.8511963,22.659302,1,-12.268066,12.60376,1,-1.12429571151733,8.15220069885254,1,-4.470825,-6.4697266,1,1.0986328,-9.643555,1,7.080078,-11.566162,1
109,-6.713867,22.277832,1,-12.329102,12.252808,1,-1.21695899963379,7.72287464141846,1,-5.065918,-6.7749023,1,0.4272461,-9.70459,1,6.3476562,-11.550903,1
110,-6.515503,21.911621,1,-12.329102,11.871338,1,-1.24003791809082,7.28520011901856,1,-5.706787,-7.0343018,1,-0.18310547,-9.811401,1,5.859375,-11.550903,1
111,-6.286621,21.514893,1,-12.283325,11.474609,1,-1.22475147247314,6.81543064117432,1,-6.3171387,-7.293701,1,-0.8087158,-9.933472,1,5.3710938,-11.550903,1
112,-6.1035156,21.087646,1,-12.283325,11.016846,1,-1.21617412567139,6.37807750701904,1,-6.92749,-7.4920654,1,-1.5563965,-10.009766,1,4.638672,-11.550903,1
113,-5.9814453,20.736694,1,-12.34436,10.696411,1,-1.2754487991333,6.06184387207031,1,-7.537842,-7.5683594,1,-2.1362305,-10.055542,1,4.1503906,-11.550903,1
114,-5.8135986,20.41626,1,-12.34436,10.437012,1,-1.33126449584961,5.67132949829102,1,-8.117676,-7.7056885,1,-2.7923584,-10.08606,1,3.4179688,-11.795044,1
115,-5.6610107,20.141602,1,-12.359619,10.223389,1,-1.39305877685547,5.35157871246338,1,-8.666992,-7.7667236,1,-3.326416,-10.08606,1,2.6855469,-11.795044,1
116,-5.5389404,19.91272,1,-12.466431,10.070801,1,-1.51993942260742,5.15406227111816,1,-9.216309,-7.7209473,1,-4.0130615,-10.131836,1,2.4414062,-11.795044,1
117,-5.4016113,19.760132,1,-12.512207,9.933472,1,-1.61190032958984,4.91517353057861,1,-9.765625,-7.675171,1,-4.5776367,-10.116577,1,1.4648438,-11.779785,1
118,-5.2490234,19.607544,1,-12.588501,9.933472,1,-1.77046966552734,4.7401876449585,1,-10.299683,-7.598877,1,-5.2337646,-10.116577,1,1.2207031,-11.779785,1
119,-5.142212,19.546509,1,-12.634277,9.887695,1,-1.89876365661621,4.52590942382813,1,-10.83374,-7.522583,1,-5.783081,-10.116577,1,0.24414062,-11.779785,1
120,-4.9438477,19.500732,1,-12.72583,9.918213,1,-2.08413505554199,4.37255382537842,1,-11.398315,-7.385254,1,-6.4086914,-10.055542,1,-0.24414062,-11.779785,1
121,-4.760742,19.485474,1,-12.878418,9.979248,1,-2.281982421875,4.34759092330933,1,-11.871338,-7.1868896,1,-6.958008,-9.994507,1,-0.7324219,-11.779785,1
122,-4.6844482,19.53125,1,-13.031006,10.177612,1,-2.55043792724609,4.33315181732178,1,-12.390137,-6.9885254,1,-7.461548,-9.979248,1,-1.2207031,-11.779785,1
123,-4.5166016,19.622803,1,-13.168335,10.482788,1,-2.85212802886963,4.35287427902222,1,-12.893677,-6.790161,1,-8.056641,-9.887695,1,-1.953125,-11.779785,1
124,-4.486084,19.805908,1,-13.336182,10.879517,1,-3.15390872955322,4.52960968017578,1,-13.336182,-6.4849854,1,-8.682251,-9.796143,1,-2.6855469,-11.779785,1
125,-4.257202,20.050049,1,-13.458252,11.291504,1,-3.48261260986328,4.62167358398438,1,-13.778687,-6.286621,1,-9.216309,-9.70459,1,-3.1738281,-11.779785,1
126,-4.0893555,20.248413,1,-13.519287,11.749268,1,-3.75919723510742,4.76781845092773,1,-14.221191,-5.9814453,1,-9.765625,-9.597778,1,-3.90625,-11.779785,1
127,-3.9520264,20.477295,1,-13.48877,12.176514,1,-3.99485111236572,4.83720254898071,1,-14.663696,-5.706787,1,-10.269165,-9.490967,1,-4.638672,-11.764526,1
128,-3.7231445,20.721436,1,-13.534546,12.60376,1,-4.23162174224854,5.02381086349487,1,-15.060425,-5.355835,1,-10.864258,-9.399414,1,-5.126953,-11.764526,1
129,-3.5095215,20.889282,1,-13.48877,12.954712,1,-4.47209548950195,5.03640270233154,1,-15.518188,-5.1116943,1,-11.367798,-9.262085,1,-5.874634,-11.764526,1
130,-3.3569336,21.072388,1,-13.549805,13.320923,1,-4.69016456604004,5.22729587554932,1,-15.853882,-4.79126,1,-11.917114,-9.20105,1,-6.362915,-11.764526,1
131,-3.1280518,21.224976,1,-13.48877,13.580322,1,-4.86955261230469,5.23112487792969,1,-16.204834,-4.5928955,1,-12.34436,-9.124756,1,-6.8511963,-11.764526,1
132,-2.9754639,21.392822,1,-13.427734,13.824463,1,-4.99155426025391,5.29036235809326,1,-16.51001,-4.3182373,1,-12.817383,-8.956909,1,-7.583618,-11.764526,1
133,-2.7160645,21.514893,1,-13.336182,13.99231,1,-5.07136917114258,5.29214525222778,1,-16.799927,-4.058838,1,-13.305664,-8.880615,1,-8.071899,-11.764526,1
134,-2.4414062,21.591187,1,-13.22937,14.160156,1,-5.13957786560059,5.2970142364502,1,-17.089844,-3.768921,1,-13.793945,-8.773804,1,-8.804321,-11.520386,1
135,-2.1972656,21.713257,1,-13.031006,14.373779,1,-5.19697380065918,5.28378868103027,1,-17.349243,-3.5095215,1,-14.23645,-8.666992,1,-9.536743,-11.764526,1
136,-1.8920898,21.78955,1,-12.817383,14.556885,1,-5.2611608505249,5.23468017578125,1,-17.578125,-3.326416,1,-14.6484375,-8.560181,1,-10.025024,-11.764526,1
137,-1.663208,21.942139,1,-12.573242,14.694214,1,-5.22841644287109,5.20456027984619,1,-17.791748,-2.9907227,1,-15.060425,-8.407593,1,-10.772705,-11.764526,1
138,-1.3122559,22.140503,1,-12.298584,14.862061,1,-5.25678634643555,5.14542007446289,1,-17.974854,-2.8076172,1,-15.472412,-8.331299,1,-11.260986,-11.749268,1
139,-1.0528564,22.30835,1,-12.10022,15.029907,1,-5.21030330657959,5.20498847961426,1,-18.096924,-2.4719238,1,-15.823364,-8.19397,1,-11.993408,-11.749268,1
140,-0.7324219,22.567749,1,-11.795044,15.197754,1,-5.17014217376709,5.19222164154053,1,-18.249512,-2.1514893,1,-16.220093,-8.056641,1,-12.237549,-11.749268,1
141,-0.4272461,22.842407,1,-11.505127,15.335083,1,-5.14689445495606,5.1580057144165,1,-18.38684,-1.8920898,1,-16.571045,-7.949829,1,-13.214111,-11.505127,1
142,-0.18310547,23.040771,1,-11.138916,15.396118,1,-5.07575607299805,5.04053544998169,1,-18.554688,-1.5411377,1,-17.01355,-7.7667236,1,-13.717651,-11.505127,1
143,0.091552734,23.31543,1,-10.818481,15.50293,1,-4.98168849945068,5.01808881759644,1,-18.615723,-1.2359619,1,-17.440796,-7.5683594,1,-13.961792,-11.505127,1
144,0.289917,23.529053,1,-10.4522705,15.625,1,-4.81995964050293,5.02891254425049,1,-18.585205,-0.93078613,1,-17.822266,-7.3394775,1,-14.450073,-11.260986,1
145,0.5187988,23.757935,1,-10.147095,15.701294,1,-4.71929454803467,4.99900722503662,1,-18.630981,-0.61035156,1,-18.1427,-7.171631,1,-15.182495,-11.260986,1
146,0.7171631,24.017334,1,-9.82666,15.762329,1,-4.69286918640137,4.91593742370606,1,-18.737793,-0.35095215,1,-18.52417,-6.958008,1,-15.670776,-11.260986,1
147,0.8544922,24.169922,1,-9.44519,15.823364,1,-4.6530237197876,4.82176685333252,1,-18.798828,-0.16784668,1,-18.859863,-6.7749023,1,-16.159058,-11.016846,1
148,0.93078613,24.337769,1,-9.231567,15.884399,1,-4.64231872558594,4.79662227630615,1,-18.859863,0.015258789,1,-19.119263,-6.6375732,1,-16.662598,-11.016846,1
149,1.0528564,24.459839,1,-9.048462,15.960693,1,-4.56731986999512,4.82878637313843,1,-18.844604,0.22888184,1,-19.53125,-6.454468,1,-17.150879,-11.016846,1
150,1.159668,24.490356,1,-8.834839,15.975952,1,-4.43719005584717,4.81079769134522,1,-18.76831,0.38146973,1,-19.77539,-6.3171387,1,-17.807007,-10.83374,1
151,1.2359619,24.520874,1,-8.590698,15.930176,1,-4.24865245819092,4.74327993392944,1,-18.676758,0.64086914,1,-20.03479,-6.0577393,1,-18.295288,-10.71167,1
152,1.373291,24.459839,1,-8.377075,15.792847,1,-3.86518001556396,4.67336845397949,1,-18.38684,0.91552734,1,-20.187378,-5.706787,1,-18.78357,-10.543823,1
153,1.3885498,24.337769,1,-8.132935,15.655518,1,-3.47690868377686,4.59561586380005,1,-18.081665,1.1749268,1,-20.324707,-5.569458,1,-19.195557,-10.360718,1
154,1.5563965,24.169922,1,-7.8582764,15.472412,1,-3.23573207855225,4.39847469329834,1,-17.89856,1.2359619,1,-20.507812,-5.4473877,1,-19.744873,-10.299683,1
155,1.6021729,23.925781,1,-7.7056885,15.24353,1,-3.12104511260986,4.15384912490845,1,-17.837524,1.2512207,1,-20.767212,-5.340576,1,-20.233154,-10.177612,1
156,1.6937256,23.6969,1,-7.5531006,14.984131,1,-2.98403739929199,3.88802051544189,1,-17.76123,1.3122559,1,-21.011353,-5.218506,1,-20.690918,-10.177612,1
157,1.663208,23.529053,1,-7.385254,14.801025,1,-2.83775043487549,3.69606113433838,1,-17.654419,1.3580322,1,-21.240234,-5.0811768,1,-21.16394,-10.101318,1
158,1.6479492,23.376465,1,-7.293701,14.556885,1,-2.71173572540283,3.4660964012146,1,-17.562866,1.3580322,1,-21.392822,-4.974365,1,-21.54541,-10.101318,1
159,1.6021729,23.330688,1,-7.232666,14.389038,1,-2.60979080200195,3.31523895263672,1,-17.471313,1.2817383,1,-21.530151,-4.9591064,1,-21.987915,-10.040283,1
160,1.4953613,23.19336,1,-7.217407,14.282227,1,-2.50205993652344,3.24748516082764,1,-17.364502,1.2207031,1,-21.621704,-4.8980713,1,-22.43042,-10.040283,1
161,1.5106201,23.086548,1,-7.293701,14.205933,1,-2.40168762207031,3.24836921691895,1,-17.25769,1.1749268,1,-21.66748,-4.852295,1,-22.842407,-9.963989,1
162,1.4343262,23.010254,1,-7.2631836,14.160156,1,-2.30774021148682,3.23113250732422,1,-17.166138,1.1749268,1,-21.759033,-4.760742,1,-23.1781,-10.025024,1
163,1.2969971,22.903442,1,-7.3394775,14.099121,1,-2.37018394470215,3.17638731002808,1,-17.25769,1.3427734,1,-21.652222,-4.501343,1,-23.31543,-9.94873,1
164,1.2359619,22.81189,1,-7.4005127,14.175415,1,-2.6001148223877,3.17740726470947,1,-17.562866,2.1209717,1,-20.935059,-4.0283203,1,-23.086548,-9.902954,1
165,1.1138916,22.781372,1,-7.583618,14.266968,1,-2.66977500915527,3.319176197052,1,-17.669678,3.2653809,1,-19.40918,-3.1280518,1,-21.713257,-9.002686,1
166,0.9460449,22.68982,1,-7.7667236,14.49585,1,-2.61989879608154,3.65563821792603,1,-17.593384,4.547119,1,-17.852783,-1.5563965,1,-19.042969,-7.6141357,1
167,0.76293945,22.735596,1,-7.949829,14.785767,1,-2.6839771270752,4.00287246704102,1,-17.562866,5.9051514,1,-16.525269,0.33569336,1,-16.708374,-5.722046,1
168,0.5187988,22.750854,1,-8.255005,15.182495,1,-2.70325946807861,4.54397392272949,1,-17.471313,7.171631,1,-15.777588,1.9683838,1,-15.792847,-3.7078857,1
169,0.4272461,22.857666,1,-8.43811,15.640259,1,-2.79968929290771,5.04742240905762,1,-17.456055,8.239746,1,-15.411377,3.2653809,1,-15.090942,-2.243042,1
170,0.289917,23.025513,1,-8.590698,16.143799,1,-2.85595560073853,5.6027946472168,1,-17.486572,8.911133,1,-14.968872,4.3182373,1,-14.022827,-0.9918213,1
171,0.030517578,23.239136,1,-8.81958,16.525269,1,-2.54902458190918,6.29393768310547,1,-17.288208,9.0789795,1,-14.205933,5.0201416,1,-12.268066,0,1
172,-0.19836426,23.468018,1,-8.956909,16.89148,1,-2.04850482940674,7.07955074310303,1,-16.952515,8.773804,1,-13.198853,5.279541,1,-10.421753,0.6713867,1
173,-0.2746582,23.635864,1,-9.124756,17.181396,1,-1.48181343078613,7.93015861511231,1,-16.479492,8.19397,1,-12.283325,5.3253174,1,-8.743286,1.1138916,1
174,-0.47302246,23.864746,1,-9.307861,17.501831,1,-0.951112747192383,8.88993549346924,1,-15.884399,7.4768066,1,-11.352539,5.004883,1,-7.2784424,1.3427734,1
175,-0.6866455,24.032593,1,-9.384155,17.745972,1,-0.462429046630859,9.72083473205566,1,-15.167236,6.7596436,1,-10.437012,4.776001,1,-5.874634,1.5411377,1
176,-0.77819824,24.276733,1,-9.338379,17.959595,1,0.0409488677978516,10.4743976593018,1,-14.312744,6.1187744,1,-9.353638,4.501343,1,-4.40979,1.8157959,1
177,-0.8544922,24.475098,1,-9.44519,18.112183,1,0.453251838684082,11.3283185958862,1,-13.397217,5.569458,1,-8.346558,4.40979,1,-2.9449463,2.1209717,1
178,-0.9765625,24.765015,1,-9.429932,18.310547,1,0.848222732543945,12.1170387268066,1,-12.374878,5.0354004,1,-7.232666,4.40979,1,-1.5411377,2.7313232,1
179,-1.0986328,25.024414,1,-9.414673,18.4021,1,1.28470897674561,12.9685716629028,1,-11.199951,4.6539307,1,-6.011963,4.5318604,1,-0.12207031,3.463745,1
180,-1.1138916,25.375366,1,-9.246826,18.554688,1,1.78311634063721,13.8281297683716,1,-9.841919,4.348755,1,-4.6844482,4.6844482,1,1.3122559,4.119873,1
181,-1.2664795,25.787354,1,-9.048462,18.737793,1,2.24465847015381,14.6800298690796,1,-8.453369,4.1656494,1,-3.2196045,4.8980713,1,2.7923584,4.6081543,1
182,-1.1749268,26.153564,1,-8.773804,18.966675,1,2.69628047943115,15.440037727356,1,-6.9122314,3.9215088,1,-1.6479492,4.9438477,1,4.272461,4.776001,1
183,-1.1749268,26.519775,1,-8.468628,19.195557,1,3.14612817764282,16.1793594360352,1,-5.2337646,3.7384033,1,0.015258789,4.8675537,1,5.9509277,4.714966,1
184,-1.2207031,26.885986,1,-8.132935,19.485474,1,3.56341552734375,16.803050994873,1,-3.326416,3.479004,1,1.953125,4.623413,1,7.827759,4.40979,1
185,-1.2359619,27.130127,1,-7.9193115,19.744873,1,3.80760383605957,17.1993942260742,1,-1.5106201,3.1738281,1,3.8909912,4.2419434,1,9.887695,4.0740967,1
186,-1.3580322,27.282715,1,-7.598877,19.882202,1,4.12854671478272,17.3390693664551,1,-0.091552734,2.9449463,1,5.6610107,3.8604736,1,11.764526,3.6773682,1
187,-1.4190674,27.374268,1,-7.3547363,19.882202,1,4.37724018096924,17.3601493835449,1,1.3427734,2.670288,1,7.2784424,3.3416748,1,13.397217,3.1738281,1
188,-1.4801025,27.328491,1,-7.1258545,19.744873,1,4.57723236083984,17.0919952392578,1,2.5634766,2.2277832,1,8.682251,2.6245117,1,14.892578,2.2125244,1
189,-1.6021729,27.20642,1,-6.9885254,19.485474,1,4.68246030807495,16.6947593688965,1,3.5247803,1.739502,1,9.750366,1.5411377,1,16.00647,0.93078613,1
190,-1.7089844,27.023315,1,-6.8511963,19.104004,1,4.75141429901123,16.0414161682129,1,4.1656494,1.0528564,1,10.498047,0.4272461,1,16.784668,-0.64086914,1
191,-1.8463135,26.748657,1,-6.6986084,18.615723,1,4.86091804504395,15.3943347930908,1,4.5928955,0.39672852,1,11.062622,-0.88500977,1,17.028809,-2.5024414,1
192,-1.8310547,26.412964,1,-6.500244,17.959595,1,4.9841251373291,14.4797554016113,1,4.776001,-0.5187988,1,11.21521,-2.39563,1,17.074585,-4.40979,1
193,-1.8463135,25.970459,1,-6.30188,17.25769,1,5.10506105422974,13.5318737030029,1,4.79126,-1.4648438,1,11.154175,-4.043579,1,16.845703,-6.454468,1
194,-1.8310547,25.375366,1,-6.1187744,16.494751,1,5.17078161239624,12.4270820617676,1,4.638672,-2.5634766,1,10.681152,-5.645752,1,16.204834,-8.270264,1
195,-1.7089844,24.795532,1,-6.0424805,15.625,1,5.18568515777588,11.3908176422119,1,4.348755,-3.5858154,1,10.223389,-7.2784424,1,15.396118,-10.269165,1
196,-1.5869141,24.093628,1,-5.874634,14.755249,1,5.24692106246948,10.2484741210938,1,3.829956,-4.6844482,1,9.44519,-8.636475,1,14.404297,-11.33728,1
197,-1.5106201,23.406982,1,-5.874634,13.977051,1,5.14957094192505,9.23712635040283,1,2.9449463,-5.5999756,1,8.529663,-9.231567,1,13.671875,-11.33728,1
198,-1.3885498,22.766113,1,-5.874634,13.259888,1,5.16426134109497,8.55427360534668,1,2.2735596,-6.164551,1,7.7819824,-9.506226,1,12.939453,-11.581421,1
199,-1.2512207,22.262573,1,-5.9814453,12.786865,1,5.07363605499268,8.11940479278564,1,1.5869141,-6.4697266,1,7.156372,-9.658813,1,12.207031,-11.810303,1
200,-1.1444092,21.92688,1,-6.0272217,12.481689,1,4.9978551864624,7.74378871917725,1,0.9460449,-6.6986084,1,6.4849854,-9.780884,1,11.71875,-11.810303,1
201,-1.0681152,21.728516,1,-6.072998,12.252808,1,4.91830635070801,7.43708038330078,1,0.30517578,-6.8359375,1,5.783081,-9.872437,1,11.230469,-11.810303,1
202,-0.8392334,21.484375,1,-6.1798096,12.084961,1,4.77634620666504,7.18979263305664,1,-0.33569336,-6.9122314,1,5.126953,-9.933472,1,10.498047,-12.054443,1
203,-0.6713867,21.30127,1,-6.3476562,11.947632,1,4.55296230316162,6.93001079559326,1,-0.88500977,-7.0495605,1,4.5166016,-10.009766,1,10.009766,-12.039185,1
204,-0.48828125,21.148682,1,-6.3476562,11.856079,1,4.46081781387329,6.64293193817139,1,-1.5258789,-7.1105957,1,3.829956,-9.963989,1,9.277344,-12.039185,1
205,-0.24414062,21.011353,1,-6.4086914,11.795044,1,4.35089492797852,6.48173093795776,1,-2.090454,-7.0648193,1,3.2958984,-10.040283,1,8.544922,-12.039185,1
206,-0.045776367,20.935059,1,-6.42395,11.764526,1,4.23198318481445,6.24627685546875,1,-2.5939941,-7.1105957,1,2.5634766,-10.040283,1,8.056641,-11.795044,1
207,0.091552734,20.858765,1,-6.4697266,11.749268,1,4.08847332000732,6.04624938964844,1,-3.1433105,-7.095337,1,2.0751953,-10.025024,1,7.5683594,-11.795044,1
208,0.33569336,20.79773,1,-6.42395,11.764526,1,4.02536296844482,5.8643684387207,1,-3.7078857,-6.9885254,1,1.3580322,-10.025024,1,6.8359375,-11.795044,1
209,0.5645752,20.78247,1,-6.42395,11.825562,1,3.88123750686646,5.67713928222656,1,-4.2266846,-6.942749,1,0.8087158,-10.055542,1,6.3476562,-11.795044,1
210,0.79345703,20.79773,1,-6.42395,11.978149,1,3.73334693908691,5.5883674621582,1,-4.760742,-6.7749023,1,0.18310547,-9.979248,1,5.6152344,-11.795044,1
211,1.0070801,20.812988,1,-6.42395,12.084961,1,3.59882497787476,5.48617696762085,1,-5.2337646,-6.6375732,1,-0.35095215,-9.933472,1,4.8828125,-11.795044,1
212,1.159668,20.889282,1,-6.42395,12.22229,1,3.47580528259277,5.4403395652771,1,-5.722046,-6.4086914,1,-0.88500977,-9.887695,1,4.3945312,-11.795044,1
213,1.2969971,20.950317,1,-6.5307617,12.359619,1,3.20377588272095,5.34258460998535,1,-6.1950684,-6.3476562,1,-1.449585,-9.811401,1,3.90625,-11.795044,1
214,1.4038086,20.996094,1,-6.6070557,12.496948,1,3.03860187530518,5.35823059082031,1,-6.6375732,-6.1035156,1,-2.0446777,-9.735107,1,2.9296875,-12.023926,1
215,1.5411377,21.057129,1,-6.713867,12.664795,1,2.80674123764038,5.36013841629028,1,-7.080078,-5.92041,1,-2.5482178,-9.674072,1,2.6855469,-12.023926,1
216,1.7547607,21.16394,1,-6.713867,12.863159,1,2.68465805053711,5.40207767486572,1,-7.461548,-5.645752,1,-3.0822754,-9.552002,1,2.1972656,-12.023926,1
217,1.8310547,21.28601,1,-6.8359375,13.061523,1,2.43843698501587,5.44667196273804,1,-7.888794,-5.432129,1,-3.6010742,-9.475708,1,1.4648438,-12.023926,1
218,1.9989014,21.438599,1,-6.92749,13.320923,1,2.18225479125977,5.50986909866333,1,-8.285522,-5.2337646,1,-4.135132,-9.384155,1,0.7324219,-12.023926,1
219,2.029419,21.560669,1,-7.019043,13.534546,1,1.98506546020508,5.60195350646973,1,-8.651733,-4.974365,1,-4.623413,-9.292603,1,0.24414062,-12.023926,1
220,2.1514893,21.774292,1,-7.1258545,13.839722,1,1.68193197250366,5.68969964981079,1,-9.063721,-4.776001,1,-5.142212,-9.231567,1,-0.48828125,-12.023926,1
221,2.243042,21.972656,1,-7.247925,14.053345,1,1.45339584350586,5.78974771499634,1,-9.44519,-4.5166016,1,-5.645752,-9.124756,1,-0.9765625,-12.023926,1
222,2.1820068,22.201538,1,-7.446289,14.373779,1,1.09622478485107,5.94611930847168,1,-9.841919,-4.3182373,1,-6.149292,-9.033203,1,-1.4648438,-12.023926,1
223,2.1820068,22.415161,1,-7.598877,14.6484375,1,0.842702865600586,6.11967849731445,1,-10.147095,-4.0893555,1,-6.6375732,-8.911133,1,-2.1972656,-12.023926,1
224,2.1820068,22.567749,1,-7.6904297,14.862061,1,0.628972053527832,6.21408128738403,1,-10.498047,-3.8452148,1,-7.1258545,-8.880615,1,-2.9296875,-12.008667,1
225,2.1820068,22.766113,1,-7.797241,15.106201,1,0.35842227935791,6.303635597229,1,-10.879517,-3.6315918,1,-7.583618,-8.743286,1,-3.6621094,-12.008667,1
226,2.1209717,22.979736,1,-7.9345703,15.274048,1,0.155326843261719,6.41100215911865,1,-11.21521,-3.3721924,1,-8.102417,-8.666992,1,-4.1503906,-12.008667,1
227,2.1209717,23.1781,1,-8.041382,15.411377,1,-0.107346534729004,6.40853977203369,1,-11.59668,-3.2348633,1,-8.575439,-8.544922,1,-4.638672,-12.008667,1
228,2.029419,23.330688,1,-8.163452,15.548706,1,-0.362375259399414,6.43041658401489,1,-11.947632,-3.0975342,1,-9.063721,-8.544922,1,-5.3710938,-12.008667,1
229,1.9989014,23.452759,1,-8.331299,15.716553,1,-0.600113868713379,6.53892850875855,1,-12.283325,-2.8686523,1,-9.552002,-8.43811,1,-5.859375,-12.008667,1
230,1.9226074,23.605347,1,-8.529663,15.869141,1,-0.901803970336914,6.60546112060547,1,-12.72583,-2.6245117,1,-10.116577,-8.407593,1,-6.6070557,-12.008667,1
231,1.8310547,23.727417,1,-8.666992,16.00647,1,-1.19435501098633,6.61712837219238,1,-13.092041,-2.5177002,1,-10.559082,-8.346558,1,-7.095337,-11.764526,1
232,1.6784668,23.849487,1,-8.743286,16.12854,1,-1.39722537994385,6.63984107971191,1,-13.427734,-2.319336,1,-11.169434,-8.224487,1,-7.583618,-11.764526,1
233,1.739502,23.94104,1,-8.804321,16.220093,1,-1.62722873687744,6.6029543876648,1,-13.763428,-2.2125244,1,-11.627197,-8.071899,1,-8.31604,-11.764526,1
234,1.7089844,24.047852,1,-8.850098,16.296387,1,-1.76166534423828,6.61371660232544,1,-14.053345,-1.9836426,1,-12.084961,-8.026123,1,-8.804321,-11.764526,1
235,1.739502,24.169922,1,-8.880615,16.37268,1,-1.9819917678833,6.55387210845947,1,-14.419556,-1.8310547,1,-12.542725,-7.9193115,1,-9.292603,-11.764526,1
236,1.739502,24.246216,1,-8.834839,16.464233,1,-2.09032440185547,6.53893661499023,1,-14.678955,-1.6174316,1,-13.000488,-7.827759,1,-10.040283,-11.520386,1
237,1.7547607,24.368286,1,-8.773804,16.464233,1,-2.20568656921387,6.42133283615112,1,-14.984131,-1.4343262,1,-13.458252,-7.7209473,1,-10.528564,-11.520386,1
238,1.7547607,24.429321,1,-8.728027,16.418457,1,-2.33883190155029,6.26079082489014,1,-15.304565,-1.2817383,1,-13.916016,-7.6293945,1,-11.260986,-11.520386,1
239,1.739502,24.429321,1,-8.682251,16.37268,1,-2.48256874084473,6.09824848175049,1,-15.609741,-1.159668,1,-14.434814,-7.4768066,1,-11.749268,-11.520386,1
240,1.739502,24.429321,1,-8.682251,16.311646,1,-2.64917659759521,5.93850708007813,1,-15.975952,-0.9460449,1,-14.923096,-7.385254,1,-12.237549,-11.276245,1
241,1.6326904,24.414062,1,-8.7890625,16.204834,1,-2.96279525756836,5.71414184570313,1,-16.38794,-0.9765625,1,-15.457153,-7.30896,1,-12.969971,-11.276245,1
242,1.449585,24.337769,1,-8.895874,16.067505,1,-3.27960777282715,5.46290445327759,1,-16.89148,-0.8392334,1,-16.036987,-7.2631836,1,-13.473511,-11.276245,1
243,1.2512207,24.276733,1,-9.048462,15.960693,1,-3.65172386169434,5.24270820617676,1,-17.410278,-0.7324219,1,-16.555786,-7.1868896,1,-13.961792,-11.276245,1
244,0.9613037,24.18518,1,-9.32312,15.808105,1,-4.0103120803833,5.04826974868774,1,-17.8833,-0.6561279,1,-17.120361,-7.1105957,1,-14.450073,-11.260986,1
245,0.61035156,24.124146,1,-9.597778,15.762329,1,-4.46078014373779,4.91745710372925,1,-18.38684,-0.6561279,1,-17.684937,-7.1105957,1,-14.9383545,-11.260986,1
246,0.24414062,24.032593,1,-9.933472,15.701294,1,-4.91565036773682,4.80076789855957,1,-18.90564,-0.61035156,1,-18.26477,-7.0495605,1,-15.914917,-11.260986,1
247,-0.19836426,23.971558,1,-10.375977,15.701294,1,-5.40504264831543,4.77930545806885,1,-19.40918,-0.5950928,1,-18.920898,-6.9885254,1,-16.403198,-11.260986,1
248,-0.64086914,23.94104,1,-10.696411,15.533447,1,-5.81517887115479,4.57107591629028,1,-19.89746,-0.5950928,1,-19.424438,-6.942749,1,-16.906738,-11.260986,1
249,-1.1749268,23.849487,1,-11.21521,15.396118,1,-6.29030799865723,4.45329666137695,1,-20.431519,-0.5493164,1,-20.004272,-6.9732666,1,-17.39502,-11.260986,1
250,-1.5869141,23.651123,1,-11.535645,15.182495,1,-6.74141216278076,4.18179893493652,1,-20.965576,-0.579834,1,-20.645142,-6.958008,1,-18.127441,-11.505127,1
251,-2.0751953,23.406982,1,-11.947632,14.877319,1,-7.30706310272217,3.81092214584351,1,-21.621704,-0.6713867,1,-21.28601,-7.0343018,1,-18.859863,-11.260986,1
252,-2.5939941,23.101807,1,-12.191772,14.450073,1,-7.942214012146,3.22771835327148,1,-22.384644,-0.8239746,1,-21.987915,-7.0495605,1,-19.363403,-11.260986,1
253,-3.112793,22.750854,1,-12.6953125,14.205933,1,-8.57339286804199,2.93606996536255,1,-23.086548,-0.8544922,1,-22.628784,-7.1411133,1,-20.339966,-11.260986,1
254,-3.7078857,22.399902,1,-13.198853,13.839722,1,-9.19211006164551,2.52840089797974,1,-23.773193,-0.9918213,1,-23.330688,-7.171631,1,-20.584106,-11.245728,1
255,-4.333496,22.018433,1,-13.748169,13.504028,1,-9.77530860900879,2.18076229095459,1,-24.429321,-1.0223389,1,-24.07837,-7.1258545,1,-21.30127,-11.276245,1
256,-4.79126,21.66748,1,-14.205933,13.1073,1,-10.305552482605,1.75886154174805,1,-25.039673,-1.0528564,1,-24.780273,-7.0343018,1,-21.92688,-11.276245,1
257,-5.4626465,21.240234,1,-14.73999,12.680054,1,-10.8193092346191,1.33861351013184,1,-25.634766,-1.0070801,1,-25.344849,-6.9732666,1,-22.521973,-11.154175,1
258,-6.0424805,20.767212,1,-15.258789,12.191772,1,-11.3689041137695,0.839732170104981,1,-26.245117,-1.083374,1,-26.016235,-6.958008,1,-23.254395,-11.138916,1
259,-6.6375732,20.339966,1,-15.899658,11.764526,1,-12.0090789794922,0.412724494934082,1,-26.916504,-1.2512207,1,-26.687622,-6.9885254,1,-23.834229,-11.108398,1
260,-7.3547363,19.958496,1,-16.555786,11.3220215,1,-12.6338939666748,-0.0189995765686035,1,-27.572632,-1.373291,1,-27.34375,-7.080078,1,-24.505615,-11.138916,1
261,-8.087158,19.561768,1,-17.27295,10.940552,1,-13.3211460113525,-0.390081882476807,1,-28.274536,-1.5716553,1,-28.030396,-7.1258545,1,-25.177002,-11.108398,1
262,-8.911133,19.226074,1,-17.974854,10.650635,1,-13.9585571289063,-0.657299041748047,1,-28.930664,-1.5716553,1,-28.625488,-7.156372,1,-25.741577,-11.154175,1
263,-9.735107,19.02771,1,-18.707275,10.391235,1,-14.6392383575439,-0.89818811416626,1,-29.61731,-1.7089844,1,-29.327393,-7.171631,1,-26.412964,-11.154175,1
264,-10.559082,18.814087,1,-19.500732,10.20813,1,-15.2595863342285,-1.01740598678589,1,-30.24292,-1.7242432,1,-29.922485,-7.1411133,1,-27.038574,-11.138916,1
265,-11.428833,18.64624,1,-20.217896,9.979248,1,-15.8628826141357,-1.20260667800903,1,-30.853271,-1.739502,1,-30.471802,-7.1105957,1,-27.694702,-11.047363,1
266,-12.1154785,18.52417,1,-20.9198,9.918213,1,-16.471866607666,-1.22700643539429,1,-31.463623,-1.7242432,1,-31.082153,-7.1258545,1,-28.198242,-11.0321045,1
267,-12.786865,18.447876,1,-21.697998,9.735107,1,-17.063793182373,-1.33395528793335,1,-32.058716,-1.7242432,1,-31.677246,-7.0648193,1,-28.930664,-10.986328,1
268,-13.549805,18.356323,1,-22.354126,9.689331,1,-17.6271018981934,-1.34041213989258,1,-32.62329,-1.6784668,1,-32.27234,-6.9732666,1,-29.541016,-10.971069,1
269,-14.144897,18.28003,1,-22.964478,9.643555,1,-18.1303195953369,-1.33965682983398,1,-33.12683,-1.663208,1,-32.852173,-6.9732666,1,-30.12085,-10.925293,1
270,-14.755249,18.249512,1,-23.55957,9.628296,1,-18.6482715606689,-1.32063722610474,1,-33.64563,-1.6021729,1,-33.38623,-6.866455,1,-30.74646,-10.940552,1
271,-15.24353,18.188477,1,-24.093628,9.567261,1,-19.1196441650391,-1.35333824157715,1,-34.118652,-1.5258789,1,-33.981323,-6.80542,1,-31.38733,-10.83374,1
272,-15.777588,18.1427,1,-24.612427,9.552002,1,-19.6375961303711,-1.36821126937866,1,-34.63745,-1.4343262,1,-34.561157,-6.8206787,1,-32.01294,-10.925293,1
273,-16.143799,18.051147,1,-24.993896,9.475708,1,-20.1410312652588,-1.49924993515015,1,-35.14099,-1.4648438,1,-35.110474,-6.7749023,1,-32.63855,-10.864258,1
274,-16.494751,18.02063,1,-25.390625,9.567261,1,-20.5682373046875,-1.42112302780151,1,-35.568237,-1.4190674,1,-35.67505,-6.729126,1,-33.26416,-10.910034,1
275,-16.738892,18.02063,1,-25.619507,9.58252,1,-20.9505577087402,-1.47193288803101,1,-35.949707,-1.3122559,1,-36.14807,-6.668091,1,-33.920288,-10.864258,1
276,-17.044067,17.990112,1,-26.016235,9.658813,1,-21.3934707641602,-1.41503143310547,1,-36.392212,-1.2207031,1,-36.68213,-6.6070557,1,-34.561157,-10.894775,1
277,-17.227173,17.944336,1,-26.275635,9.674072,1,-21.7936058044434,-1.45747900009155,1,-36.78894,-1.083374,1,-37.200928,-6.5460205,1,-35.14099,-10.864258,1
278,-17.501831,17.913818,1,-26.397705,9.674072,1,-22.14967918396,-1.54886388778687,1,-37.139893,-1.0070801,1,-37.643433,-6.515503,1,-35.842896,-10.848999,1
279,-17.562866,17.837524,1,-26.611328,9.719849,1,-22.4418849945068,-1.5325174331665,1,-37.42981,-0.93078613,1,-38.116455,-6.454468,1,-36.376953,-10.83374,1
280,-17.608643,17.77649,1,-26.58081,9.70459,1,-22.7531414031982,-1.66857767105103,1,-37.734985,-0.93078613,1,-38.604736,-6.439209,1,-37.0636,-10.772705,1
281,-17.623901,17.700195,1,-26.611328,9.689331,1,-23.103588104248,-1.78654623031616,1,-38.07068,-0.79345703,1,-39.031982,-6.3476562,1,-37.65869,-10.726929,1
282,-17.700195,17.578125,1,-26.70288,9.597778,1,-23.3546829223633,-1.92565774917603,1,-38.29956,-0.64086914,1,-39.398193,-6.164551,1,-38.101196,-10.635376,1
283,-17.623901,17.440796,1,-26.71814,9.567261,1,-23.5891056060791,-2.01760578155518,1,-38.497925,-0.36621094,1,-39.764404,-6.0424805,1,-38.528442,-10.5896,1
284,-17.608643,17.349243,1,-26.672363,9.521484,1,-23.5323390960693,-2.06040859222412,1,-38.2843,0.6561279,1,-40.100098,-5.8135986,1,-39.108276,-10.467529,1
285,-17.562866,17.303467,1,-26.672363,9.521484,1,-23.6697750091553,-2.09679698944092,1,-38.406372,0.7019043,1,-40.267944,-5.5999756,1,-39.489746,-10.360718,1
286,-17.425537,17.425537,1,-26.70288,9.613037,1,-23.7523498535156,-2.01857233047485,1,-38.497925,0.7324219,1,-40.405273,-5.432129,1,-39.871216,-10.192871,1
287,-17.456055,17.51709,1,-26.70288,9.841919,1,-23.8267574310303,-1.80831336975098,1,-38.604736,0.76293945,1,-40.618896,-5.1879883,1,-40.237427,-10.116577,1
288,-17.440796,17.745972,1,-26.779175,10.08606,1,-23.8233757019043,-1.54421472549438,1,-38.635254,0.8239746,1,-40.725708,-4.9438477,1,-40.664673,-9.994507,1
289,-17.410278,17.959595,1,-26.748657,10.406494,1,-23.869909286499,-1.24309062957764,1,-38.711548,0.93078613,1,-40.878296,-4.8065186,1,-41.07666,-9.94873,1
290,-17.364502,18.218994,1,-26.901245,10.757446,1,-23.8854064941406,-0.857402801513672,1,-38.757324,1.0986328,1,-40.96985,-4.547119,1,-41.381836,-9.94873,1
291,-17.410278,18.447876,1,-26.96228,11.154175,1,-23.7527122497559,-0.408638000488281,1,-38.635254,1.4648438,1,-40.725708,-4.1656494,1,-41.610718,-9.735107,1
292,-17.410278,18.692017,1,-27.130127,11.657715,1,-23.6227035522461,0.181740760803223,1,-38.467407,2.3345947,1,-40.039062,-3.3874512,1,-41.259766,-9.292603,1
293,-17.364502,18.951416,1,-27.175903,12.145996,1,-23.5771141052246,0.698344230651856,1,-38.29956,3.5705566,1,-38.986206,-2.166748,1,-40.06958,-8.331299,1
294,-17.440796,19.256592,1,-27.236938,12.72583,1,-23.2358570098877,1.41250419616699,1,-37.93335,4.40979,1,-38.085938,-0.4119873,1,-38.650513,-6.7596436,1
295,-17.364502,19.53125,1,-27.236938,13.244629,1,-23.418306350708,1.86842346191406,1,-37.78076,6.1950684,1,-37.109375,1.0375977,1,-37.55188,-5.0811768,1
296,-17.288208,19.821167,1,-27.160645,13.809204,1,-23.3230972290039,2.43936538696289,1,-37.53662,7.232666,1,-36.132812,2.090454,1,-36.392212,-3.479004,1
297,-17.288208,20.15686,1,-27.114868,14.328003,1,-23.1007823944092,3.01928424835205,1,-37.261963,7.965088,1,-35.217285,3.0059814,1,-35.064697,-2.456665,1
298,-17.288208,20.492554,1,-27.053833,14.801025,1,-22.6160621643066,3.65175724029541,1,-36.92627,8.148193,1,-34.332275,3.540039,1,-33.477783,-1.7852783,1
299,-17.27295,20.828247,1,-27.008057,15.2282715,1,-22.1272926330566,4.26569080352783,1,-36.636353,8.071899,1,-33.416748,3.7384033,1,-31.829834,-1.3885498,1
300,-17.27295,21.194458,1,-27.008057,15.625,1,-21.5284633636475,4.94913673400879,1,-36.27014,7.7209473,1,-32.714844,3.7231445,1,-30.258179,-1.0986328,1
301,-17.166138,21.469116,1,-26.901245,15.945435,1,-20.9416046142578,5.52993392944336,1,-35.842896,7.247925,1,-31.89087,3.6468506,1,-28.793335,-0.8544922,1
302,-17.150879,21.728516,1,-26.885986,16.235352,1,-20.3352584838867,6.18110084533691,1,-35.324097,6.7596436,1,-31.12793,3.5858154,1,-27.450562,-0.5493164,1
303,-16.998291,22.003174,1,-26.687622,16.51001,1,-19.7197113037109,6.74024772644043,1,-34.713745,6.3171387,1,-30.288696,3.4332275,1,-26.229858,-0.36621094,1
304,-16.906738,22.232056,1,-26.504517,16.738892,1,-19.0598678588867,7.3273458480835,1,-33.996582,5.9509277,1,-29.449463,3.3721924,1,-24.993896,-0.1373291,1
305,-16.738892,22.491455,1,-26.260376,16.952515,1,-18.3880767822266,7.89564371109009,1,-33.218384,5.645752,1,-28.518677,3.326416,1,-23.773193,0.1373291,1
306,-16.601562,22.750854,1,-26.016235,17.181396,1,-17.7075386047363,8.52313041687012,1,-32.37915,5.4016113,1,-27.542114,3.2806396,1,-22.537231,0.38146973,1
307,-16.38794,23.025513,1,-25.650024,17.349243,1,-16.8735046386719,9.16555595397949,1,-31.311035,5.0964355,1,-26.382446,3.2043457,1,-21.16394,0.579834,1
308,-16.281128,23.422241,1,-25.283813,17.562866,1,-15.977029800415,9.98765754699707,1,-30.014038,4.699707,1,-24.94812,3.1585693,1,-19.546509,1.0223389,1
309,-15.960693,23.849487,1,-24.795532,17.730713,1,-14.9815731048584,10.8251924514771,1,-28.518677,4.3640137,1,-23.1781,3.1585693,1,-17.532349,1.5869141,1
310,-15.762329,24.398804,1,-24.307251,17.944336,1,-14.0893630981445,11.6518964767456,1,-26.96228,3.9520264,1,-21.453857,3.1585693,1,-15.563965,2.243042,1
311,-15.640259,25.009155,1,-23.880005,18.173218,1,-13.2453927993774,12.6139898300171,1,-25.131226,3.463745,1,-19.470215,3.189087,1,-13.641357,2.5939941,1
312,-15.518188,25.634766,1,-23.498535,18.432617,1,-12.5376310348511,13.5480899810791,1,-23.1781,2.9754639,1,-17.654419,3.0059814,1,-11.703491,2.4871826,1
313,-15.50293,26.138306,1,-23.117065,18.615723,1,-11.918927192688,14.3027534484863,1,-21.1792,2.5024414,1,-15.533447,2.6397705,1,-9.58252,2.2583008,1
314,-15.518188,26.59607,1,-22.81189,18.78357,1,-11.3835163116455,15.1240196228027,1,-18.966675,2.1820068,1,-13.366699,2.3498535,1,-7.293701,2.105713,1
315,-15.518188,26.96228,1,-22.43042,18.89038,1,-10.8685512542725,15.6774034500122,1,-16.921997,1.953125,1,-11.230469,2.1820068,1,-5.065918,1.953125,1
316,-15.579224,27.282715,1,-22.109985,18.920898,1,-10.4804592132568,15.9621610641479,1,-15.060425,1.6784668,1,-9.216309,2.0599365,1,-3.0975342,1.6784668,1
317,-15.579224,27.48108,1,-21.697998,18.966675,1,-10.0694093704224,16.0042552947998,1,-13.442993,1.3885498,1,-7.461548,1.449585,1,-1.2664795,0.93078613,1
318,-15.579224,27.496338,1,-21.331787,18.89038,1,-9.74200534820557,15.7795972824097,1,-12.069702,0.9613037,1,-5.9509277,0.38146973,1,0.33569336,-0.4119873,1
319,-15.472412,27.420044,1,-21.072388,18.707275,1,-9.56578636169434,15.3016662597656,1,-10.955811,0.36621094,1,-4.714966,-0.9460449,1,1.5106201,-2.2735596,1
320,-15.548706,27.145386,1,-20.812988,18.249512,1,-9.37963676452637,14.6055450439453,1,-10.299683,-0.36621094,1,-4.0283203,-2.380371,1,2.029419,-4.257202,1
321,-15.396118,26.71814,1,-20.507812,17.63916,1,-9.16473770141602,13.7232074737549,1,-10.040283,-1.2512207,1,-3.829956,-3.9672852,1,1.876831,-6.3476562,1
322,-15.335083,26.245117,1,-20.309448,16.89148,1,-9.0394344329834,12.7699794769287,1,-10.238647,-2.1820068,1,-4.3182373,-5.645752,1,1.1444092,-8.514404,1
323,-15.258789,25.57373,1,-20.080566,16.052246,1,-8.91224098205566,11.6626558303833,1,-10.787964,-3.2196045,1,-5.218506,-7.2784424,1,0,-10.818481,1
324,-15.2282715,24.841309,1,-20.019531,15.136719,1,-8.93509292602539,10.5394134521484,1,-11.657715,-4.211426,1,-6.225586,-8.377075,1,-0.7324219,-11.062622,1
325,-15.12146,24.108887,1,-19.958496,14.312744,1,-8.98501014709473,9.45655345916748,1,-12.557983,-5.1116943,1,-7.156372,-8.81958,1,-1.7089844,-11.291504,1
326,-15.060425,23.513794,1,-20.019531,13.534546,1,-8.97903919219971,8.83267974853516,1,-13.2751465,-5.5389404,1,-7.9040527,-9.063721,1,-2.4414062,-11.291504,1
327,-14.99939,22.964478,1,-20.126343,12.954712,1,-9.03267765045166,8.37971496582031,1,-13.885498,-5.8135986,1,-8.590698,-9.170532,1,-2.9296875,-11.535645,1
328,-15.090942,22.583008,1,-20.29419,12.496948,1,-9.17783260345459,7.97736787796021,1,-14.511108,-6.0424805,1,-9.216309,-9.277344,1,-3.4179688,-11.291504,1
329,-15.060425,22.201538,1,-20.401001,12.084961,1,-9.28368854522705,7.56772947311401,1,-15.106201,-6.2561035,1,-9.857178,-9.3688965,1,-3.90625,-11.291504,1
330,-15.060425,21.820068,1,-20.492554,11.611938,1,-9.39041900634766,7.05753231048584,1,-15.808105,-6.500244,1,-10.498047,-9.429932,1,-4.638672,-11.291504,1
331,-15.029907,21.438599,1,-20.614624,11.245728,1,-9.51179695129395,6.69301509857178,1,-16.418457,-6.6223145,1,-11.123657,-9.521484,1,-5.126953,-11.535645,1
332,-14.907837,21.057129,1,-20.828247,10.955811,1,-9.75328731536865,6.33571434020996,1,-17.01355,-6.790161,1,-11.764526,-9.628296,1,-5.6152344,-11.535645,1
333,-14.846802,20.767212,1,-21.026611,10.681152,1,-9.97155475616455,6.01363182067871,1,-17.684937,-6.8511963,1,-12.359619,-9.70459,1,-6.362915,-11.291504,1
334,-14.846802,20.523071,1,-21.224976,10.513306,1,-10.2319793701172,5.70144367218018,1,-18.325806,-6.92749,1,-13.092041,-9.735107,1,-6.8511963,-11.520386,1
335,-14.801025,20.29419,1,-21.469116,10.421753,1,-10.5629739761353,5.41615104675293,1,-18.951416,-7.019043,1,-13.824463,-9.765625,1,-7.583618,-11.291504,1
336,-14.755249,20.065308,1,-21.759033,10.3302,1,-10.9403667449951,5.13824272155762,1,-19.577026,-7.1258545,1,-14.419556,-9.82666,1,-8.071899,-11.276245,1
337,-14.694214,19.958496,1,-21.957397,10.345459,1,-11.2386226654053,4.95029163360596,1,-20.15686,-7.1105957,1,-15.060425,-9.902954,1,-8.804321,-11.520386,1
338,-14.633179,19.89746,1,-22.201538,10.406494,1,-11.6333389282227,4.72202587127686,1,-20.812988,-7.1411133,1,-15.701294,-9.94873,1,-9.536743,-11.520386,1
339,-14.572144,19.836426,1,-22.354126,10.559082,1,-11.9388694763184,4.59901332855225,1,-21.408081,-7.0343018,1,-16.326904,-9.918213,1,-10.284424,-11.520386,1
340,-14.526367,19.89746,1,-22.55249,10.757446,1,-12.2918329238892,4.53499412536621,1,-22.003174,-6.8969727,1,-16.967773,-9.841919,1,-10.772705,-11.520386,1
341,-14.434814,19.927979,1,-22.827148,10.971069,1,-12.6742935180664,4.5742335319519,1,-22.55249,-6.713867,1,-17.608643,-9.796143,1,-11.505127,-11.520386,1
342,-14.404297,20.03479,1,-23.086548,11.199951,1,-13.0686626434326,4.5937442779541,1,-23.147583,-6.515503,1,-18.234253,-9.765625,1,-11.993408,-11.520386,1
343,-14.343262,20.095825,1,-23.345947,11.413574,1,-13.4206886291504,4.66900444030762,1,-23.666382,-6.286621,1,-18.78357,-9.689331,1,-12.72583,-11.505127,1
344,-14.297485,20.141602,1,-23.483276,11.627197,1,-13.7420339584351,4.61947298049927,1,-24.230957,-6.1035156,1,-19.454956,-9.567261,1,-13.458252,-11.505127,1
345,-14.205933,20.27893,1,-23.727417,11.901855,1,-14.1083097457886,4.72740316390991,1,-24.765015,-5.8288574,1,-19.973755,-9.521484,1,-13.961792,-11.505127,1
346,-14.11438,20.41626,1,-23.895264,12.176514,1,-14.4420900344849,4.78479433059692,1,-25.19226,-5.6762695,1,-20.568848,-9.429932,1,-14.694214,-11.505127,1
347,-14.083862,20.53833,1,-24.07837,12.451172,1,-14.7697191238403,4.87825775146484,1,-25.650024,-5.4473877,1,-21.102905,-9.353638,1,-15.182495,-11.505127,1
348,-14.053345,20.629883,1,-24.230957,12.6953125,1,-15.0871868133545,4.92411708831787,1,-26.138306,-5.218506,1,-21.606445,-9.277344,1,-15.670776,-11.505127,1
349,-14.083862,20.828247,1,-24.398804,12.893677,1,-15.3598203659058,5.00084543228149,1,-26.535034,-5.004883,1,-22.17102,-9.216309,1,-16.403198,-11.505127,1
350,-14.099121,20.904541,1,-24.56665,13.092041,1,-15.6219186782837,5.09255409240723,1,-26.931763,-4.760742,1,-22.720337,-9.124756,1,-17.150879,-11.505127,1
351,-14.23645,21.04187,1,-24.795532,13.214111,1,-15.9358491897583,5.12053298950195,1,-27.404785,-4.547119,1,-23.254395,-9.017944,1,-17.63916,-11.505127,1
352,-14.343262,21.16394,1,-24.978638,13.397217,1,-16.2070579528809,5.20823669433594,1,-27.755737,-4.3640137,1,-23.80371,-8.911133,1,-18.371582,-11.505127,1
353,-14.434814,21.28601,1,-25.161743,13.534546,1,-16.44140625,5.2910213470459,1,-28.121948,-4.119873,1,-24.246216,-8.804321,1,-18.859863,-11.505127,1
354,-14.450073,21.469116,1,-25.32959,13.641357,1,-16.6609992980957,5.34343576431274,1,-28.457642,-3.9215088,1,-24.795532,-8.728027,1,-19.607544,-11.489868,1
355,-14.572144,21.606445,1,-25.421143,13.809204,1,-16.8858680725098,5.37421274185181,1,-28.823853,-3.7078857,1,-25.268555,-8.605957,1,-20.095825,-11.489868,1
356,-14.61792,21.743774,1,-25.527954,13.961792,1,-17.0885257720947,5.43090486526489,1,-29.144287,-3.4942627,1,-25.665283,-8.514404,1,-20.828247,-11.489868,1
357,-14.663696,21.92688,1,-25.650024,14.251709,1,-17.3745079040527,5.56172561645508,1,-29.47998,-3.2958984,1,-26.2146,-8.43811,1,-21.560669,-11.489868,1
358,-14.633179,22.216797,1,-25.665283,14.541626,1,-17.6503467559814,5.61073684692383,1,-29.830933,-3.1433105,1,-26.657104,-8.361816,1,-22.064209,-11.489868,1
359,-14.694214,22.537231,1,-25.756836,14.892578,1,-17.9064502716064,5.81670665740967,1,-30.136108,-2.8686523,1,-27.191162,-8.255005,1,-22.55249,-11.489868,1
360,-14.770508,22.842407,1,-25.756836,15.167236,1,-18.1077251434326,5.92109441757202,1,-30.456543,-2.5939941,1,-27.633667,-8.148193,1,-23.284912,-11.489868,1
361,-14.907837,23.1781,1,-25.970459,15.487671,1,-18.4307899475098,6.15207195281982,1,-30.74646,-2.4108887,1,-28.121948,-8.117676,1,-24.017334,-11.489868,1
362,-15.014648,23.483276,1,-26.07727,15.716553,1,-18.7154808044434,6.24005365371704,1,-31.12793,-2.1820068,1,-28.625488,-8.026123,1,-24.520874,-11.489868,1
363,-15.167236,23.80371,1,-26.245117,15.991211,1,-19.0113334655762,6.41664218902588,1,-31.417847,-2.0141602,1,-29.09851,-7.9193115,1,-25.253296,-11.489868,1
364,-15.350342,24.06311,1,-26.443481,16.220093,1,-19.3146324157715,6.567138671875,1,-31.75354,-1.8157959,1,-29.556274,-7.8582764,1,-25.741577,-11.474609,1
365,-15.426636,24.32251,1,-26.504517,16.464233,1,-19.6023864746094,6.6478910446167,1,-32.11975,-1.6174316,1,-30.044556,-7.7209473,1,-26.2146,-11.276245,1
366,-15.594482,24.551392,1,-26.58081,16.723633,1,-19.8225898742676,6.80766248703003,1,-32.424927,-1.3275146,1,-30.48706,-7.5683594,1,-26.870728,-11.199951,1
367,-15.731812,24.902344,1,-26.550293,16.952515,1,-19.9399223327637,6.93737697601318,1,-32.65381,-1.0223389,1,-30.914307,-7.3547363,1,-27.374268,-11.21521,1
368,-15.930176,25.283813,1,-26.611328,17.27295,1,-20.0716953277588,7.21147871017456,1,-32.852173,-0.64086914,1,-31.38733,-7.0648193,1,-27.96936,-11.09314,1
369,-16.159058,25.665283,1,-26.672363,17.608643,1,-20.1036643981934,7.56612300872803,1,-32.928467,-0.21362305,1,-31.75354,-6.7596436,1,-28.48816,-10.971069,1
370,-16.479492,26.000977,1,-26.763916,17.868042,1,-20.1491165161133,7.85582685470581,1,-33.02002,0.15258789,1,-32.043457,-6.515503,1,-28.9917,-10.910034,1
371,-16.845703,26.33667,1,-26.901245,18.112183,1,-20.2081336975098,8.15215015411377,1,-33.111572,0.50354004,1,-32.39441,-6.2408447,1,-29.418945,-10.848999,1
372,-17.196655,26.473999,1,-27.023315,18.249512,1,-20.2833843231201,8.32110118865967,1,-33.2489,0.77819824,1,-32.730103,-6.088257,1,-30.029297,-10.803223,1
373,-17.51709,26.45874,1,-27.22168,18.295288,1,-20.373363494873,8.44132518768311,1,-33.40149,1.0070801,1,-33.096313,-5.9051514,1,-30.532837,-10.818481,1
374,-17.852783,26.382446,1,-27.404785,18.234253,1,-20.5593757629395,8.37827110290527,1,-33.691406,1.1291504,1,-33.584595,-5.8135986,1,-31.082153,-10.787964,1
375,-18.1427,26.123047,1,-27.60315,18.051147,1,-20.7427558898926,8.20559024810791,1,-34.072876,1.3275146,1,-34.0271,-5.6152344,1,-31.677246,-10.7421875,1
376,-18.554688,25.863647,1,-27.893066,17.745972,1,-20.9226207733154,7.97802066802979,1,-34.500122,1.6021729,1,-34.51538,-5.340576,1,-32.165527,-10.726929,1
377,-18.981934,25.57373,1,-28.137207,17.39502,1,-21.1262969970703,7.6560697555542,1,-35.04944,2.0751953,1,-34.835815,-4.852295,1,-32.455444,-10.498047,1
378,-19.577026,25.253296,1,-28.427124,17.01355,1,-21.2555389404297,7.3923020362854,1,-35.53772,2.8076172,1,-34.698486,-3.768921,1,-32.74536,-10.101318,1
379,-19.958496,24.963379,1,-28.778076,16.708374,1,-21.4534397125244,7.20312738418579,1,-36.010742,3.5858154,1,-34.362793,-2.2583008,1,-32.62329,-8.651733,1
380,-20.462036,24.734497,1,-29.159546,16.525269,1,-21.7128105163574,7.11537313461304,1,-36.43799,4.257202,1,-33.996582,-0.62561035,1,-31.433105,-6.652832,1
381,-20.950317,24.627686,1,-29.571533,16.433716,1,-21.9256439208984,7.18491172790527,1,-36.743164,4.852295,1,-33.569336,0.5493164,1,-30.166626,-4.9438477,1
382,-21.469116,24.505615,1,-29.968262,16.448975,1,-22.0535125732422,7.42917776107788,1,-36.880493,5.1574707,1,-33.233643,1.2359619,1,-29.525757,-3.4942627,1
383,-22.018433,24.44458,1,-30.471802,16.494751,1,-22.1290969848633,7.86925268173218,1,-36.895752,5.2337646,1,-32.852173,1.7700195,1,-29.067993,-2.5939941,1
384,-22.613525,24.414062,1,-30.944824,16.464233,1,-22.1702156066895,8.27849578857422,1,-36.77368,4.852295,1,-32.37915,1.9226074,1,-28.167725,-1.8463135,1
385,-23.162842,24.337769,1,-31.280518,16.403198,1,-22.1156787872314,8.65686225891113,1,-36.42273,4.1503906,1,-31.723022,1.8920898,1,-27.038574,-1.3275146,1
386,-23.6969,24.169922,1,-31.646729,16.189575,1,-21.9653072357178,9.09943389892578,1,-35.79712,3.2958984,1,-30.86853,1.7089844,1,-25.817871,-0.77819824,1
387,-24.246216,24.002075,1,-31.99768,15.991211,1,-21.8169994354248,9.63874816894531,1,-35.01892,2.5177002,1,-29.98352,1.5258789,1,-24.475098,-0.36621094,1
388,-24.841309,23.864746,1,-32.302856,15.701294,1,-21.7331466674805,10.0196332931519,1,-34.240723,1.739502,1,-29.129028,1.1749268,1,-23.345947,0,1
389,-25.283813,23.727417,1,-32.562256,15.441895,1,-21.7429275512695,10.251317024231,1,-33.615112,1.083374,1,-28.427124,0.869751,1,-22.415161,0,1
390,-25.772095,23.57483,1,-32.806396,15.213013,1,-21.7756366729736,10.488356590271,1,-33.050537,0.5950928,1,-27.893066,0.47302246,1,-21.743774,-0.091552734,1
391,-26.260376,23.391724,1,-32.989502,14.953613,1,-21.8388442993164,10.5193290710449,1,-32.546997,0.015258789,1,-27.34375,0.030517578,1,-21.057129,-0.33569336,1
392,-26.657104,23.1781,1,-33.187866,14.633179,1,-21.9143600463867,10.5212326049805,1,-32.13501,-0.45776367,1,-26.916504,-0.289917,1,-20.568848,-0.45776367,1
393,-27.20642,22.949219,1,-33.355713,14.328003,1,-21.9762840270996,10.5189876556396,1,-31.738281,-0.869751,1,-26.504517,-0.64086914,1,-20.15686,-0.5340576,1
394,-27.572632,22.766113,1,-33.584595,14.022827,1,-22.1471939086914,10.3915958404541,1,-31.433105,-1.3885498,1,-26.123047,-0.90026855,1,-19.821167,-0.8087158,1
395,-28.060913,22.628784,1,-33.87451,13.763428,1,-22.3390274047852,10.4569692611694,1,-31.341553,-1.5411377,1,-25.878906,-1.2359619,1,-19.577026,-0.9613037,1
396,-28.549194,22.506714,1,-34.057617,13.580322,1,-22.4851989746094,10.405553817749,1,-31.37207,-1.6784668,1,-25.726318,-1.3580322,1,-19.424438,-1.083374,1
397,-28.9917,22.460938,1,-34.301758,13.473511,1,-22.6877136230469,10.4545669555664,1,-31.25,-1.8615723,1,-25.650024,-1.4801025,1,-19.439697,-1.2054443,1
398,-29.49524,22.460938,1,-34.622192,13.427734,1,-22.9721641540527,10.5507946014404,1,-31.234741,-1.9683838,1,-25.57373,-1.5106201,1,-19.485474,-1.2359619,1
399,-29.937744,22.491455,1,-35.01892,13.427734,1,-23.3049926757812,10.8231296539307,1,-31.188965,-1.9378662,1,-25.558472,-1.4190674,1,-19.439697,-1.1901855,1
400,-30.380249,22.613525,1,-35.369873,13.473511,1,-23.6094093322754,11.0878324508667,1,-31.021118,-1.953125,1,-25.543213,-1.3275146,1,-19.28711,-1.0681152,1
401,-30.929565,22.735596,1,-35.65979,13.595581,1,-23.8644065856934,11.3890228271484,1,-30.807495,-1.9073486,1,-25.299072,-1.2054443,1,-19.02771,-0.869751,1
402,-31.38733,22.93396,1,-36.071777,13.778687,1,-24.2442321777344,11.7515840530396,1,-30.60913,-1.8310547,1,-25.054932,-1.083374,1,-18.829346,-0.6713867,1
403,-31.982422,23.117065,1,-36.40747,13.961792,1,-24.5467510223389,12.1387968063355,1,-30.456543,-1.6479492,1,-24.82605,-0.88500977,1,-18.64624,-0.5493164,1
404,-32.485962,23.30017,1,-36.849976,14.099121,1,-24.9557495117187,12.5093536376953,1,-30.288696,-1.5106201,1,-24.68872,-0.74768066,1,-18.432617,-0.5187988,1
405,-33.050537,23.4375,1,-37.353516,14.297485,1,-25.4402236938477,12.8575439453125,1,-30.181885,-1.373291,1,-24.520874,-0.6561279,1,-18.28003,-0.39672852,1
406,-33.599854,23.590088,1,-37.78076,14.389038,1,-25.8548545837402,13.0575885772705,1,-30.10559,-1.3275146,1,-24.383545,-0.44250488,1,-18.096924,-0.2593994,1
407,-34.240723,23.727417,1,-38.269043,14.465332,1,-26.3201103210449,13.3594207763672,1,-29.968262,-1.1901855,1,-24.20044,-0.33569336,1,-17.929077,-0.21362305,1
408,-34.835815,23.849487,1,-38.78784,14.541626,1,-26.8238830566406,13.6122713088989,1,-29.754639,-1.0986328,1,-23.910522,-0.2593994,1,-17.63916,-0.24414062,1
409,-35.53772,23.895264,1,-39.3219,14.61792,1,-27.3449172973633,13.8750648498535,1,-29.449463,-0.9765625,1,-23.513794,-0.1373291,1,-17.318726,-0.22888184,1
410,-36.193848,23.986816,1,-39.718628,14.663696,1,-27.7322216033936,14.0927038192749,1,-29.159546,-0.8392334,1,-23.101807,0,1,-16.87622,-0.19836426,1
411,-36.77368,24.047852,1,-40.20691,14.73999,1,-28.2114944458008,14.4082765579224,1,-28.808594,-0.579834,1,-22.67456,0.24414062,1,-16.448975,-0.030517578,1
412,-37.506104,24.093628,1,-40.603638,14.831543,1,-28.6048049926758,14.6640605926514,1,-28.518677,-0.33569336,1,-22.29309,0.61035156,1,-16.204834,0.32043457,1
413,-38.07068,24.154663,1,-40.93933,14.923096,1,-28.9395580291748,14.9969291687012,1,-28.198242,0.015258789,1,-21.942139,1.0223389,1,-15.792847,0.6713867,1
414,-38.711548,24.246216,1,-41.290283,15.12146,1,-29.2908973693848,15.2427272796631,1,-27.923584,0.30517578,1,-21.560669,1.3275146,1,-15.380859,0.869751,1
415,-39.382935,24.230957,1,-41.656494,15.2282715,1,-29.6569404602051,15.3317546844482,1,-27.60315,0.47302246,1,-21.133423,1.4190674,1,-14.892578,0.8544922,1
416,-39.916992,24.169922,1,-41.992188,15.304565,1,-29.9922046661377,15.284008026123,1,-27.435303,0.50354004,1,-20.874023,1.2359619,1,-14.6484375,0.64086914,1
417,-40.420532,24.07837,1,-42.282104,15.304565,1,-30.2864074707031,14.9831829071045,1,-27.34375,0.2746582,1,-20.67566,0.7019043,1,-14.389038,-0.061035156,1
418,-40.924072,23.834229,1,-42.663574,15.045166,1,-30.6765270233154,14.4877395629883,1,-27.34375,-0.1373291,1,-20.523071,-0.22888184,1,-14.23645,-1.2664795,1
419,-41.366577,23.529053,1,-42.892456,14.724731,1,-30.929817199707,13.7785520553589,1,-27.435303,-0.8087158,1,-20.553589,-1.5258789,1,-14.297485,-2.89917,1
420,-41.885376,23.101807,1,-43.136597,14.23645,1,-31.2044105529785,12.9625072479248,1,-27.679443,-1.6174316,1,-20.767212,-2.960205,1,-14.678955,-4.714966,1
421,-42.160034,22.68982,1,-43.411255,13.549805,1,-31.530029296875,11.8656253814697,1,-28.076172,-2.7313232,1,-21.255493,-4.562378,1,-15.197754,-6.591797,1
422,-42.48047,22.079468,1,-43.60962,12.802124,1,-31.7711601257324,10.8397579193115,1,-28.640747,-3.829956,1,-22.003174,-6.3476562,1,-16.036987,-8.407593,1
423,-42.633057,21.453857,1,-43.670654,11.932373,1,-31.897533416748,9.60995674133301,1,-29.266357,-5.1574707,1,-22.81189,-8.087158,1,-17.059326,-10.482788,1
424,-42.73987,20.736694,1,-43.8385,11.062622,1,-32.1684646606445,8.26793575286865,1,-30.014038,-6.576538,1,-23.727417,-9.521484,1,-17.8833,-11.825562,1
425,-42.922974,19.882202,1,-44.006348,9.994507,1,-32.3685302734375,7.06854724884033,1,-31.051636,-7.873535,1,-24.70398,-10.1623535,1,-18.600464,-11.917114,1
426,-43.029785,19.042969,1,-44.34204,8.956909,1,-32.6531562805176,6.24215078353882,1,-31.707764,-8.728027,1,-25.497437,-10.498047,1,-19.104004,-11.962891,1
427,-43.24341,18.188477,1,-44.75403,8.117676,1,-32.9885902404785,5.75665807723999,1,-32.39441,-9.231567,1,-26.229858,-10.726929,1,-19.638062,-11.947632,1
428,-43.563843,17.456055,1,-45.074463,7.4157715,1,-33.2555656433105,5.33882856369019,1,-32.989502,-9.658813,1,-26.931763,-10.910034,1,-20.217896,-12.008667,1
429,-43.884277,16.87622,1,-45.532227,6.713867,1,-33.6479644775391,5.05125951766968,1,-33.63037,-9.94873,1,-27.618408,-11.108398,1,-20.78247,-12.023926,1
430,-44.296265,16.418457,1,-45.98999,6.210327,1,-34.0637588500977,4.88176822662354,1,-34.2865,-10.116577,1,-28.22876,-11.154175,1,-21.377563,-11.978149,1
431,-44.58618,16.12854,1,-46.447754,5.9051514,1,-34.5029678344727,4.75534725189209,1,-34.92737,-10.238647,1,-28.945923,-11.199951,1,-22.04895,-11.993408,1
432,-45.10498,15.899658,1,-46.920776,5.5999756,1,-34.9589691162109,4.64337205886841,1,-35.53772,-10.345459,1,-29.556274,-11.291504,1,-22.720337,-12.023926,1
433,-45.669556,15.716553,1,-47.51587,5.340576,1,-35.5400886535645,4.57857894897461,1,-36.209106,-10.406494,1,-30.212402,-11.306763,1,-23.361206,-11.947632,1
434,-46.325684,15.548706,1,-48.14148,5.1574707,1,-36.159553527832,4.49913597106934,1,-36.895752,-10.482788,1,-30.807495,-11.306763,1,-24.06311,-11.901855,1
435,-46.966553,15.411377,1,-48.75183,5.0201416,1,-36.7691192626953,4.37626791000366,1,-37.521362,-10.604858,1,-31.448364,-11.383057,1,-24.719238,-11.84082,1
436,-47.576904,15.274048,1,-49.331665,4.852295,1,-37.3425483703613,4.34136819839478,1,-38.17749,-10.635376,1,-32.104492,-11.398315,1,-25.405884,-11.856079,1
437,-48.065186,15.151978,1,-49.88098,4.6691895,1,-37.8869781494141,4.28990316390991,1,-38.81836,-10.681152,1,-32.76062,-11.383057,1,-26.016235,-11.795044,1
438,-48.461914,15.045166,1,-50.369263,4.470825,1,-38.3715438842773,4.23684167861939,1,-39.413452,-10.726929,1,-33.340454,-11.398315,1,-26.672363,-11.825562,1
439,-49.057007,14.9383545,1,-50.994873,4.3945312,1,-38.9953956604004,4.28249597549439,1,-40.039062,-10.681152,1,-33.966064,-11.383057,1,-27.20642,-11.825562,1
440,-49.560547,14.923096,1,-51.483154,4.3029785,1,-39.4831809997559,4.27694129943848,1,-40.603638,-10.681152,1,-34.576416,-11.398315,1,-27.877808,-11.856079,1
441,-50.01831,14.892578,1,-52.108765,4.2266846,1,-40.1089248657227,4.28871059417725,1,-41.275024,-10.665894,1,-35.125732,-11.383057,1,-28.48816,-11.84082,1
442,-50.50659,14.892578,1,-52.703857,4.119873,1,-40.7048873901367,4.27701616287231,1,-41.82434,-10.681152,1,-35.812378,-11.352539,1,-29.09851,-11.84082,1
443,-51.05591,14.862061,1,-53.237915,4.0893555,1,-41.2388381958008,4.23811388015747,1,-42.46521,-10.71167,1,-36.361694,-11.367798,1,-29.663086,-11.825562,1
444,-51.55945,14.831543,1,-53.848267,4.0130615,1,-41.851016998291,4.27002334594727,1,-43.060303,-10.681152,1,-37.03308,-11.367798,1,-30.319214,-11.84082,1
445,-52.06299,14.816284,1,-54.504395,4.0130615,1,-42.507568359375,4.2889461517334,1,-43.670654,-10.665894,1,-37.612915,-11.352539,1,-30.86853,-11.825562,1
446,-52.65808,14.816284,1,-55.05371,3.9672852,1,-43.0574378967285,4.2663311958313,1,-44.311523,-10.681152,1,-38.223267,-11.33728,1,-31.600952,-11.810303,1
447,-53.207397,14.785767,1,-55.83191,3.982544,1,-43.8351097106934,4.25960922241211,1,-44.98291,-10.696411,1,-38.894653,-11.367798,1,-32.180786,-11.825562,1
448,-53.726196,14.801025,1,-56.33545,3.982544,1,-44.3375358581543,4.20643329620361,1,-45.578003,-10.7421875,1,-39.505005,-11.383057,1,-32.836914,-11.810303,1
449,-54.107666,14.877319,1,-56.869507,4.043579,1,-44.8711624145508,4.24292135238647,1,-46.218872,-10.696411,1,-40.08484,-11.352539,1,-33.447266,-11.810303,1
450,-54.595947,14.907837,1,-57.373047,4.0740967,1,-45.3733062744141,4.15346479415894,1,-46.85974,-10.772705,1,-40.756226,-11.352539,1,-34.057617,-11.810303,1
451,-55.038452,14.892578,1,-57.86133,4.1503906,1,-45.8613510131836,4.12715673446655,1,-47.454834,-10.787964,1,-41.44287,-11.383057,1,-34.75952,-11.84082,1
452,-55.41992,14.968872,1,-58.303833,4.2266846,1,-46.3043098449707,4.11994028091431,1,-48.095703,-10.772705,1,-42.007446,-11.352539,1,-35.308838,-11.795044,1
453,-55.908203,14.99939,1,-58.746338,4.3182373,1,-46.7477340698242,4.13538408279419,1,-48.66028,-10.7421875,1,-42.663574,-11.398315,1,-35.980225,-11.825562,1
454,-56.19812,15.045166,1,-59.249878,4.40979,1,-47.2533874511719,4.11947298049927,1,-49.28589,-10.7421875,1,-43.21289,-11.398315,1,-36.56006,-11.795044,1
455,-56.59485,15.136719,1,-59.661865,4.501343,1,-47.6682815551758,4.108971118927,1,-49.88098,-10.726929,1,-43.914795,-11.398315,1,-37.216187,-11.825562,1
456,-56.83899,15.167236,1,-60.012817,4.5776367,1,-48.0222663879395,4.10152196884155,1,-50.476074,-10.696411,1,-44.509888,-11.367798,1,-37.887573,-11.856079,1
457,-57.159424,15.258789,1,-60.409546,4.6844482,1,-48.4239845275879,4.09592914581299,1,-51.086426,-10.665894,1,-45.10498,-11.413574,1,-38.45215,-11.825562,1
458,-57.357788,15.289307,1,-60.74524,4.760742,1,-48.7643203735352,4.08424139022827,1,-51.651,-10.635376,1,-45.669556,-11.383057,1,-39.108276,-11.84082,1
459,-57.556152,15.350342,1,-61.065674,4.8217773,1,-49.0916595458984,4.03246545791626,1,-52.230835,-10.635376,1,-46.295166,-11.413574,1,-39.67285,-11.825562,1
460,-57.84607,15.411377,1,-61.523438,4.852295,1,-49.5534019470215,4.00477170944214,1,-52.886963,-10.620117,1,-46.905518,-11.383057,1,-40.298462,-11.886597,1
461,-58.151245,15.457153,1,-61.920166,4.974365,1,-49.9615097045898,3.97909879684448,1,-53.40576,-10.620117,1,-47.531128,-11.444092,1,-40.863037,-11.856079,1
462,-58.34961,15.563965,1,-62.301636,5.065918,1,-50.3489799499512,4.00100898742676,1,-54.016113,-10.543823,1,-48.14148,-11.383057,1,-41.519165,-11.871338,1
463,-58.60901,15.609741,1,-62.683105,5.1574707,1,-50.7449073791504,3.94116258621216,1,-54.641724,-10.543823,1,-48.75183,-11.398315,1,-42.099,-11.917114,1
464,-58.914185,15.74707,1,-63.156128,5.2948,1,-51.236930847168,3.90456295013428,1,-55.267334,-10.543823,1,-49.37744,-11.383057,1,-42.70935,-11.901855,1
465,-59.158325,15.792847,1,-63.583374,5.3863525,1,-51.6784934997559,3.87844181060791,1,-55.80139,-10.543823,1,-49.957275,-11.398315,1,-43.33496,-11.886597,1
466,-59.4635,15.899658,1,-64.02588,5.554199,1,-52.149040222168,3.83935117721558,1,-56.45752,-10.528564,1,-50.598145,-11.383057,1,-43.97583,-11.886597,1
467,-59.7229,15.975952,1,-64.36157,5.630493,1,-52.5058326721191,3.77539777755737,1,-57.022095,-10.528564,1,-51.17798,-11.398315,1,-44.570923,-11.871338,1
468,-59.951782,16.052246,1,-64.819336,5.7678223,1,-52.9876556396484,3.7649712562561,1,-57.678223,-10.482788,1,-51.834106,-11.383057,1,-45.24231,-11.901855,1
469,-60.165405,16.12854,1,-65.06348,5.859375,1,-53.2680587768555,3.65299367904663,1,-58.242798,-10.498047,1,-52.41394,-11.352539,1,-45.837402,-11.917114,1
470,-60.424805,16.174316,1,-65.42969,6.011963,1,-53.6611785888672,3.66629552841187,1,-58.85315,-10.406494,1,-53.05481,-11.383057,1,-46.463013,-11.947632,1
471,-60.62317,16.235352,1,-65.78064,6.1035156,1,-54.0511093139648,3.57010912895203,1,-59.417725,-10.437012,1,-53.619385,-11.413574,1,-47.073364,-11.978149,1
472,-60.806274,16.296387,1,-66.04004,6.1798096,1,-54.333122253418,3.54389429092407,1,-59.99756,-10.345459,1,-54.229736,-11.413574,1,-47.683716,-11.978149,1
473,-60.913086,16.38794,1,-66.39099,6.30188,1,-54.7337684631348,3.45420551300049,1,-60.577393,-10.360718,1,-54.80957,-11.33728,1,-48.24829,-12.008667,1
474,-61.050415,16.51001,1,-66.604614,6.454468,1,-54.9753608703613,3.4946563243866,1,-61.11145,-10.192871,1,-55.43518,-11.352539,1,-48.76709,-12.008667,1
475,-61.11145,16.555786,1,-66.89453,6.515503,1,-55.2981376647949,3.42945075035095,1,-61.676025,-10.147095,1,-55.984497,-11.291504,1,-49.37744,-12.023926,1
476,-61.24878,16.586304,1,-67.16919,6.6223145,1,-55.6044616699219,3.41963863372803,1,-62.25586,-10.025024,1,-56.549072,-11.245728,1,-49.987793,-12.039185,1
477,-61.35559,16.693115,1,-67.474365,6.790161,1,-55.9572486877441,3.42029190063477,1,-62.7594,-9.94873,1,-57.144165,-11.230469,1,-50.567627,-12.069702,1
478,-61.538696,16.799927,1,-67.77954,6.9732666,1,-56.3052177429199,3.46044373512268,1,-63.323975,-9.796143,1,-57.724,-11.184692,1,-51.208496,-12.054443,1
479,-61.569214,16.952515,1,-68.03894,7.1868896,1,-56.6386909484863,3.44065594673157,1,-63.919067,-9.674072,1,-58.31909,-11.199951,1,-51.834106,-12.1154785,1
480,-61.660767,17.120361,1,-68.29834,7.4310303,1,-56.9900970458984,3.41559934616089,1,-64.52942,-9.552002,1,-58.944702,-11.108398,1,-52.41394,-12.069702,1
481,-61.75232,17.318726,1,-68.58826,7.675171,1,-57.3629379272461,3.43344640731812,1,-65.078735,-9.429932,1,-59.47876,-11.0321045,1,-53.024292,-12.084961,1
482,-61.813354,17.547607,1,-68.80188,7.965088,1,-57.6658973693848,3.4940881729126,1,-65.582275,-9.246826,1,-60.058594,-11.001587,1,-53.634644,-12.130737,1
483,-61.76758,17.837524,1,-68.96973,8.331299,1,-57.9641647338867,3.54825305938721,1,-66.13159,-9.033203,1,-60.62317,-10.925293,1,-54.244995,-12.1154785,1
484,-61.782837,18.081665,1,-69.244385,8.636475,1,-58.3417510986328,3.6232385635376,1,-66.69617,-8.834839,1,-61.203003,-10.818481,1,-54.870605,-12.161255,1
485,-61.691284,18.38684,1,-69.44275,8.956909,1,-58.6610336303711,3.68864631652832,1,-67.276,-8.590698,1,-61.782837,-10.7421875,1,-55.4657,-12.1154785,1
486,-61.73706,18.661499,1,-69.59534,9.277344,1,-58.9404067993164,3.75716209411621,1,-67.77954,-8.361816,1,-62.36267,-10.681152,1,-56.09131,-12.161255,1
487,-61.73706,18.90564,1,-69.77844,9.567261,1,-59.2373237609863,3.83273267745972,1,-68.222046,-8.178711,1,-62.973022,-10.650635,1,-56.747437,-12.161255,1
488,-61.828613,19.119263,1,-70.007324,9.811401,1,-59.5495109558105,3.92631316184998,1,-68.77136,-7.9040527,1,-63.537598,-10.513306,1,-57.32727,-12.176514,1
489,-61.904907,19.348145,1,-70.007324,10.08606,1,-59.7128677368164,3.91968894004822,1,-69.229126,-7.675171,1,-64.086914,-10.4522705,1,-57.937622,-12.130737,1
490,-62.072754,19.592285,1,-70.22095,10.253906,1,-59.9786682128906,4.00125885009766,1,-69.67163,-7.446289,1,-64.62097,-10.3302,1,-58.502197,-12.145996,1
491,-62.2406,19.714355,1,-70.388794,10.437012,1,-60.2453994750977,4.02518510818481,1,-70.0531,-7.3242188,1,-65.18555,-10.269165,1,-59.066772,-12.176514,1
492,-62.332153,19.836426,1,-70.48035,10.574341,1,-60.4238395690918,4.02708005905151,1,-70.5719,-7.019043,1,-65.68909,-10.238647,1,-59.7229,-12.145996,1
493,-62.530518,19.958496,1,-70.617676,10.681152,1,-60.6646575927734,3.97761988639832,1,-71.06018,-6.8359375,1,-66.26892,-10.177612,1,-60.302734,-12.176514,1
494,-62.63733,20.019531,1,-70.84656,10.7421875,1,-60.966178894043,3.93203353881836,1,-71.517944,-6.729126,1,-66.81824,-10.131836,1,-60.958862,-12.161255,1
495,-62.820435,20.019531,1,-71.06018,10.879517,1,-61.2807884216309,3.92513656616211,1,-72.006226,-6.5612793,1,-67.474365,-10.055542,1,-61.523438,-12.191772,1
496,-63.00354,20.126343,1,-71.243286,10.940552,1,-61.5586090087891,3.85485792160034,1,-72.54028,-6.362915,1,-67.993164,-10.025024,1,-62.149048,-12.130737,1
497,-63.308716,20.141602,1,-71.54846,11.062622,1,-61.9535446166992,3.85584950447083,1,-73.07434,-6.210327,1,-68.603516,-9.963989,1,-62.77466,-12.176514,1
498,-63.659668,20.17212,1,-71.83838,11.108398,1,-62.3192558288574,3.80180287361145,1,-73.62366,-6.0577393,1,-69.21387,-9.887695,1,-63.50708,-12.176514,1
499,-63.88855,20.15686,1,-72.021484,11.09314,1,-62.5403518676758,3.73731279373169,1,-74.08142,-5.844116,1,-69.732666,-9.796143,1,-64.11743,-12.176514,1
500,-64.071655,20.141602,1,-72.20459,11.123657,1,-62.7657127380371,3.71369194984436,1,-74.523926,-5.5999756,1,-70.29724,-9.70459,1,-64.74304,-12.176514,1
501,-64.14795,20.111084,1,-72.28088,11.077881,1,-62.9447441101074,3.53888273239136,1,-74.96643,-5.432129,1,-70.892334,-9.613037,1,-65.35339,-12.130737,1
502,-64.2395,19.943237,1,-72.25037,11.0321045,1,-63.0597839355469,3.31633043289185,1,-75.36316,-5.264282,1,-71.3501,-9.552002,1,-65.979004,-12.145996,1
503,-64.11743,19.79065,1,-72.20459,10.803223,1,-63.0493583679199,3.0455310344696,1,-75.74463,-4.9438477,1,-71.94519,-9.399414,1,-66.65039,-12.084961,1
504,-64.13269,19.699097,1,-72.11304,10.665894,1,-63.0847663879395,2.76080846786499,1,-76.08032,-4.7302246,1,-72.402954,-9.262085,1,-67.230225,-12.054443,1
505,-64.04114,19.561768,1,-72.052,10.559082,1,-63.1005020141602,2.5671694278717,1,-76.35498,-4.4555664,1,-72.891235,-9.094238,1,-67.91687,-12.039185,1
506,-63.980103,19.485474,1,-71.884155,10.543823,1,-63.1387252807617,2.3269190788269,1,-76.675415,-4.135132,1,-73.37952,-8.895874,1,-68.52722,-11.978149,1
507,-63.812256,19.53125,1,-71.85364,10.620117,1,-63.2464561462402,2.25851035118103,1,-76.934814,-3.8757324,1,-73.76099,-8.712769,1,-69.15283,-11.901855,1
508,-63.674927,19.65332,1,-71.77734,10.787964,1,-63.2735061645508,2.32127523422241,1,-77.0874,-3.5247803,1,-74.20349,-8.514404,1,-69.76318,-11.825562,1
509,-63.49182,19.77539,1,-71.71631,11.016846,1,-63.3765640258789,2.38848447799683,1,-77.301025,-3.189087,1,-74.72229,-8.255005,1,-70.35828,-11.795044,1
510,-63.430786,19.927979,1,-71.67053,11.306763,1,-63.4999694824219,2.51802349090576,1,-77.49939,-2.8686523,1,-75.10376,-8.041382,1,-70.96863,-11.672974,1
511,-63.26294,20.17212,1,-71.80786,11.71875,1,-63.5255355834961,3.03525876998901,1,-77.560425,-2.2583008,1,-75.43945,-7.598877,1,-71.5332,-11.474609,1
512,-63.201904,20.401001,1,-71.7926,12.176514,1,-63.4079284667969,3.59180498123169,1,-77.52991,-1.4648438,1,-75.56152,-6.881714,1,-71.94519,-11.154175,1
513,-63.14087,20.690918,1,-71.762085,12.72583,1,-63.2916221618652,4.22575807571411,1,-77.59094,-0.30517578,1,-75.37842,-5.584717,1,-72.128296,-10.498047,1
514,-63.11035,21.026611,1,-71.71631,13.366699,1,-63.1400756835938,4.97335147857666,1,-77.6062,1.0070801,1,-74.96643,-3.7841797,1,-72.06726,-9.490967,1
515,-63.034058,21.392822,1,-71.71631,13.977051,1,-62.9698829650879,5.76120948791504,1,-77.59094,2.4108887,1,-74.3866,-1.8310547,1,-71.395874,-7.6141357,1
516,-62.957764,21.820068,1,-71.71631,14.6484375,1,-62.8045654296875,6.61222124099731,1,-77.51465,3.6773682,1,-73.80676,-0.091552734,1,-70.35828,-5.340576,1
517,-62.89673,22.232056,1,-71.67053,15.380859,1,-62.5525245666504,7.57945060729981,1,-77.27051,4.6844482,1,-73.10486,1.4190674,1,-69.29016,-3.4332275,1
518,-62.835693,22.67456,1,-71.68579,16.067505,1,-62.2482147216797,8.6558895111084,1,-76.87378,5.3253174,1,-72.37244,2.5939941,1,-68.237305,-1.9378662,1
519,-62.667847,23.117065,1,-71.70105,16.708374,1,-61.9717750549316,9.68404388427734,1,-76.40076,5.584717,1,-71.45691,3.4942627,1,-66.89453,-0.579834,1
520,-62.48474,23.544312,1,-71.57898,17.303467,1,-61.5800704956055,10.6685781478882,1,-75.71411,5.645752,1,-70.52612,4.1046143,1,-65.56702,0.62561035,1
521,-62.347412,23.94104,1,-71.47217,17.807007,1,-61.2359580993652,11.5444202423096,1,-75.027466,5.645752,1,-69.65637,4.638672,1,-64.315796,1.5716553,1
522,-62.210083,24.261475,1,-71.36536,18.26477,1,-60.9477272033691,12.3088474273682,1,-74.3866,5.645752,1,-68.96973,4.974365,1,-63.323975,2.4719238,1
523,-62.164307,24.536133,1,-71.28906,18.569946,1,-60.6605224609375,12.999116897583,1,-73.69995,5.584717,1,-68.25256,5.218506,1,-62.408447,3.036499,1
524,-62.25586,24.780273,1,-71.3501,18.798828,1,-60.4958267211914,13.6817102432251,1,-72.92175,5.279541,1,-67.50488,5.2490234,1,-61.447144,3.4179688,1
525,-62.36267,25.054932,1,-71.30432,18.920898,1,-60.299861907959,14.1353130340576,1,-71.96045,4.699707,1,-66.4978,4.9438477,1,-60.317993,3.540039,1
526,-62.454224,25.268555,1,-71.30432,18.90564,1,-60.081428527832,14.6575002670288,1,-70.54138,3.90625,1,-65.200806,4.2877197,1,-58.99048,3.40271,1
527,-62.652588,25.45166,1,-71.243286,18.76831,1,-59.8441696166992,15.0186233520508,1,-68.84766,3.0212402,1,-63.568115,3.6773682,1,-57.281494,3.0670166,1
528,-62.77466,25.665283,1,-71.16699,18.585205,1,-59.637321472168,15.2585391998291,1,-66.986084,2.1820068,1,-61.660767,2.9907227,1,-55.358887,2.5634766,1
529,-63.095093,25.756836,1,-71.10596,18.371582,1,-59.5000991821289,15.3213319778442,1,-65.17029,1.4343262,1,-59.768677,2.2583008,1,-53.42102,1.8005371,1
530,-63.461304,25.787354,1,-70.96863,18.081665,1,-59.3144264221191,15.2216644287109,1,-63.52234,0.8239746,1,-57.937622,1.449585,1,-51.574707,0.91552734,1
531,-63.78174,25.71106,1,-70.86182,17.791748,1,-59.1588516235352,15.1383295059204,1,-62.164307,0.44250488,1,-56.19812,0.74768066,1,-49.850464,0.015258789,1
532,-64.086914,25.58899,1,-70.72449,17.39502,1,-58.9938697814941,14.8666725158691,1,-60.98938,0,1,-54.82483,0.030517578,1,-48.66028,-0.77819824,1
533,-64.28528,25.421143,1,-70.58716,17.044067,1,-58.8730888366699,14.440131187439,1,-59.9823,-0.5187988,1,-53.741455,-0.6866455,1,-47.409058,-1.8615723,1
534,-64.590454,25.222778,1,-70.44983,16.662598,1,-58.7419204711914,14.0310955047607,1,-59.21936,-0.9613037,1,-52.78015,-1.3275146,1,-46.539307,-2.6550293,1
535,-64.94141,25.009155,1,-70.32776,16.281128,1,-58.6323089599609,13.5947713851929,1,-58.425903,-1.4038086,1,-51.92566,-1.953125,1,-45.74585,-3.3111572,1
536,-65.18555,24.810791,1,-70.236206,15.869141,1,-58.551872253418,13.1348457336426,1,-57.800293,-1.8463135,1,-51.193237,-2.4261475,1,-45.028687,-3.982544,1
537,-65.42969,24.520874,1,-70.17517,15.441895,1,-58.4971542358398,12.6807498931885,1,-57.32727,-2.2735596,1,-50.735474,-3.0822754,1,-44.509888,-4.6844482,1
538,-65.68909,24.169922,1,-70.17517,14.862061,1,-58.5101356506348,12.0465908050537,1,-57.06787,-2.8839111,1,-50.354004,-4.0283203,1,-44.204712,-5.5999756,1
539,-65.91797,23.742676,1,-70.114136,14.297485,1,-58.4993858337402,11.2812557220459,1,-56.884766,-3.6315918,1,-50.26245,-5.1727295,1,-44.11316,-7.0343018,1
540,-66.101074,23.223877,1,-70.14465,13.595581,1,-58.5557327270508,10.4815893173218,1,-56.884766,-4.425049,1,-50.27771,-6.4697266,1,-44.281006,-8.81958,1
541,-66.45203,22.628784,1,-70.251465,12.802124,1,-58.7174835205078,9.49045085906982,1,-57.052612,-5.41687,1,-50.53711,-8.117676,1,-44.631958,-10.665894,1
542,-66.726685,21.942139,1,-70.388794,11.917114,1,-58.9619750976563,8.25271511077881,1,-57.754517,-6.6986084,1,-51.483154,-9.536743,1,-45.22705,-11.550903,1
543,-66.95557,21.194458,1,-70.60242,10.971069,1,-59.2083625793457,7.20603799819946,1,-58.60901,-7.7819824,1,-52.246094,-9.979248,1,-45.85266,-11.581421,1
544,-67.276,20.462036,1,-71.06018,10.055542,1,-59.5180053710938,6.7725396156311,1,-59.21936,-8.224487,1,-52.963257,-10.192871,1,-46.37146,-11.566162,1
545,-67.82532,19.851685,1,-71.44165,9.3688965,1,-59.832160949707,6.33249092102051,1,-59.70764,-8.666992,1,-53.497314,-10.360718,1,-46.783447,-11.581421,1
546,-68.32886,19.348145,1,-72.03674,8.758545,1,-60.3623924255371,5.98193645477295,1,-60.302734,-9.017944,1,-54.031372,-10.498047,1,-47.317505,-11.611938,1
547,-68.984985,18.844604,1,-72.66235,8.178711,1,-60.9395027160645,5.614586353302,1,-60.74524,-9.384155,1,-54.595947,-10.620117,1,-47.74475,-11.581421,1
548,-69.610596,18.325806,1,-73.33374,7.583618,1,-61.5662841796875,5.23267316818237,1,-61.340332,-9.765625,1,-55.17578,-10.818481,1,-48.217773,-11.581421,1
549,-70.236206,17.868042,1,-74.020386,7.0495605,1,-62.1940269470215,5.01552867889404,1,-61.798096,-9.979248,1,-55.67932,-10.940552,1,-48.721313,-11.550903,1
550,-71.014404,17.425537,1,-74.75281,6.576538,1,-62.8808631896973,4.82815742492676,1,-62.347412,-10.1623535,1,-56.18286,-10.971069,1,-49.209595,-11.505127,1
551,-71.71631,17.150879,1,-75.546265,6.2713623,1,-63.6445426940918,4.73869514465332,1,-62.820435,-10.238647,1,-56.671143,-11.001587,1,-49.713135,-11.535645,1
552,-72.43347,16.921997,1,-76.27869,6.0272217,1,-64.3566589355469,4.66149806976318,1,-63.2782,-10.299683,1,-57.144165,-11.016846,1,-50.1709,-11.505127,1
553,-73.07434,16.784668,1,-76.96533,5.844116,1,-65.0357513427734,4.54599046707153,1,-63.842773,-10.406494,1,-57.540894,-11.09314,1,-50.720215,-11.535645,1
554,-73.69995,16.647339,1,-77.65198,5.6762695,1,-65.7184371948242,4.41511297225952,1,-64.25476,-10.513306,1,-57.998657,-11.123657,1,-51.17798,-11.489868,1
555,-74.21875,16.540527,1,-78.21655,5.6152344,1,-66.2802581787109,4.38031101226807,1,-64.77356,-10.543823,1,-58.502197,-11.108398,1,-51.77307,-11.474609,1
556,-74.70703,16.418457,1,-78.826904,5.493164,1,-66.8838272094727,4.32573556900024,1,-65.29236,-10.5896,1,-58.95996,-11.047363,1,-52.261353,-11.444092,1
557,-75.0885,16.403198,1,-79.315186,5.4473877,1,-67.36767578125,4.32620716094971,1,-65.78064,-10.5896,1,-59.448242,-11.062622,1,-52.65808,-11.444092,1
558,-75.51575,16.37268,1,-79.833984,5.4016113,1,-67.8799285888672,4.35249996185303,1,-66.25366,-10.559082,1,-59.921265,-11.047363,1,-53.19214,-11.428833,1
559,-75.82092,16.403198,1,-80.16968,5.4473877,1,-68.2170715332031,4.38195323944092,1,-66.726685,-10.543823,1,-60.34851,-11.016846,1,-53.69568,-11.428833,1
560,-76.1261,16.448975,1,-80.581665,5.5236816,1,-68.6405258178711,4.3365535736084,1,-67.15393,-10.5896,1,-60.74524,-11.047363,1,-54.122925,-11.398315,1
561,-76.3855,16.479492,1,-80.963135,5.5236816,1,-69.0218505859375,4.33807897567749,1,-67.55066,-10.5896,1,-61.23352,-11.062622,1,-54.58069,-11.383057,1
562,-76.62964,16.540527,1,-81.222534,5.645752,1,-69.2903137207031,4.37208414077759,1,-68.02368,-10.574341,1,-61.660767,-11.047363,1,-55.023193,-11.383057,1
563,-76.828,16.571045,1,-81.57349,5.722046,1,-69.6503601074219,4.36597061157227,1,-68.496704,-10.5896,1,-62.13379,-11.0321045,1,-55.480957,-11.413574,1
564,-77.01111,16.616821,1,-81.89392,5.79834,1,-69.9731674194336,4.42154502868652,1,-68.95447,-10.543823,1,-62.561035,-11.047363,1,-55.96924,-11.413574,1
565,-77.07214,16.677856,1,-82.13806,5.8288574,1,-70.219856262207,4.43010997772217,1,-69.33594,-10.543823,1,-62.98828,-11.062622,1,-56.411743,-11.444092,1
566,-77.22473,16.693115,1,-82.29065,5.935669,1,-70.3839721679688,4.44203090667725,1,-69.732666,-10.543823,1,-63.461304,-11.047363,1,-56.82373,-11.428833,1
567,-77.27051,16.723633,1,-82.53479,5.9814453,1,-70.6367721557617,4.42030906677246,1,-70.236206,-10.574341,1,-63.90381,-11.016846,1,-57.296753,-11.444092,1
568,-77.27051,16.76941,1,-82.65686,6.072998,1,-70.7642440795898,4.47119140625,1,-70.67871,-10.528564,1,-64.42261,-11.09314,1,-57.785034,-11.428833,1
569,-77.22473,16.815186,1,-82.77893,6.1950684,1,-70.9035034179688,4.47045087814331,1,-71.07544,-10.528564,1,-64.84985,-11.09314,1,-58.22754,-11.444092,1
570,-77.194214,16.87622,1,-82.79419,6.3934326,1,-70.9610137939453,4.39948415756226,1,-71.5332,-10.5896,1,-65.29236,-11.0321045,1,-58.73108,-11.383057,1
571,-77.10266,16.860962,1,-82.839966,6.439209,1,-71.0241851806641,4.34462738037109,1,-72.052,-10.620117,1,-65.719604,-11.0321045,1,-59.23462,-11.367798,1
572,-77.056885,16.784668,1,-82.82471,6.3171387,1,-70.9911193847656,4.32563352584839,1,-72.43347,-10.604858,1,-66.13159,-11.016846,1,-59.58557,-11.398315,1
573,-77.13318,16.601562,1,-82.82471,6.088257,1,-70.9639892578125,4.2652440071106,1,-72.81494,-10.620117,1,-66.55884,-10.971069,1,-59.9823,-11.413574,1
574,-77.041626,16.418457,1,-82.65686,5.8135986,1,-70.760627746582,4.23892307281494,1,-73.12012,-10.574341,1,-66.970825,-11.001587,1,-60.317993,-11.383057,1
575,-76.934814,16.204834,1,-82.51953,5.630493,1,-70.6093063354492,4.16539764404297,1,-73.47107,-10.559082,1,-67.30652,-10.971069,1,-60.684204,-11.33728,1
576,-76.62964,16.036987,1,-82.3822,5.5389404,1,-70.4645843505859,4.13526201248169,1,-73.76099,-10.498047,1,-67.70325,-10.971069,1,-61.00464,-11.33728,1
577,-76.18713,15.975952,1,-82.15332,5.554199,1,-70.2547149658203,3.99753427505493,1,-74.11194,-10.498047,1,-68.03894,-10.955811,1,-61.416626,-11.33728,1
578,-75.74463,15.930176,1,-81.832886,5.630493,1,-69.9677734375,3.83631610870361,1,-74.3866,-10.498047,1,-68.40515,-10.971069,1,-61.782837,-11.383057,1
579,-75.0885,15.975952,1,-81.51245,5.79834,1,-69.6875915527344,3.75561332702637,1,-74.63074,-10.406494,1,-68.69507,-10.971069,1,-62.057495,-11.398315,1
580,-74.5697,16.00647,1,-81.03943,5.996704,1,-69.2881546020508,3.56618738174438,1,-74.85962,-10.360718,1,-69.000244,-10.986328,1,-62.454224,-11.398315,1
581,-73.83728,15.991211,1,-80.6427,6.1035156,1,-68.9489135742187,3.40993857383728,1,-75.10376,-10.269165,1,-69.2749,-10.986328,1,-62.713623,-11.398315,1
582,-73.135376,15.975952,1,-80.09338,6.2408447,1,-68.4781799316406,3.22636342048645,1,-75.27161,-10.147095,1,-69.54956,-10.971069,1,-62.973022,-11.398315,1
583,-72.525024,15.899658,1,-79.49829,6.3171387,1,-67.9915542602539,2.91198420524597,1,-75.531006,-10.055542,1,-69.7937,-10.940552,1,-63.217163,-11.413574,1
584,-71.884155,15.762329,1,-78.99475,6.30188,1,-67.5361709594727,2.73803329467773,1,-75.72937,-9.82666,1,-70.007324,-10.864258,1,-63.476562,-11.413574,1
585,-71.21277,15.655518,1,-78.49121,6.30188,1,-67.0989532470703,2.53142166137695,1,-75.88196,-9.628296,1,-70.26672,-10.803223,1,-63.76648,-11.459351,1
586,-70.5719,15.548706,1,-78.03345,6.3171387,1,-66.6927337646484,2.39435768127441,1,-76.01929,-9.353638,1,-70.48035,-10.71167,1,-63.949585,-11.428833,1
587,-69.91577,15.563965,1,-77.49939,6.3934326,1,-66.2930679321289,2.10177516937256,1,-76.171875,-9.185791,1,-70.77026,-10.696411,1,-64.193726,-11.428833,1
588,-69.33594,15.594482,1,-77.1637,6.500244,1,-66.0537872314453,1.96484994888306,1,-76.416016,-8.880615,1,-70.98389,-10.574341,1,-64.48364,-11.474609,1
589,-68.725586,15.762329,1,-76.797485,6.7749023,1,-65.8227310180664,1.92157793045044,1,-76.52283,-8.590698,1,-71.22803,-10.437012,1,-64.72778,-11.474609,1
590,-68.17627,15.930176,1,-76.40076,6.9885254,1,-65.5780639648438,1.80495405197144,1,-76.690674,-8.270264,1,-71.45691,-10.299683,1,-64.971924,-11.474609,1
591,-67.733765,16.143799,1,-76.18713,7.1868896,1,-65.4592819213867,1.80978679656982,1,-76.797485,-8.010864,1,-71.6095,-10.192871,1,-65.26184,-11.550903,1
592,-67.489624,16.326904,1,-75.97351,7.385254,1,-65.3432006835938,1.81781101226807,1,-76.919556,-7.7209473,1,-71.884155,-10.070801,1,-65.5365,-11.505127,1
593,-67.24548,16.525269,1,-75.912476,7.583618,1,-65.3754959106445,1.84148597717285,1,-77.056885,-7.5683594,1,-72.08252,-9.963989,1,-65.85693,-11.520386,1
594,-67.13867,16.708374,1,-75.72937,7.7056885,1,-65.3164443969727,1.74154460430145,1,-77.25525,-7.3394775,1,-72.35718,-9.887695,1,-66.07056,-11.505127,1
595,-67.13867,16.937256,1,-75.546265,7.873535,1,-65.2527465820313,1.70560157299042,1,-77.37732,-7.1258545,1,-72.60132,-9.780884,1,-66.467285,-11.535645,1
596,-66.970825,17.196655,1,-75.45471,8.026123,1,-65.2815780639648,1.66157996654511,1,-77.62146,-6.866455,1,-72.93701,-9.689331,1,-66.848755,-11.520386,1
597,-66.89453,17.288208,1,-75.25635,8.19397,1,-65.2071151733398,1.63554263114929,1,-77.78931,-6.5307617,1,-73.22693,-9.58252,1,-67.214966,-11.535645,1
598,-66.604614,17.364502,1,-74.95117,8.331299,1,-65.1324462890625,1.43256545066834,1,-78.00293,-6.2713623,1,-73.516846,-9.475708,1,-67.596436,-11.520386,1
599,-66.329956,17.501831,1,-74.58496,8.43811,1,-64.9601135253906,1.2713668346405,1,-78.14026,-5.8898926,1,-73.82202,-9.353638,1,-68.0542,-11.505127,1
600,-65.90271,17.532349,1,-74.157715,8.560181,1,-64.8054046630859,1.041259765625,1,-78.27759,-5.554199,1,-74.08142,-9.20105,1,-68.38989,-11.474609,1
601,-65.49072,17.593384,1,-73.73047,8.666992,1,-64.6707534790039,0.797962427139282,1,-78.3844,-5.279541,1,-74.401855,-9.063721,1,-68.8324,-11.489868,1
602,-64.834595,17.562866,1,-73.05908,8.758545,1,-64.3882369995117,0.4629807472229,1,-78.41492,-4.852295,1,-74.67651,-8.895874,1,-69.29016,-11.428833,1
603,-64.086914,17.532349,1,-72.47925,8.895874,1,-64.2154312133789,0.194767951965332,1,-78.49121,-4.40979,1,-74.93591,-8.666992,1,-69.76318,-11.352539,1
604,-63.339233,17.471313,1,-71.746826,8.895874,1,-63.9629707336426,-0.237117290496826,1,-78.47595,-4.0283203,1,-75.13428,-8.453369,1,-70.20569,-11.3220215,1
605,-62.469482,17.410278,1,-70.999146,8.94165,1,-63.6657562255859,-0.556845188140869,1,-78.3844,-3.4484863,1,-75.45471,-8.224487,1,-70.69397,-11.260986,1
606,-61.584473,17.425537,1,-70.20569,9.0789795,1,-63.3512229919434,-0.770708560943604,1,-78.186035,-2.9907227,1,-75.72937,-7.888794,1,-71.21277,-11.230469,1
607,-60.668945,17.547607,1,-69.45801,9.216309,1,-63.0617790222168,-0.936930179595947,1,-77.98767,-2.4261475,1,-75.97351,-7.461548,1,-71.80786,-11.108398,1
608,-59.799194,17.745972,1,-68.7561,9.552002,1,-62.6905250549316,-0.802163600921631,1,-77.65198,-1.876831,1,-76.06506,-7.0495605,1,-72.32666,-10.955811,1
609,-58.86841,18.005371,1,-68.00842,10.025024,1,-62.0864982604981,-0.411969661712647,1,-77.07214,-1.0681152,1,-75.89722,-6.3476562,1,-72.60132,-10.696411,1
610,-57.9834,18.325806,1,-67.36755,10.635376,1,-61.447021484375,0.197592258453369,1,-76.44653,0.076293945,1,-75.57678,-5.340576,1,-72.69287,-10.238647,1
611,-57.128906,18.722534,1,-66.711426,11.306763,1,-60.6428451538086,0.954354763031006,1,-75.63782,1.3427734,1,-74.49341,-3.7231445,1,-72.143555,-9.613037,1
612,-56.32019,19.119263,1,-66.04004,12.008667,1,-59.7022933959961,1.81882381439209,1,-74.69177,2.380371,1,-72.631836,-2.105713,1,-70.84656,-8.163452,1
613,-55.511475,19.515991,1,-65.30762,12.72583,1,-58.5850791931152,2.78563785552979,1,-73.57788,3.250122,1,-70.8313,-0.8087158,1,-68.222046,-6.6223145,1
614,-54.70276,19.989014,1,-64.4989,13.442993,1,-57.3272171020508,3.82182168960571,1,-72.32666,3.692627,1,-68.862915,0.10681152,1,-65.2771,-5.1116943,1
615,-53.894043,20.431519,1,-63.75122,14.160156,1,-55.7937316894531,5.17804193496704,1,-70.72449,3.7384033,1,-66.54358,0.8392334,1,-62.36267,-3.7384033,1
616,-53.05481,20.9198,1,-62.820435,14.816284,1,-54.0993537902832,6.57354927062988,1,-68.80188,3.6010742,1,-64.2395,1.4038086,1,-59.417725,-2.4719238,1
617,-52.246094,21.499634,1,-61.904907,15.396118,1,-52.5151557922363,7.92399978637695,1,-66.80298,3.3569336,1,-61.782837,1.8615723,1,-56.57959,-1.3580322,1
618,-51.51367,22.064209,1,-61.080933,15.884399,1,-51.0221176147461,9.34068202972412,1,-64.68201,3.1433105,1,-59.4635,2.1972656,1,-53.95508,-0.45776367,1
619,-50.949097,22.644043,1,-60.165405,16.281128,1,-49.5861434936523,10.6172780990601,1,-62.438965,2.8839111,1,-57.2052,2.4108887,1,-51.452637,0.2593994,1
620,-50.323486,23.1781,1,-59.417725,16.677856,1,-48.4016494750977,11.9190731048584,1,-60.028076,2.4414062,1,-54.6875,2.39563,1,-48.690796,0.90026855,1
621,-49.591064,23.727417,1,-58.563232,16.937256,1,-47.2757301330566,12.8638963699341,1,-57.388306,1.7852783,1,-52.200317,2.243042,1,-45.98999,1.2664795,1
622,-49.224854,24.032593,1,-57.800293,17.044067,1,-46.3389778137207,13.4890375137329,1,-54.748535,1.0681152,1,-49.53003,1.7242432,1,-43.151855,1.1138916,1
623,-48.980713,24.20044,1,-57.06787,16.937256,1,-45.4905776977539,13.7803230285645,1,-52.017212,0.2746582,1,-46.691895,1.0986328,1,-40.31372,0.77819824,1
624,-48.675537,24.215698,1,-56.274414,16.708374,1,-44.5974540710449,13.942759513855,1,-49.468994,-0.24414062,1,-44.052124,0.50354004,1,-37.65869,0.4272461,1
625,-48.538208,24.002075,1,-55.58777,16.220093,1,-43.8720550537109,13.6235408782959,1,-47.439575,-0.9460449,1,-41.671753,-0.22888184,1,-35.308838,-0.21362305,1
626,-48.40088,23.544312,1,-54.80957,15.441895,1,-43.0934524536133,12.8471755981445,1,-45.62378,-1.9378662,1,-39.68811,-1.5869141,1,-33.27942,-1.4038086,1
627,-48.15674,22.994995,1,-54.107666,14.556885,1,-42.4002151489258,11.9233360290527,1,-44.265747,-2.960205,1,-38.07068,-3.2196045,1,-31.738281,-3.3721924,1
628,-47.77527,22.30835,1,-53.42102,13.595581,1,-41.7399749755859,10.8472652435303,1,-43.273926,-4.0740967,1,-36.880493,-5.1116943,1,-30.578613,-5.935669,1
629,-47.332764,21.54541,1,-52.825928,12.634277,1,-41.2107925415039,9.61954879760742,1,-42.495728,-5.3253174,1,-36.224365,-7.0648193,1,-30.014038,-8.590698,1
630,-46.813965,20.706177,1,-52.139282,11.520386,1,-40.5525894165039,8.39811897277832,1,-42.160034,-6.515503,1,-35.964966,-9.109497,1,-30.029297,-10.925293,1
631,-46.23413,19.77539,1,-51.498413,10.391235,1,-40.0502624511719,6.79403114318848,1,-42.96875,-7.9193115,1,-36.987305,-9.94873,1,-30.74646,-11.276245,1
632,-45.547485,18.859863,1,-51.116943,9.32312,1,-39.5934295654297,5.97519826889038,1,-43.640137,-8.468628,1,-37.841797,-10.070801,1,-31.524658,-11.3220215,1
633,-44.96765,18.234253,1,-50.78125,8.544922,1,-39.1593933105469,5.5561957359314,1,-44.3573,-8.514404,1,-38.604736,-10.1623535,1,-32.25708,-11.3220215,1
634,-44.3573,17.77649,1,-50.50659,8.041382,1,-38.8859214782715,5.04805707931519,1,-45.028687,-8.636475,1,-39.45923,-10.223389,1,-32.928467,-11.291504,1
635,-43.884277,17.333984,1,-50.15564,7.675171,1,-38.5868034362793,4.487380027771,1,-45.654297,-8.743286,1,-40.20691,-10.299683,1,-33.706665,-11.3220215,1
636,-43.22815,16.937256,1,-49.850464,7.3242188,1,-38.3415603637695,3.92639303207397,1,-46.37146,-8.743286,1,-40.985107,-10.345459,1,-34.37805,-11.276245,1
637,-42.60254,16.571045,1,-49.591064,7.095337,1,-38.1490097045898,3.47878313064575,1,-46.951294,-8.666992,1,-41.68701,-10.391235,1,-35.15625,-11.306763,1
638,-42.037964,16.326904,1,-49.331665,7.019043,1,-38.0170021057129,3.02174496650696,1,-47.62268,-8.4991455,1,-42.266846,-10.314941,1,-35.842896,-11.276245,1
639,-41.47339,16.189575,1,-49.118042,7.1258545,1,-37.9921455383301,2.62980484962463,1,-48.24829,-8.31604,1,-42.98401,-10.314941,1,-36.499023,-11.3220215,1
640,-40.924072,16.159058,1,-48.919678,7.4157715,1,-38.0750007629395,2.27836179733276,1,-48.858643,-8.148193,1,-43.640137,-10.284424,1,-37.17041,-11.3220215,1
641,-40.31372,16.235352,1,-48.75183,7.8125,1,-38.1949729919434,2.10699415206909,1,-49.3927,-7.873535,1,-44.326782,-10.238647,1,-37.91809,-11.306763,1
