LauraSchoenhals/autogait_trial/V3Off_Levelwalk/V3Off_Mouse603_levelwalk_Run1-6DLC-JointTracking.csv
scorer,DLC_JointTracking,DLC_JointTracking,DLC_JointTracking,DLC_JointTracking,DLC_JointTracking,DLC_JointTracking,DLC_JointTracking,DLC_JointTracking,DLC_JointTracking,DLC_JointTracking,DLC_JointTracking,DLC_JointTracking,DLC_JointTracking,DLC_JointTracking,DLC_JointTracking,DLC_JointTracking,DLC_JointTracking,DLC_JointTracking
bodyparts,Crest,Crest,Crest,Hip,Hip,Hip,Knee,Knee,Knee,Ankle,Ankle,Ankle,Metatarsal,Metatarsal,Metatarsal,ToeTip,ToeTip,ToeTip
coords,x,y,likelihood,x,y,likelihood,x,y,likelihood,x,y,likelihood,x,y,likelihood,x,y,likelihood
0,-50.857544,19.424438,1,-60.775757,18.28003,1,-54.7394676208496,7.90876054763794,1,-63.842773,-4.0130615,1,-61.141968,-9.994507,1,-56.747437,-12.054443,1
1,-51.01013,19.363403,1,-60.958862,18.234253,1,-55.030216217041,7.80107736587524,1,-64.331055,-3.9672852,1,-61.7218,-9.94873,1,-57.373047,-12.069702,1
2,-51.193237,19.210815,1,-61.09619,18.127441,1,-55.2449645996094,7.65065002441406,1,-64.78882,-3.9215088,1,-62.316895,-9.933472,1,-58.029175,-12.1154785,1
3,-51.315308,19.088745,1,-61.23352,17.959595,1,-55.4511604309082,7.44463872909546,1,-65.29236,-3.8757324,1,-62.927246,-9.94873,1,-58.639526,-12.130737,1
4,-51.467896,18.936157,1,-61.38611,17.715454,1,-55.6391258239746,7.18111991882324,1,-65.841675,-3.8146973,1,-63.50708,-9.902954,1,-59.35669,-12.161255,1
5,-51.68152,18.722534,1,-61.553955,17.501831,1,-55.8477325439453,6.94536113739014,1,-66.329956,-3.7841797,1,-64.086914,-9.811401,1,-59.96704,-12.176514,1
6,-51.9104,18.600464,1,-61.76758,17.364502,1,-56.0707244873047,6.80297374725342,1,-66.7572,-3.7231445,1,-64.65149,-9.82666,1,-60.59265,-12.176514,1
7,-52.15454,18.463135,1,-61.99646,17.27295,1,-56.3438606262207,6.68766927719116,1,-67.230225,-3.6315918,1,-65.2771,-9.765625,1,-61.187744,-12.191772,1
8,-52.383423,18.356323,1,-62.194824,17.150879,1,-56.5944976806641,6.53784942626953,1,-67.718506,-3.5247803,1,-65.81116,-9.70459,1,-61.798096,-12.176514,1
9,-52.597046,18.295288,1,-62.316895,17.044067,1,-56.8383522033691,6.36766529083252,1,-68.20679,-3.4179688,1,-66.43677,-9.613037,1,-62.469482,-12.176514,1
10,-52.856445,18.295288,1,-62.652588,17.089844,1,-57.294361114502,6.35255241394043,1,-68.740845,-3.3416748,1,-67.03186,-9.552002,1,-63.12561,-12.161255,1
11,-53.207397,18.38684,1,-62.88147,17.089844,1,-57.5607872009277,6.33389759063721,1,-69.13757,-3.2043457,1,-67.5354,-9.506226,1,-63.75122,-12.161255,1
12,-53.54309,18.4021,1,-63.186646,17.120361,1,-57.8624038696289,6.36617946624756,1,-69.54956,-3.036499,1,-68.115234,-9.292603,1,-64.315796,-12.1154785,1
13,-53.878784,18.554688,1,-63.446045,17.13562,1,-58.2121849060059,6.3371639251709,1,-70.007324,-2.9296875,1,-68.67981,-9.20105,1,-65.0177,-12.10022,1
14,-54.260254,18.630981,1,-63.78174,17.150879,1,-58.5873870849609,6.33336067199707,1,-70.48035,-2.8076172,1,-69.25964,-9.063721,1,-65.582275,-12.054443,1
15,-54.58069,18.707275,1,-64.071655,17.166138,1,-58.870735168457,6.35177421569824,1,-70.877075,-2.6397705,1,-69.83948,-8.94165,1,-66.26892,-12.023926,1
16,-54.96216,18.78357,1,-64.331055,17.120361,1,-59.126823425293,6.30759334564209,1,-71.28906,-2.4719238,1,-70.373535,-8.773804,1,-66.87927,-11.917114,1
17,-55.29785,18.90564,1,-64.62097,16.998291,1,-59.3640441894531,6.21104240417481,1,-71.67053,-2.3651123,1,-70.90759,-8.621216,1,-67.55066,-11.856079,1
18,-55.70984,18.920898,1,-64.89563,16.921997,1,-59.593692779541,6.1568021774292,1,-72.052,-2.1972656,1,-71.502686,-8.468628,1,-68.222046,-11.810303,1
19,-56.015015,18.936157,1,-65.10925,16.906738,1,-59.8766899108887,6.10765027999878,1,-72.41821,-2.1209717,1,-72.021484,-8.239746,1,-68.81714,-11.71875,1
20,-56.289673,18.966675,1,-65.29236,16.89148,1,-60.1744079589844,6.03760528564453,1,-72.8302,-2.0141602,1,-72.54028,-8.163452,1,-69.42749,-11.642456,1
21,-56.610107,18.981934,1,-65.52124,16.799927,1,-60.4045104980469,5.94547653198242,1,-73.16589,-1.9378662,1,-73.12012,-8.041382,1,-70.08362,-11.566162,1
22,-56.900024,18.966675,1,-65.73486,16.586304,1,-60.6388473510742,5.72211265563965,1,-73.56262,-1.8920898,1,-73.59314,-7.888794,1,-70.66345,-11.489868,1
23,-57.174683,18.78357,1,-65.94849,16.311646,1,-60.8550224304199,5.44625759124756,1,-73.92883,-1.9073486,1,-74.09668,-7.797241,1,-71.2738,-11.398315,1
24,-57.4646,18.630981,1,-66.14685,16.036987,1,-60.9631843566895,5.2143440246582,1,-74.17297,-1.8920898,1,-74.61548,-7.736206,1,-71.91467,-11.3220215,1
25,-57.632446,18.493652,1,-66.329956,15.74707,1,-61.189525604248,4.90382432937622,1,-74.60022,-1.8157959,1,-75.149536,-7.675171,1,-72.525024,-11.21521,1
26,-57.800293,18.325806,1,-66.4978,15.518188,1,-61.3469696044922,4.67987966537476,1,-74.87488,-1.8005371,1,-75.63782,-7.446289,1,-73.16589,-11.169434,1
27,-57.876587,18.234253,1,-66.63513,15.380859,1,-61.442813873291,4.5623631477356,1,-75.10376,-1.6326904,1,-76.11084,-7.293701,1,-73.98987,-11.062622,1
28,-57.998657,18.157959,1,-66.7572,15.350342,1,-61.633171081543,4.49933815002441,1,-75.36316,-1.5411377,1,-76.553345,-7.2021484,1,-74.69177,-10.925293,1
29,-58.07495,18.203735,1,-66.90979,15.411377,1,-61.7869491577148,4.55981016159058,1,-75.57678,-1.3427734,1,-76.934814,-6.9732666,1,-75.3479,-10.803223,1
30,-58.151245,18.295288,1,-67.092896,15.609741,1,-61.8983306884766,4.79232454299927,1,-75.74463,-0.9765625,1,-77.22473,-6.6375732,1,-75.95825,-10.665894,1
31,-58.21228,18.478394,1,-67.29126,15.838623,1,-61.9326171875,5.10154104232788,1,-75.912476,-0.33569336,1,-77.33154,-6.1187744,1,-76.33972,-10.314941,1
32,-58.242798,18.722534,1,-67.41333,16.220093,1,-61.9178314208984,5.55240726470947,1,-76.08032,0.61035156,1,-77.14844,-5.1574707,1,-76.44653,-9.719849,1
33,-58.288574,19.012451,1,-67.52014,16.525269,1,-61.7186889648437,6.02083444595337,1,-76.15662,1.953125,1,-76.40076,-3.9215088,1,-75.94299,-8.666992,1
34,-58.33435,19.363403,1,-67.596436,17.028809,1,-61.4933242797852,6.69672155380249,1,-76.09558,3.2653809,1,-75.546265,-2.243042,1,-74.401855,-7.2784424,1
35,-58.33435,19.744873,1,-67.733765,17.51709,1,-61.4678497314453,7.28291463851929,1,-76.18713,4.3945312,1,-74.523926,-0.6561279,1,-72.47925,-5.3100586,1
36,-58.288574,20.15686,1,-67.77954,18.005371,1,-61.3865547180176,7.85009336471558,1,-76.15662,5.2337646,1,-73.68469,0.88500977,1,-70.892334,-3.1738281,1
37,-58.22754,20.492554,1,-67.77954,18.52417,1,-61.2994232177734,8.42426586151123,1,-76.06506,5.783081,1,-73.028564,1.9836426,1,-69.76318,-1.5716553,1
38,-58.151245,20.9198,1,-67.90161,18.966675,1,-61.2756118774414,8.96187210083008,1,-75.98877,6.0424805,1,-72.647095,2.5482178,1,-69.0918,-0.64086914,1
39,-58.09021,21.255493,1,-67.840576,19.439697,1,-61.1512603759766,9.47711372375488,1,-75.75989,6.072998,1,-72.35718,2.7313232,1,-68.618774,-0.2593994,1
40,-58.120728,21.530151,1,-67.93213,19.836426,1,-61.0724258422852,9.99038600921631,1,-75.531006,5.996704,1,-72.006226,2.6397705,1,-68.16101,-0.19836426,1
41,-58.07495,21.835327,1,-67.93213,20.233154,1,-60.9277877807617,10.4894762039185,1,-75.19531,5.859375,1,-71.57898,2.5787354,1,-67.596436,0,1
42,-58.013916,22.079468,1,-67.993164,20.553589,1,-60.8835144042969,10.8864860534668,1,-74.96643,5.722046,1,-71.121216,2.7618408,1,-66.87927,0.4272461,1
43,-58.044434,22.232056,1,-67.977905,20.858765,1,-60.6520690917969,11.3544454574585,1,-74.55444,5.722046,1,-70.52612,3.0059814,1,-66.101074,0.9765625,1
44,-57.876587,22.399902,1,-67.91687,21.16394,1,-60.4791946411133,11.7468814849854,1,-74.24927,5.79834,1,-69.96155,3.2653809,1,-65.44495,1.4038086,1
45,-57.754517,22.521973,1,-67.7948,21.408081,1,-60.2491683959961,12.0773010253906,1,-73.913574,5.8898926,1,-69.488525,3.4484863,1,-64.94141,1.6479492,1
46,-57.510376,22.613525,1,-67.611694,21.621704,1,-59.8773345947266,12.4467601776123,1,-73.45581,6.072998,1,-69.000244,3.540039,1,-64.54468,1.7089844,1
47,-57.266235,22.659302,1,-67.36755,21.78955,1,-59.517448425293,12.713436126709,1,-72.96753,6.072998,1,-68.573,3.5095215,1,-63.949585,1.6937256,1
48,-56.97632,22.720337,1,-67.06238,21.957397,1,-59.0593338012695,13.0158424377441,1,-72.25037,5.874634,1,-67.733765,3.3874512,1,-63.14087,1.663208,1
49,-56.793213,22.79663,1,-66.81824,22.033691,1,-58.5918197631836,13.2972116470337,1,-71.41113,5.508423,1,-66.81824,3.0822754,1,-62.194824,1.5106201,1
50,-56.518555,22.918701,1,-66.51306,22.064209,1,-58.1131591796875,13.494402885437,1,-70.510864,5.050659,1,-65.841675,2.5939941,1,-61.12671,1.0223389,1
51,-56.33545,22.949219,1,-66.207886,22.094727,1,-57.5479011535645,13.7878189086914,1,-69.45801,4.6691895,1,-64.80408,2.090454,1,-60.012817,0.5340576,1
52,-56.09131,23.132324,1,-66.02478,22.033691,1,-57.0358009338379,14.0839586257935,1,-68.32886,4.211426,1,-63.705444,1.5716553,1,-58.898926,-0.030517578,1
53,-55.81665,23.269653,1,-65.719604,22.003174,1,-56.3940696716309,14.4510612487793,1,-66.970825,3.8146973,1,-62.210083,1.083374,1,-57.388306,-0.62561035,1
54,-55.511475,23.468018,1,-65.35339,21.881104,1,-55.645881652832,14.8267269134521,1,-65.49072,3.5095215,1,-60.62317,0.64086914,1,-55.69458,-0.9613037,1
55,-55.267334,23.68164,1,-64.98718,21.774292,1,-54.9119300842285,15.2559070587158,1,-63.842773,3.2043457,1,-58.807373,0.38146973,1,-53.771973,-1.1444092,1
56,-54.96216,23.895264,1,-64.63623,21.621704,1,-54.1447448730469,15.7968664169312,1,-61.904907,2.960205,1,-56.625366,0.44250488,1,-51.467896,-0.6713867,1
57,-54.656982,24.139404,1,-64.315796,21.453857,1,-53.4271545410156,16.4102973937988,1,-59.61609,2.746582,1,-54.031372,0.8544922,1,-48.90442,0.4272461,1
58,-54.519653,24.291992,1,-63.90381,21.1792,1,-52.6890563964844,16.9096088409424,1,-57.31201,2.6397705,1,-51.467896,1.5869141,1,-46.340942,1.8005371,1
59,-54.29077,24.353027,1,-63.49182,20.812988,1,-52.0050277709961,17.3411617279053,1,-55.130005,2.670288,1,-49.16382,2.319336,1,-44.0979,3.2196045,1
60,-54.18396,24.246216,1,-63.11035,20.370483,1,-51.43115234375,17.6143264770508,1,-53.03955,2.7008057,1,-46.85974,2.89917,1,-41.992188,3.8604736,1
61,-54.031372,24.108887,1,-62.63733,19.882202,1,-50.8820495605469,17.4710845947266,1,-51.04065,2.4719238,1,-44.906616,3.036499,1,-39.871216,4.1503906,1
62,-53.878784,23.81897,1,-62.149048,19.332886,1,-50.3965072631836,16.9084815979004,1,-49.240112,1.953125,1,-43.014526,2.7008057,1,-38.146973,3.8452148,1
63,-53.66516,23.406982,1,-61.660767,18.600464,1,-49.9276924133301,16.0835418701172,1,-47.592163,1.2664795,1,-41.244507,1.6174316,1,-36.224365,3.036499,1
64,-53.268433,22.842407,1,-60.928345,17.852783,1,-49.2628707885742,15.0391206741333,1,-46.37146,0.32043457,1,-39.79492,0.12207031,1,-34.835815,0.9460449,1
65,-52.81067,22.216797,1,-60.165405,17.044067,1,-48.667423248291,13.6094732284546,1,-45.36438,-1.0223389,1,-38.604736,-2.090454,1,-33.615112,-1.7089844,1
66,-52.27661,21.499634,1,-59.32617,16.174316,1,-48.0140914916992,12.1697187423706,1,-44.555664,-2.4261475,1,-37.81128,-4.562378,1,-32.74536,-4.6844482,1
67,-51.635742,20.6604,1,-58.410645,15.213013,1,-47.3438415527344,10.573413848877,1,-43.97583,-4.043579,1,-37.460327,-7.30896,1,-32.485962,-8.132935,1
68,-50.90332,19.729614,1,-57.57141,14.160156,1,-46.8902816772461,8.69084072113037,1,-43.563843,-5.935669,1,-37.597656,-10.20813,1,-32.63855,-11.444092,1
69,-50.186157,18.661499,1,-56.777954,13.092041,1,-46.3359413146973,7.1789722442627,1,-44.47937,-7.7056885,1,-38.650513,-11.199951,1,-33.355713,-11.688232,1
70,-49.53003,17.715454,1,-56.259155,12.207031,1,-45.6360321044922,6.62588214874268,1,-45.028687,-8.361816,1,-39.352417,-11.413574,1,-33.90503,-11.779785,1
71,-49.057007,17.01355,1,-56.137085,11.59668,1,-45.3842086791992,6.26980686187744,1,-45.639038,-8.728027,1,-39.978027,-11.581421,1,-34.469604,-11.856079,1
72,-48.76709,16.525269,1,-56.045532,11.169434,1,-45.312801361084,5.802077293396,1,-46.218872,-9.170532,1,-40.603638,-11.688232,1,-35.186768,-11.871338,1
73,-48.50769,16.067505,1,-55.999756,10.955811,1,-45.3456840515137,5.43396663665772,1,-46.844482,-9.490967,1,-41.244507,-11.795044,1,-35.736084,-11.886597,1
74,-48.26355,15.823364,1,-55.923462,10.864258,1,-45.282039642334,5.31807327270508,1,-47.470093,-9.521484,1,-41.870117,-11.795044,1,-36.453247,-11.917114,1
75,-48.065186,15.792847,1,-55.862427,10.910034,1,-45.2939872741699,5.22601222991943,1,-48.034668,-9.521484,1,-42.541504,-11.825562,1,-37.017822,-11.901855,1
76,-47.836304,15.792847,1,-55.95398,11.154175,1,-45.5096435546875,5.24521255493164,1,-48.614502,-9.429932,1,-43.136597,-11.825562,1,-37.67395,-11.917114,1
77,-47.668457,15.960693,1,-56.045532,11.566162,1,-45.820442199707,5.2854380607605,1,-49.224854,-9.32312,1,-43.762207,-11.810303,1,-38.2843,-11.871338,1
78,-47.561646,16.296387,1,-56.137085,12.10022,1,-46.1291084289551,5.47901058197022,1,-49.743652,-9.0789795,1,-44.37256,-11.71875,1,-38.909912,-11.901855,1
79,-47.470093,16.647339,1,-56.21338,12.680054,1,-46.4010276794434,5.77225017547607,1,-50.354004,-8.69751,1,-44.98291,-11.672974,1,-39.520264,-11.871338,1
80,-47.36328,17.028809,1,-56.411743,13.35144,1,-46.8464546203613,6.10538578033447,1,-50.91858,-8.331299,1,-45.639038,-11.611938,1,-40.222168,-11.871338,1
81,-47.317505,17.456055,1,-56.533813,13.977051,1,-47.2432708740234,6.38193225860596,1,-51.467896,-8.010864,1,-46.295166,-11.535645,1,-40.84778,-11.901855,1
82,-47.348022,17.89856,1,-56.59485,14.526367,1,-47.5006713867188,6.69719505310059,1,-51.89514,-7.6446533,1,-46.905518,-11.413574,1,-41.45813,-11.886597,1
83,-47.36328,18.341064,1,-56.70166,15.014648,1,-47.8235168457031,6.94132232666016,1,-52.459717,-7.3242188,1,-47.51587,-11.33728,1,-42.160034,-11.886597,1
84,-47.317505,18.661499,1,-56.777954,15.472412,1,-48.0987968444824,7.18554353713989,1,-52.963257,-7.003784,1,-48.065186,-11.21521,1,-42.73987,-11.901855,1
85,-47.3938,18.981934,1,-56.82373,15.914917,1,-48.3887214660645,7.37966299057007,1,-53.482056,-6.729126,1,-48.66028,-11.138916,1,-43.380737,-11.886597,1
86,-47.36328,19.210815,1,-56.900024,16.326904,1,-48.6893463134766,7.57563209533691,1,-53.95508,-6.4697266,1,-49.16382,-11.001587,1,-44.052124,-11.917114,1
87,-47.439575,19.439697,1,-57.006836,16.723633,1,-49.028205871582,7.76029491424561,1,-54.489136,-6.210327,1,-49.77417,-10.910034,1,-44.6167,-11.886597,1
88,-47.50061,19.607544,1,-57.113647,17.044067,1,-49.3952140808105,7.85571718215942,1,-54.96216,-6.072998,1,-50.460815,-10.864258,1,-45.318604,-11.917114,1
89,-47.51587,19.683838,1,-57.174683,17.318726,1,-49.708381652832,7.92434787750244,1,-55.480957,-5.92041,1,-51.02539,-10.803223,1,-45.98999,-11.917114,1
90,-47.576904,19.79065,1,-57.296753,17.471313,1,-49.9762191772461,7.96290731430054,1,-56.015015,-5.7678223,1,-51.605225,-10.787964,1,-46.554565,-11.901855,1
91,-47.592163,19.805908,1,-57.296753,17.608643,1,-50.2794342041016,7.87430810928345,1,-56.549072,-5.7525635,1,-52.261353,-10.757446,1,-47.210693,-11.932373,1
92,-47.62268,19.760132,1,-57.357788,17.532349,1,-50.3645286560059,7.78071451187134,1,-57.08313,-5.630493,1,-52.91748,-10.726929,1,-47.77527,-11.917114,1
93,-47.592163,19.65332,1,-57.357788,17.425537,1,-50.3981018066406,7.64991426467896,1,-57.57141,-5.5236816,1,-53.497314,-10.681152,1,-48.477173,-11.886597,1
94,-47.576904,19.439697,1,-57.266235,17.242432,1,-50.2486724853516,7.50827407836914,1,-58.013916,-5.3253174,1,-54.138184,-10.574341,1,-49.102783,-11.856079,1
95,-47.531128,19.27185,1,-57.250977,16.967773,1,-50.2063064575195,7.25321769714356,1,-58.517456,-5.2337646,1,-54.718018,-10.482788,1,-49.713135,-11.871338,1
96,-47.531128,19.119263,1,-57.250977,16.723633,1,-50.1023330688477,7.08532857894897,1,-58.95996,-5.0201416,1,-55.343628,-10.314941,1,-50.369263,-11.825562,1
97,-47.424316,18.997192,1,-57.2052,16.586304,1,-49.9623413085938,7.01859855651856,1,-59.32617,-4.699707,1,-55.93872,-10.20813,1,-50.994873,-11.825562,1
98,-47.25647,18.814087,1,-57.08313,16.464233,1,-49.9034652709961,6.84901237487793,1,-59.692383,-4.5166016,1,-56.503296,-10.040283,1,-51.651,-11.795044,1
99,-47.10388,18.722534,1,-56.930542,16.448975,1,-49.8226318359375,6.78059148788452,1,-60.012817,-4.2266846,1,-57.052612,-9.902954,1,-52.30713,-11.779785,1
100,-46.844482,18.722534,1,-56.6864,16.479492,1,-49.7288589477539,6.70234441757202,1,-60.287476,-3.9520264,1,-57.47986,-9.811401,1,-52.947998,-11.825562,1
101,-46.63086,18.707275,1,-56.427002,16.571045,1,-49.5645141601563,6.72694826126099,1,-60.48584,-3.5552979,1,-58.029175,-9.643555,1,-53.54309,-11.779785,1
102,-46.37146,18.737793,1,-56.137085,16.662598,1,-49.3820114135742,6.74448394775391,1,-60.60791,-3.2043457,1,-58.517456,-9.399414,1,-54.260254,-11.779785,1
103,-46.020508,18.829346,1,-55.786133,16.799927,1,-49.185245513916,6.77853393554688,1,-60.684204,-2.8533936,1,-58.914185,-9.20105,1,-54.901123,-11.734009,1
104,-45.669556,18.951416,1,-55.374146,16.937256,1,-48.8651351928711,6.85594844818115,1,-60.684204,-2.380371,1,-59.295654,-8.81958,1,-55.526733,-11.688232,1
105,-45.440674,19.104004,1,-55.06897,17.13562,1,-48.4354057312012,7.13582849502564,1,-60.638428,-1.5869141,1,-59.646606,-8.117676,1,-56.121826,-11.444092,1
106,-45.10498,19.363403,1,-54.733276,17.364502,1,-47.7329864501953,7.61791658401489,1,-60.36377,-0.47302246,1,-59.661865,-7.080078,1,-56.365967,-11.062622,1
107,-44.784546,19.683838,1,-54.351807,17.63916,1,-46.9727020263672,8.17613410949707,1,-60.012817,0.76293945,1,-58.685303,-5.584717,1,-56.167603,-10.20813,1
108,-44.509888,20.019531,1,-54.07715,17.990112,1,-46.1264610290527,9.00197505950928,1,-59.32617,1.876831,1,-56.869507,-3.9520264,1,-54.855347,-8.19397,1
109,-44.21997,20.477295,1,-53.771973,18.356323,1,-45.4303207397461,9.72980403900147,1,-58.624268,2.5939941,1,-54.855347,-2.0446777,1,-51.727295,-5.6152344,1
110,-43.99109,21.057129,1,-53.512573,18.798828,1,-44.6933517456055,10.6611785888672,1,-57.60193,3.0212402,1,-52.871704,-0.289917,1,-48.75183,-2.7923584,1
111,-43.73169,21.697998,1,-53.237915,19.28711,1,-43.9691390991211,11.6654434204102,1,-56.396484,3.2653809,1,-51.254272,0.91552734,1,-46.798706,-0.8239746,1
112,-43.548584,22.369385,1,-53.024292,19.821167,1,-43.416877746582,12.6310653686523,1,-55.2063,3.3569336,1,-49.835205,1.5563965,1,-45.36438,0.289917,1
113,-43.304443,23.025513,1,-52.79541,20.324707,1,-42.851131439209,13.6082096099854,1,-53.78723,3.3416748,1,-48.355103,1.6326904,1,-43.792725,0.5187988,1
114,-43.121338,23.635864,1,-52.642822,20.79773,1,-42.389087677002,14.5638761520386,1,-52.18506,3.2043457,1,-46.844482,1.3275146,1,-42.007446,0.33569336,1
115,-42.83142,24.18518,1,-52.352905,21.270752,1,-41.9186859130859,15.3439388275146,1,-50.53711,3.0670166,1,-45.196533,1.083374,1,-40.19165,0.289917,1
116,-42.678833,24.68872,1,-52.04773,21.697998,1,-41.4218902587891,16.1220169067383,1,-48.88916,3.112793,1,-43.426514,0.9765625,1,-38.345337,0.015258789,1
117,-42.32788,25.115967,1,-51.68152,22.064209,1,-40.8513069152832,16.8963756561279,1,-47.210693,3.3111572,1,-41.671753,1.159668,1,-36.56006,0.36621094,1
118,-42.053223,25.58899,1,-51.26953,22.399902,1,-40.2941207885742,17.5480613708496,1,-45.578003,3.5095215,1,-39.901733,1.449585,1,-34.63745,0.9460449,1
119,-41.71753,25.878906,1,-50.88806,22.659302,1,-39.7973365783691,18.0771808624268,1,-43.945312,3.6621094,1,-38.116455,2.2277832,1,-32.86743,1.7547607,1
120,-41.47339,26.138306,1,-50.460815,22.81189,1,-39.2498512268066,18.5323753356934,1,-42.297363,3.8452148,1,-36.209106,2.8533936,1,-31.143188,2.5482178,1
121,-41.21399,26.33667,1,-50.079346,22.888184,1,-38.765209197998,18.8893928527832,1,-40.802002,4.0283203,1,-34.75952,3.0517578,1,-29.571533,3.0059814,1
122,-40.95459,26.397705,1,-49.606323,22.903442,1,-38.3055114746094,18.8671550750732,1,-39.5813,3.9215088,1,-33.5083,2.9907227,1,-28.22876,3.036499,1
123,-40.634155,26.33667,1,-49.118042,22.842407,1,-37.8099708557129,18.8265018463135,1,-38.55896,3.8452148,1,-32.24182,2.6397705,1,-27.130127,2.6397705,1
124,-40.31372,26.123047,1,-48.64502,22.613525,1,-37.3974304199219,18.431209564209,1,-37.643433,3.4332275,1,-31.341553,2.029419,1,-26.168823,1.9683838,1
125,-40.023804,25.817871,1,-48.171997,22.232056,1,-37.0056304931641,17.8374786376953,1,-36.865234,2.8381348,1,-30.48706,1.1749268,1,-25.390625,0.9613037,1
126,-39.779663,25.344849,1,-47.729492,21.697998,1,-36.5252227783203,17.4009838104248,1,-35.980225,2.4108887,1,-29.708862,0.061035156,1,-24.612427,-0.21362305,1
127,-39.505005,24.765015,1,-47.317505,21.011353,1,-36.542049407959,15.7302951812744,1,-35.55298,0.76293945,1,-29.174805,-1.4343262,1,-24.002075,-1.7700195,1
128,-39.42871,24.06311,1,-47.01233,20.217896,1,-36.3540229797363,14.7042245864868,1,-35.110474,-0.24414062,1,-28.869629,-3.2196045,1,-23.712158,-3.8909912,1
129,-39.30664,23.31543,1,-46.73767,19.348145,1,-36.2238273620605,13.5637607574463,1,-34.851074,-1.373291,1,-28.869629,-5.1879883,1,-23.773193,-6.286621,1
130,-39.245605,22.491455,1,-46.49353,18.38684,1,-36.1307067871094,12.3360652923584,1,-34.851074,-2.609253,1,-29.190063,-7.171631,1,-24.276733,-8.743286,1
131,-39.154053,21.621704,1,-46.26465,17.410278,1,-36.1830863952637,10.9016609191895,1,-35.095215,-4.058838,1,-29.800415,-9.124756,1,-24.978638,-11.154175,1
132,-39.001465,20.690918,1,-46.173096,16.38794,1,-36.313175201416,9.54820919036865,1,-35.949707,-5.4473877,1,-30.807495,-10.314941,1,-25.878906,-11.489868,1
133,-38.848877,19.805908,1,-46.066284,15.487671,1,-36.1995620727539,8.65774917602539,1,-36.743164,-6.3323975,1,-31.585693,-10.696411,1,-26.550293,-11.566162,1
134,-38.742065,19.042969,1,-46.188354,14.694214,1,-36.0872116088867,8.21602725982666,1,-37.368774,-6.729126,1,-32.302856,-10.879517,1,-27.114868,-11.611938,1
135,-38.726807,18.539429,1,-46.279907,14.129639,1,-36.0657730102539,7.83110618591309,1,-38.07068,-7.0343018,1,-32.928467,-11.001587,1,-27.72522,-11.627197,1
136,-38.757324,18.127441,1,-46.524048,13.626099,1,-36.2930755615234,7.35495758056641,1,-38.726807,-7.446289,1,-33.584595,-11.138916,1,-28.305054,-11.627197,1
137,-38.742065,17.791748,1,-46.707153,13.168335,1,-36.434871673584,6.96508979797363,1,-39.413452,-7.736206,1,-34.27124,-11.245728,1,-28.930664,-11.642456,1
138,-38.81836,17.288208,1,-46.936035,12.710571,1,-36.6621704101563,6.50994873046875,1,-40.115356,-8.087158,1,-34.88159,-11.383057,1,-29.541016,-11.642456,1
139,-38.92517,16.89148,1,-47.1344,12.268066,1,-36.8703231811523,6.05125379562378,1,-40.863037,-8.407593,1,-35.705566,-11.474609,1,-30.212402,-11.672974,1
140,-39.016724,16.494751,1,-47.439575,11.947632,1,-37.2232055664062,5.6527247428894,1,-41.488647,-8.728027,1,-36.27014,-11.520386,1,-30.86853,-11.657715,1
141,-39.18457,16.204834,1,-47.74475,11.749268,1,-37.5396118164062,5.43617534637451,1,-42.20581,-8.81958,1,-37.002563,-11.611938,1,-31.49414,-11.642456,1
142,-39.45923,16.021729,1,-48.049927,11.59668,1,-37.8746910095215,5.23550462722778,1,-42.86194,-8.911133,1,-37.628174,-11.611938,1,-32.15027,-11.657715,1
143,-39.596558,15.914917,1,-48.355103,11.627197,1,-38.2487030029297,5.15721654891968,1,-43.411255,-8.926392,1,-38.2843,-11.627197,1,-32.821655,-11.672974,1
144,-39.82544,15.899658,1,-48.64502,11.688232,1,-38.6347389221191,5.07050895690918,1,-44.067383,-8.911133,1,-39.001465,-11.642456,1,-33.432007,-11.657715,1
145,-39.916992,15.945435,1,-48.858643,11.856079,1,-38.988109588623,5.03166723251343,1,-44.708252,-8.834839,1,-39.56604,-11.627197,1,-34.04236,-11.657715,1
146,-40.08484,16.113281,1,-49.087524,12.130737,1,-39.3472557067871,5.12166500091553,1,-45.288086,-8.651733,1,-40.267944,-11.627197,1,-34.713745,-11.703491,1
147,-40.222168,16.235352,1,-49.3927,12.420654,1,-39.7832107543945,5.23332118988037,1,-45.85266,-8.483887,1,-40.893555,-11.581421,1,-35.369873,-11.672974,1
148,-40.31372,16.418457,1,-49.560547,12.878418,1,-40.2411346435547,5.31874990463257,1,-46.49353,-8.31604,1,-41.488647,-11.520386,1,-36.04126,-11.688232,1
149,-40.405273,16.723633,1,-49.78943,13.320923,1,-40.6414947509766,5.55463123321533,1,-47.042847,-8.010864,1,-42.114258,-11.474609,1,-36.712646,-11.657715,1
150,-40.55786,16.983032,1,-49.942017,13.73291,1,-41.0143280029297,5.71440649032593,1,-47.62268,-7.751465,1,-42.770386,-11.398315,1,-37.368774,-11.627197,1
151,-40.618896,17.227173,1,-50.109863,14.129639,1,-41.3888816833496,5.88679456710815,1,-48.14148,-7.507324,1,-43.380737,-11.3220215,1,-38.04016,-11.627197,1
152,-40.740967,17.471313,1,-50.323486,14.511108,1,-41.8085250854492,6.05561256408691,1,-48.76709,-7.232666,1,-44.052124,-11.230469,1,-38.66577,-11.59668,1
153,-40.878296,17.63916,1,-50.460815,14.785767,1,-42.0833168029785,6.19405126571655,1,-49.240112,-6.9885254,1,-44.58618,-11.138916,1,-39.367676,-11.59668,1
154,-40.908813,17.8833,1,-50.567627,15.136719,1,-42.3590316772461,6.3834924697876,1,-49.697876,-6.6986084,1,-45.196533,-11.0321045,1,-39.978027,-11.642456,1
155,-40.908813,18.066406,1,-50.64392,15.457153,1,-42.596004486084,6.55597114562988,1,-50.14038,-6.4086914,1,-45.791626,-10.910034,1,-40.649414,-11.642456,1
156,-40.95459,18.249512,1,-50.689697,15.74707,1,-42.8277702331543,6.68119144439697,1,-50.598145,-6.149292,1,-46.37146,-10.772705,1,-41.259766,-11.657715,1
157,-40.878296,18.539429,1,-50.735474,16.174316,1,-43.0560264587402,6.9533543586731,1,-50.979614,-5.783081,1,-46.905518,-10.681152,1,-41.870117,-11.688232,1
158,-40.878296,18.737793,1,-50.750732,16.448975,1,-43.3112945556641,7.03330898284912,1,-51.42212,-5.584717,1,-47.51587,-10.559082,1,-42.526245,-11.71875,1
159,-40.786743,18.920898,1,-50.628662,16.784668,1,-43.4105186462402,7.19830322265625,1,-51.80359,-5.2337646,1,-48.080444,-10.421753,1,-43.151855,-11.71875,1
160,-40.69519,19.073486,1,-50.53711,17.089844,1,-43.6063079833984,7.29372024536133,1,-52.215576,-4.989624,1,-48.583984,-10.299683,1,-43.807983,-11.703491,1
161,-40.618896,19.241333,1,-50.39978,17.349243,1,-43.7040138244629,7.39099550247192,1,-52.581787,-4.699707,1,-49.16382,-10.192871,1,-44.418335,-11.764526,1
162,-40.420532,19.317627,1,-50.231934,17.623901,1,-43.7667999267578,7.5143985748291,1,-52.886963,-4.3945312,1,-49.75891,-10.070801,1,-45.074463,-11.734009,1
163,-40.19165,19.439697,1,-49.972534,17.822266,1,-43.8098258972168,7.5256142616272,1,-53.207397,-4.1656494,1,-50.26245,-10.009766,1,-45.700073,-11.749268,1
164,-39.901733,19.485474,1,-49.713135,17.959595,1,-43.791862487793,7.52223062515259,1,-53.54309,-3.8757324,1,-50.827026,-9.887695,1,-46.3562,-11.779785,1
165,-39.596558,19.439697,1,-49.362183,18.066406,1,-43.7208061218262,7.47514343261719,1,-53.80249,-3.6315918,1,-51.361084,-9.750366,1,-46.920776,-11.764526,1
166,-39.230347,19.40918,1,-48.919678,18.081665,1,-43.5647354125977,7.34273767471314,1,-54.06189,-3.3721924,1,-51.879883,-9.628296,1,-47.63794,-11.749268,1
167,-38.909912,19.241333,1,-48.538208,18.005371,1,-43.3852691650391,7.16806411743164,1,-54.336548,-3.0822754,1,-52.4292,-9.460449,1,-48.355103,-11.764526,1
168,-38.45215,19.104004,1,-48.12622,17.89856,1,-43.2206573486328,6.94705533981323,1,-54.641724,-2.7770996,1,-52.978516,-9.262085,1,-48.919678,-11.749268,1
169,-38.07068,18.875122,1,-47.74475,17.654419,1,-42.8367462158203,6.70400905609131,1,-54.70276,-2.4719238,1,-53.54309,-8.987427,1,-49.6521,-11.703491,1
170,-37.719727,18.753052,1,-47.332764,17.364502,1,-42.443977355957,6.40549850463867,1,-54.763794,-2.1514893,1,-54.016113,-8.636475,1,-50.369263,-11.627197,1
171,-37.261963,18.52417,1,-46.966553,17.01355,1,-41.848690032959,6.15963506698608,1,-54.70276,-1.5716553,1,-54.41284,-8.102417,1,-50.994873,-11.505127,1
172,-36.77368,18.325806,1,-46.47827,16.76941,1,-41.312370300293,5.93827390670776,1,-54.534912,-1.1444092,1,-54.733276,-7.7209473,1,-51.589966,-11.352539,1
173,-36.17859,18.157959,1,-45.928955,16.586304,1,-40.8042411804199,5.7356219291687,1,-54.367065,-0.6713867,1,-54.96216,-7.247925,1,-52.18506,-11.138916,1
174,-35.614014,18.096924,1,-45.37964,16.448975,1,-40.2605895996094,5.59561729431152,1,-54.07715,-0.24414062,1,-55.160522,-6.80542,1,-52.67334,-10.971069,1
175,-35.04944,18.081665,1,-44.830322,16.479492,1,-39.7149314880371,5.62441301345825,1,-53.710938,0.22888184,1,-55.221558,-6.3171387,1,-53.085327,-10.7421875,1
176,-34.37805,18.127441,1,-44.204712,16.555786,1,-39.052848815918,5.71796846389771,1,-53.268433,0.93078613,1,-55.08423,-5.584717,1,-53.375244,-10.360718,1
177,-33.737183,18.310547,1,-43.5791,16.662598,1,-38.2215576171875,5.92496776580811,1,-52.719116,2.0751953,1,-54.367065,-4.3792725,1,-53.466797,-9.689331,1
178,-33.065796,18.508911,1,-42.877197,16.845703,1,-37.1643714904785,6.29280614852905,1,-51.849365,3.2348633,1,-52.520752,-3.036499,1,-52.65808,-7.949829,1
179,-32.409668,18.859863,1,-42.297363,17.105103,1,-36.1363754272461,6.80741834640503,1,-50.88806,4.0893555,1,-50.15564,-1.6479492,1,-49.316406,-6.4849854,1
180,-31.768799,19.16504,1,-41.625977,17.333984,1,-34.9758529663086,7.34519863128662,1,-49.697876,4.470825,1,-47.546387,-0.48828125,1,-45.150757,-4.8828125,1
181,-31.11267,19.607544,1,-40.95459,17.669678,1,-33.7970352172852,8.03798961639404,1,-48.324585,4.3029785,1,-44.99817,0.32043457,1,-41.45813,-3.112793,1
182,-30.48706,20.111084,1,-40.298462,18.051147,1,-32.5432319641113,8.89383506774902,1,-46.64612,3.7841797,1,-42.60254,0.74768066,1,-38.5437,-1.8920898,1
183,-29.98352,20.721436,1,-39.749146,18.493652,1,-31.5328598022461,9.74764347076416,1,-45.074463,3.2958984,1,-40.55786,0.77819824,1,-36.087036,-1.2207031,1
184,-29.388428,21.331787,1,-39.18457,18.951416,1,-30.4468803405762,10.7262849807739,1,-43.289185,2.9754639,1,-38.604736,0.62561035,1,-33.935547,-1.1138916,1
185,-28.823853,21.92688,1,-38.726807,19.39392,1,-29.3789825439453,11.8694152832031,1,-41.3208,2.7923584,1,-36.68213,0.36621094,1,-31.967163,-1.2054443,1
186,-28.274536,22.521973,1,-38.146973,19.927979,1,-28.4400978088379,12.8727293014526,1,-39.657593,2.9144287,1,-34.88159,0.289917,1,-30.166626,-1.3580322,1
187,-27.618408,23.117065,1,-37.53662,20.507812,1,-27.61279296875,13.7611351013184,1,-38.17749,3.112793,1,-33.40149,0.5340576,1,-28.457642,-0.93078613,1
188,-26.885986,23.635864,1,-36.819458,21.057129,1,-26.7443466186523,14.5385274887085,1,-36.91101,3.5095215,1,-31.951904,1.2969971,1,-26.96228,0.22888184,1
189,-26.168823,24.139404,1,-36.05652,21.591187,1,-25.7536754608154,15.4388360977173,1,-35.614014,4.135132,1,-30.532837,2.5024414,1,-25.466919,2.0141602,1
190,-25.436401,24.58191,1,-35.339355,22.125244,1,-24.6964988708496,16.5818176269531,1,-34.0271,4.837036,1,-28.900146,3.768921,1,-23.742676,3.7994385,1
191,-24.719238,25.07019,1,-34.683228,22.537231,1,-23.7240600585937,17.6488075256348,1,-32.11975,5.218506,1,-26.794434,4.7302246,1,-21.66748,5.279541,1
192,-23.986816,25.512695,1,-33.996582,22.872925,1,-22.7483596801758,18.6923198699951,1,-29.846191,5.4779053,1,-24.383545,5.3710938,1,-19.27185,6.210327,1
193,-23.513794,25.772095,1,-33.26416,23.05603,1,-21.814245223999,19.4644527435303,1,-27.648926,5.645752,1,-21.987915,5.7373047,1,-17.059326,6.576538,1
194,-22.918701,25.894165,1,-32.608032,23.05603,1,-21.0624084472656,19.7851676940918,1,-25.71106,5.5236816,1,-19.927979,5.493164,1,-14.984131,6.210327,1
195,-22.415161,25.909424,1,-32.043457,22.918701,1,-20.5020637512207,19.6329383850098,1,-24.017334,5.050659,1,-18.157959,4.8065186,1,-13.214111,5.279541,1
196,-22.064209,25.741577,1,-31.38733,22.613525,1,-19.9283580780029,19.0509471893311,1,-22.583008,4.2877197,1,-16.677856,3.753662,1,-11.642456,3.982544,1
197,-21.80481,25.421143,1,-30.838013,22.155762,1,-19.5034656524658,18.2151947021484,1,-21.560669,3.3569336,1,-15.487671,2.3345947,1,-10.406494,2.4108887,1
198,-21.591187,25.039673,1,-30.288696,21.575928,1,-19.0809230804443,17.2880592346191,1,-20.599365,2.3651123,1,-14.526367,0.9613037,1,-9.414673,0.9460449,1
199,-21.347046,24.490356,1,-29.815674,20.828247,1,-18.7333431243896,16.2258644104004,1,-19.836426,1.2664795,1,-13.73291,-0.33569336,1,-8.621216,-0.4272461,1
200,-21.057129,23.834229,1,-29.388428,20.019531,1,-18.4069480895996,15.1814432144165,1,-19.119263,0.19836426,1,-13.015747,-1.739502,1,-7.8582764,-2.0446777,1
201,-20.874023,23.132324,1,-29.037476,19.134521,1,-18.1254711151123,14.1417074203491,1,-18.463135,-0.8544922,1,-12.451172,-3.3874512,1,-7.30896,-4.0283203,1
202,-20.6604,22.43042,1,-28.671265,18.218994,1,-17.8651466369629,13.0009622573853,1,-17.929077,-1.9989014,1,-12.1154785,-5.3253174,1,-6.8969727,-6.4086914,1
203,-20.41626,21.652222,1,-28.320312,17.196655,1,-17.6434288024902,11.7190532684326,1,-17.547607,-3.2806396,1,-11.901855,-7.385254,1,-6.8511963,-8.834839,1
204,-20.217896,20.767212,1,-28.015137,16.189575,1,-17.5257930755615,10.3608818054199,1,-17.410278,-4.638672,1,-12.023926,-9.44519,1,-7.0495605,-11.21521,1
205,-20.03479,19.79065,1,-27.679443,15.075684,1,-17.443998336792,8.81184482574463,1,-17.944336,-6.1798096,1,-12.863159,-10.726929,1,-7.6446533,-11.657715,1
206,-19.77539,18.722534,1,-27.389526,14.022827,1,-17.1987419128418,7.6865873336792,1,-18.753052,-7.232666,1,-13.656616,-11.108398,1,-8.224487,-11.642456,1
207,-19.454956,17.852783,1,-27.34375,13.092041,1,-16.8960075378418,7.18910026550293,1,-19.317627,-7.6141357,1,-14.266968,-11.260986,1,-8.81958,-11.795044,1
208,-19.378662,17.181396,1,-27.435303,12.34436,1,-16.8328018188477,6.72413349151611,1,-19.943237,-7.949829,1,-14.831543,-11.413574,1,-9.414673,-11.825562,1
209,-19.256592,16.601562,1,-27.420044,11.71875,1,-16.7673492431641,6.19425201416016,1,-20.568848,-8.31604,1,-15.563965,-11.489868,1,-10.040283,-11.825562,1
210,-19.195557,16.143799,1,-27.542114,11.276245,1,-16.8810691833496,5.76787662506104,1,-21.270752,-8.575439,1,-16.159058,-11.581421,1,-10.681152,-11.84082,1
211,-19.241333,15.808105,1,-27.58789,10.925293,1,-16.9120674133301,5.44562339782715,1,-21.865845,-8.712769,1,-16.89148,-11.627197,1,-11.291504,-11.856079,1
212,-19.241333,15.579224,1,-27.755737,10.7421875,1,-17.1397533416748,5.14746952056885,1,-22.491455,-8.865356,1,-17.562866,-11.657715,1,-11.901855,-11.856079,1
213,-19.378662,15.548706,1,-27.954102,10.787964,1,-17.3843612670898,5.10635852813721,1,-23.07129,-8.773804,1,-18.157959,-11.657715,1,-12.542725,-11.856079,1
214,-19.546509,15.625,1,-28.198242,11.016846,1,-17.7610092163086,5.09534597396851,1,-23.727417,-8.666992,1,-18.829346,-11.642456,1,-13.137817,-11.871338,1
215,-19.66858,15.792847,1,-28.48816,11.3220215,1,-18.192699432373,5.15732383728027,1,-24.261475,-8.560181,1,-19.454956,-11.59668,1,-13.839722,-11.871338,1
216,-19.89746,16.052246,1,-28.778076,11.657715,1,-18.6445121765137,5.23036432266235,1,-24.856567,-8.422852,1,-20.004272,-11.566162,1,-14.465332,-11.886597,1
217,-20.050049,16.342163,1,-29.083252,12.10022,1,-19.0856018066406,5.4634256362915,1,-25.421143,-8.132935,1,-20.721436,-11.535645,1,-15.029907,-11.856079,1
218,-20.17212,16.662598,1,-29.388428,12.496948,1,-19.5397720336914,5.64100360870361,1,-26.016235,-7.888794,1,-21.255493,-11.489868,1,-15.74707,-11.825562,1
219,-20.385742,16.937256,1,-29.663086,12.893677,1,-19.9865913391113,5.79681396484375,1,-26.519775,-7.7056885,1,-21.820068,-11.428833,1,-16.403198,-11.84082,1
220,-20.462036,17.211914,1,-29.876709,13.244629,1,-20.311408996582,5.99859189987183,1,-27.08435,-7.385254,1,-22.476196,-11.33728,1,-17.01355,-11.856079,1
221,-20.629883,17.440796,1,-30.090332,13.61084,1,-20.6705627441406,6.176598072052,1,-27.572632,-7.1411133,1,-23.040771,-11.276245,1,-17.684937,-11.84082,1
222,-20.736694,17.684937,1,-30.273438,14.038086,1,-21.062255859375,6.34691619873047,1,-28.076172,-6.9122314,1,-23.727417,-11.199951,1,-18.341064,-11.84082,1
223,-20.935059,17.990112,1,-30.410767,14.419556,1,-21.3906097412109,6.50521659851074,1,-28.564453,-6.668091,1,-24.276733,-11.108398,1,-18.90564,-11.84082,1
224,-21.087646,18.26477,1,-30.60913,14.877319,1,-21.9090614318848,6.61240720748901,1,-29.220581,-6.4849854,1,-24.841309,-11.077881,1,-19.622803,-11.84082,1
225,-21.209717,18.432617,1,-30.74646,15.258789,1,-22.2587337493896,6.77595186233521,1,-29.73938,-6.225586,1,-25.45166,-10.986328,1,-20.29419,-11.856079,1
226,-21.28601,18.600464,1,-30.822754,15.579224,1,-22.6035785675049,6.8359317779541,1,-30.24292,-6.072998,1,-26.016235,-10.940552,1,-20.950317,-11.871338,1
227,-21.331787,18.737793,1,-30.929565,15.869141,1,-23.0178985595703,6.84663867950439,1,-30.792236,-5.9814453,1,-26.672363,-10.879517,1,-21.575928,-11.901855,1
228,-21.331787,18.76831,1,-30.9906,16.143799,1,-23.3820972442627,6.8642144203186,1,-31.326294,-5.859375,1,-27.236938,-10.879517,1,-22.17102,-11.901855,1
229,-21.347046,18.78357,1,-31.097412,16.311646,1,-23.6541862487793,6.89897394180298,1,-31.784058,-5.706787,1,-27.84729,-10.818481,1,-22.842407,-11.947632,1
230,-21.347046,18.76831,1,-31.143188,16.448975,1,-23.9536819458008,6.84111404418945,1,-32.333374,-5.5999756,1,-28.4729,-10.787964,1,-23.468018,-11.932373,1
231,-21.408081,18.707275,1,-31.219482,16.51001,1,-24.19384765625,6.78167772293091,1,-32.836914,-5.4779053,1,-29.006958,-10.757446,1,-24.124146,-11.962891,1
232,-21.453857,18.661499,1,-31.25,16.51001,1,-24.359790802002,6.68529462814331,1,-33.325195,-5.340576,1,-29.60205,-10.681152,1,-24.734497,-11.947632,1
233,-21.408081,18.585205,1,-31.280518,16.525269,1,-24.5041351318359,6.62170171737671,1,-33.75244,-5.1879883,1,-30.273438,-10.604858,1,-25.466919,-11.932373,1
234,-21.392822,18.447876,1,-31.234741,16.418457,1,-24.5857257843018,6.42893314361572,1,-34.240723,-5.050659,1,-30.914307,-10.528564,1,-26.107788,-11.962891,1
235,-21.316528,18.26477,1,-31.12793,16.25061,1,-24.546215057373,6.21661615371704,1,-34.65271,-4.8675537,1,-31.433105,-10.437012,1,-26.672363,-11.947632,1
236,-21.194458,18.112183,1,-30.944824,16.052246,1,-24.4698181152344,5.9490647315979,1,-35.04944,-4.6844482,1,-32.01294,-10.299683,1,-27.34375,-11.978149,1
237,-21.011353,17.837524,1,-30.761719,15.74707,1,-24.2479877471924,5.66881132125855,1,-35.38513,-4.3792725,1,-32.608032,-10.1623535,1,-27.954102,-11.932373,1
238,-20.812988,17.715454,1,-30.578613,15.472412,1,-24.0755081176758,5.38729572296143,1,-35.690308,-4.1046143,1,-33.172607,-10.009766,1,-28.564453,-11.871338,1
239,-20.614624,17.51709,1,-30.349731,15.2282715,1,-23.8847579956055,5.11866569519043,1,-35.93445,-3.8146973,1,-33.75244,-9.735107,1,-29.35791,-11.795044,1
240,-20.324707,17.333984,1,-30.212402,15.075684,1,-23.7247085571289,4.98064517974854,1,-36.16333,-3.40271,1,-34.301758,-9.552002,1,-30.014038,-11.795044,1
241,-20.095825,17.181396,1,-29.968262,14.953613,1,-23.5169010162353,4.83531522750855,1,-36.2854,-3.036499,1,-34.77478,-9.338379,1,-30.74646,-11.764526,1
242,-19.836426,17.13562,1,-29.61731,14.984131,1,-23.3209838867187,4.76863765716553,1,-36.346436,-2.670288,1,-35.232544,-9.048462,1,-31.417847,-11.734009,1
243,-19.470215,17.13562,1,-29.373169,15.060425,1,-23.0530624389648,4.85962724685669,1,-36.361694,-2.0599365,1,-35.736084,-8.4991455,1,-32.13501,-11.642456,1
244,-18.920898,17.39502,1,-28.9917,15.2282715,1,-22.7825012207031,4.95958709716797,1,-36.30066,-1.5411377,1,-36.071777,-8.041382,1,-32.699585,-11.59668,1
245,-18.52417,17.562866,1,-28.625488,15.457153,1,-22.4884757995605,5.14516544342041,1,-36.14807,-1.0528564,1,-36.2854,-7.6141357,1,-33.233643,-11.459351,1
246,-18.218994,17.745972,1,-28.244019,15.792847,1,-22.1562843322754,5.45168972015381,1,-35.949707,-0.44250488,1,-36.43799,-7.0648193,1,-33.599854,-11.3220215,1
247,-17.944336,17.990112,1,-27.877808,16.12854,1,-21.6148834228516,5.89253807067871,1,-35.65979,0.62561035,1,-36.193848,-6.072998,1,-33.87451,-11.077881,1
248,-17.51709,18.417358,1,-27.46582,16.51001,1,-20.8081302642822,6.52626466751099,1,-35.232544,2.4108887,1,-34.957886,-4.6844482,1,-33.5083,-9.872437,1
249,-17.105103,18.875122,1,-27.038574,17.01355,1,-20.2202491760254,7.13881349563599,1,-34.65271,3.0517578,1,-33.111572,-2.9449463,1,-31.478882,-7.6293945,1
250,-16.76941,19.348145,1,-26.687622,17.501831,1,-19.4394721984863,7.93813228607178,1,-33.843994,3.753662,1,-31.158447,-1.1749268,1,-28.213501,-5.1879883,1
251,-16.494751,19.927979,1,-26.321411,18.066406,1,-18.6299896240234,8.85543251037598,1,-32.89795,4.2266846,1,-29.266357,0.22888184,1,-25.253296,-2.8381348,1
252,-16.159058,20.553589,1,-26.016235,18.554688,1,-17.798038482666,9.81047630310059,1,-31.738281,4.272461,1,-27.404785,1.1444092,1,-23.010254,-1.159668,1
253,-15.899658,21.148682,1,-25.741577,19.02771,1,-17.0293121337891,10.77565574646,1,-30.471802,4.119873,1,-25.741577,1.6021729,1,-21.133423,-0.21362305,1
254,-15.609741,21.743774,1,-25.45166,19.439697,1,-16.272705078125,11.710090637207,1,-29.129028,3.982544,1,-24.230957,1.739502,1,-19.439697,0.24414062,1
255,-15.457153,22.247314,1,-25.20752,19.836426,1,-15.6075916290283,12.6363286972046,1,-27.694702,3.753662,1,-22.766113,1.5869141,1,-17.929077,0.1373291,1
256,-15.182495,22.750854,1,-24.94812,20.17212,1,-15.0395545959473,13.4030456542969,1,-26.260376,3.4484863,1,-21.255493,1.2817383,1,-16.296387,-0.076293945,1
257,-15.029907,23.223877,1,-24.70398,20.446777,1,-14.4217023849487,14.2601146697998,1,-24.658203,3.2958984,1,-19.622803,1.0223389,1,-14.541626,-0.061035156,1
258,-14.61792,23.620605,1,-24.459839,20.736694,1,-13.9072961807251,15.02321434021,1,-23.025513,3.112793,1,-17.852783,1.0528564,1,-12.741089,0.21362305,1
259,-14.389038,23.956299,1,-24.154663,21.011353,1,-13.3283567428589,15.8353433609009,1,-21.347046,3.1585693,1,-16.098022,1.2969971,1,-10.925293,0.8239746,1
260,-14.083862,24.353027,1,-23.788452,21.30127,1,-12.7555990219116,16.581506729126,1,-19.805908,3.3416748,1,-14.343262,1.8005371,1,-9.170532,1.739502,1
261,-13.824463,24.56665,1,-23.376465,21.499634,1,-12.1649017333984,17.2216854095459,1,-18.28003,3.5247803,1,-12.6953125,2.4414062,1,-7.507324,2.7618408,1
262,-13.580322,24.82605,1,-22.964478,21.713257,1,-11.591290473938,17.8856430053711,1,-16.662598,3.768921,1,-11.0321045,3.0212402,1,-5.844116,3.692627,1
263,-13.22937,25.024414,1,-22.583008,21.850586,1,-11.0957632064819,18.3802528381348,1,-15.197754,3.9520264,1,-9.460449,3.463745,1,-4.3792725,4.180908,1
264,-12.863159,25.131226,1,-22.201538,21.942139,1,-10.687108039856,18.5630989074707,1,-13.946533,3.9215088,1,-8.010864,3.463745,1,-2.9754639,4.196167,1
265,-12.557983,25.161743,1,-21.728516,21.972656,1,-10.2505588531494,18.4717254638672,1,-12.72583,3.6773682,1,-6.7596436,3.036499,1,-1.6479492,3.6468506,1
266,-12.298584,25.19226,1,-21.30127,21.881104,1,-9.89356327056885,18.1576328277588,1,-11.688232,3.2653809,1,-5.645752,2.380371,1,-0.50354004,2.7313232,1
267,-12.10022,25.009155,1,-20.858765,21.697998,1,-9.57529354095459,17.6134815216064,1,-10.879517,2.670288,1,-4.837036,1.4648438,1,0.33569336,1.6174316,1
268,-11.947632,24.70398,1,-20.401001,21.42334,1,-9.24656677246094,16.9985675811768,1,-10.20813,2.029419,1,-4.119873,0.47302246,1,1.0528564,0.4272461,1
269,-11.764526,24.383545,1,-19.989014,21.087646,1,-8.99946975708008,16.2679042816162,1,-9.643555,1.2817383,1,-3.5247803,-0.61035156,1,1.6784668,-0.8087158,1
270,-11.642456,24.047852,1,-19.77539,20.629883,1,-8.86281967163086,15.6383094787598,1,-9.140015,0.64086914,1,-3.0670166,-1.6021729,1,2.1820068,-2.0141602,1
271,-11.474609,23.605347,1,-19.439697,20.095825,1,-8.7010383605957,14.7403411865234,1,-8.7890625,-0.2593994,1,-2.609253,-2.7923584,1,2.6397705,-3.2653809,1
272,-11.398315,23.132324,1,-19.16504,19.515991,1,-8.53550624847412,13.9470558166504,1,-8.483887,-1.0528564,1,-2.3345947,-4.1656494,1,2.8839111,-4.91333,1
273,-11.245728,22.583008,1,-18.829346,18.875122,1,-8.40939903259277,12.9232559204102,1,-8.19397,-2.0751953,1,-2.3345947,-5.783081,1,2.8533936,-6.958008,1
274,-11.123657,21.987915,1,-18.615723,18.127441,1,-8.29380416870117,12.0071516036987,1,-8.041382,-2.9907227,1,-2.5787354,-7.522583,1,2.4261475,-9.124756,1
275,-10.925293,21.240234,1,-18.478394,17.303467,1,-8.38329696655273,10.8158588409424,1,-8.071899,-4.180908,1,-3.036499,-9.216309,1,1.8005371,-11.245728,1
276,-10.864258,20.477295,1,-18.325806,16.418457,1,-8.41051387786865,9.65924263000488,1,-8.483887,-5.340576,1,-3.9367676,-10.620117,1,0.7019043,-11.795044,1
277,-10.681152,19.66858,1,-18.188477,15.625,1,-8.39195537567139,8.6947660446167,1,-9.399414,-6.2713623,1,-4.714966,-11.0321045,1,0.289917,-11.810303,1
278,-10.543823,18.966675,1,-18.112183,14.892578,1,-8.26911640167236,8.02861022949219,1,-10.040283,-6.866455,1,-5.355835,-11.230469,1,-0.4272461,-11.810303,1
279,-10.406494,18.417358,1,-18.051147,14.328003,1,-8.10238552093506,7.6181492805481,1,-10.604858,-7.171631,1,-6.011963,-11.3220215,1,-0.77819824,-12.893677,1
280,-10.269165,18.035889,1,-18.005371,13.85498,1,-7.99176359176636,7.24229145050049,1,-11.245728,-7.4005127,1,-6.729126,-11.428833,1,-1.4038086,-12.924194,1
281,-10.1623535,17.730713,1,-17.959595,13.427734,1,-7.97351932525635,6.77354001998901,1,-11.947632,-7.6904297,1,-7.461548,-11.489868,1,-2.0751953,-12.969971,1
282,-10.131836,17.440796,1,-18.02063,13.122559,1,-8.06209182739258,6.42722129821777,1,-12.588501,-7.873535,1,-8.117676,-11.535645,1,-2.6855469,-13.031006,1
283,-10.101318,17.105103,1,-18.1427,12.741089,1,-8.14319324493408,6.10709810256958,1,-13.168335,-8.026123,1,-8.804321,-11.581421,1,-3.2348633,-13.046265,1
284,-10.192871,16.845703,1,-18.371582,12.481689,1,-8.36621856689453,5.85653448104858,1,-13.778687,-8.132935,1,-9.414673,-11.627197,1,-3.9672852,-13.076782,1
285,-10.314941,16.693115,1,-18.630981,12.390137,1,-8.71433734893799,5.63290452957153,1,-14.419556,-8.239746,1,-10.147095,-11.627197,1,-4.562378,-13.061523,1
286,-10.437012,16.616821,1,-18.89038,12.390137,1,-9.0295991897583,5.55164480209351,1,-14.99939,-8.2092285,1,-10.818481,-11.627197,1,-5.2337646,-13.076782,1
287,-10.620117,16.738892,1,-19.28711,12.466431,1,-9.48319625854492,5.54665374755859,1,-15.670776,-8.117676,1,-11.383057,-11.627197,1,-5.9051514,-13.092041,1
288,-10.864258,16.815186,1,-19.561768,12.680054,1,-9.87550258636475,5.59653091430664,1,-16.220093,-7.9956055,1,-12.039185,-11.581421,1,-6.515503,-13.1073,1
289,-11.09314,17.01355,1,-19.989014,12.939453,1,-10.4384994506836,5.67394065856934,1,-16.845703,-7.888794,1,-12.756348,-11.581421,1,-7.1258545,-13.092041,1
290,-11.352539,17.25769,1,-20.233154,13.244629,1,-10.8518667221069,5.76188802719116,1,-17.425537,-7.7209473,1,-13.320923,-11.535645,1,-7.8430176,-13.1073,1
291,-11.59668,17.501831,1,-20.629883,13.549805,1,-11.349271774292,5.94255352020264,1,-17.990112,-7.507324,1,-13.85498,-11.489868,1,-8.453369,-13.1073,1
292,-11.825562,17.77649,1,-20.980835,13.900757,1,-11.8439884185791,6.12142324447632,1,-18.52417,-7.30896,1,-14.480591,-11.413574,1,-9.063721,-13.1073,1
293,-12.084961,18.035889,1,-21.255493,14.160156,1,-12.2528238296509,6.22593069076538,1,-19.088745,-7.1258545,1,-15.106201,-11.413574,1,-9.674072,-13.1073,1
294,-12.420654,18.28003,1,-21.652222,14.450073,1,-12.7348203659058,6.42013359069824,1,-19.638062,-6.8969727,1,-15.655518,-11.352539,1,-10.406494,-13.092041,1
295,-12.680054,18.52417,1,-22.064209,14.709473,1,-13.2236852645874,6.59497213363647,1,-20.17212,-6.6986084,1,-16.281128,-11.291504,1,-11.016846,-13.1073,1
296,-13.015747,18.722534,1,-22.460938,14.877319,1,-13.698956489563,6.67807197570801,1,-20.721436,-6.576538,1,-16.906738,-11.230469,1,-11.672974,-13.092041,1
297,-13.397217,18.89038,1,-22.918701,15.106201,1,-14.2701091766357,6.78743505477905,1,-21.316528,-6.454468,1,-17.501831,-11.21521,1,-12.283325,-13.092041,1
298,-13.809204,19.042969,1,-23.30017,15.274048,1,-14.7187824249268,6.88597393035889,1,-21.865845,-6.30188,1,-18.127441,-11.199951,1,-13.015747,-13.092041,1
299,-14.175415,19.14978,1,-23.712158,15.441895,1,-15.2297763824463,6.95371294021606,1,-22.476196,-6.1798096,1,-18.707275,-11.199951,1,-13.61084,-13.092041,1
300,-14.556885,19.27185,1,-24.093628,15.594482,1,-15.6945924758911,7.02382373809814,1,-22.979736,-6.088257,1,-19.378662,-11.154175,1,-14.297485,-13.1073,1
301,-14.892578,19.332886,1,-24.383545,15.823364,1,-16.2125492095947,7.03503036499023,1,-23.55957,-6.0424805,1,-20.03479,-11.123657,1,-14.877319,-13.092041,1
302,-15.197754,19.39392,1,-24.719238,15.975952,1,-16.6297645568848,7.11252021789551,1,-24.108887,-5.8898926,1,-20.614624,-11.09314,1,-15.50293,-13.122559,1
303,-15.426636,19.500732,1,-24.917603,16.143799,1,-16.9708499908447,7.15218496322632,1,-24.642944,-5.7373047,1,-21.209717,-11.062622,1,-16.174316,-13.1073,1
304,-15.670776,19.561768,1,-25.131226,16.37268,1,-17.3761253356934,7.21525764465332,1,-25.146484,-5.6152344,1,-21.80481,-11.062622,1,-16.784668,-13.153076,1
305,-15.914917,19.699097,1,-25.268555,16.525269,1,-17.6627101898193,7.24350595474243,1,-25.634766,-5.4626465,1,-22.445679,-11.016846,1,-17.456055,-13.137817,1
306,-16.12854,19.699097,1,-25.405884,16.662598,1,-18.0215644836426,7.20364189147949,1,-26.19934,-5.3710938,1,-22.979736,-10.940552,1,-18.051147,-13.153076,1
307,-16.235352,19.77539,1,-25.527954,16.830444,1,-18.3239364624023,7.23345947265625,1,-26.641846,-5.2490234,1,-23.590088,-10.925293,1,-18.722534,-13.153076,1
308,-16.296387,19.729614,1,-25.558472,16.87622,1,-18.4783153533936,7.18749570846558,1,-27.130127,-5.065918,1,-24.20044,-10.894775,1,-19.332886,-13.153076,1
309,-16.296387,19.699097,1,-25.604248,16.937256,1,-18.6959896087646,7.12522506713867,1,-27.60315,-4.9438477,1,-24.780273,-10.83374,1,-20.065308,-13.168335,1
310,-16.189575,19.607544,1,-25.58899,16.906738,1,-18.8081512451172,7.00622081756592,1,-28.09143,-4.776001,1,-25.405884,-10.726929,1,-20.736694,-13.092041,1
311,-16.113281,19.454956,1,-25.497437,16.799927,1,-18.8452587127686,6.81250905990601,1,-28.533936,-4.638672,1,-26.031494,-10.650635,1,-21.316528,-13.092041,1
312,-16.021729,19.226074,1,-25.497437,16.647339,1,-18.8705997467041,6.64308881759644,1,-28.961182,-4.4555664,1,-26.626587,-10.498047,1,-22.018433,-13.183594,1
313,-15.930176,18.936157,1,-25.375366,16.342163,1,-18.7616920471191,6.32920503616333,1,-29.342651,-4.3029785,1,-27.20642,-10.360718,1,-22.628784,-13.076782,1
314,-15.899658,18.676758,1,-25.375366,15.991211,1,-18.6923542022705,6.02439880371094,1,-29.769897,-4.0893555,1,-27.84729,-10.147095,1,-23.513794,-11.978149,1
315,-15.686035,18.432617,1,-25.20752,15.762329,1,-18.5509490966797,5.7778377532959,1,-30.044556,-3.8604736,1,-28.411865,-9.979248,1,-24.230957,-11.978149,1
316,-15.563965,18.234253,1,-25.100708,15.579224,1,-18.4580135345459,5.58549547195435,1,-30.303955,-3.616333,1,-28.961182,-9.796143,1,-24.978638,-11.978149,1
317,-15.335083,17.959595,1,-24.917603,15.396118,1,-18.3477783203125,5.35433483123779,1,-30.548096,-3.3721924,1,-29.510498,-9.613037,1,-25.650024,-11.947632,1
318,-15.136719,17.837524,1,-24.780273,15.304565,1,-18.1647720336914,5.29281520843506,1,-30.639648,-3.036499,1,-30.029297,-9.307861,1,-26.428223,-11.917114,1
319,-14.801025,17.715454,1,-24.536133,15.274048,1,-17.9907474517822,5.21631765365601,1,-30.731201,-2.7008057,1,-30.517578,-9.0789795,1,-27.160645,-11.901855,1
320,-14.480591,17.63916,1,-24.261475,15.335083,1,-17.9272689819336,5.14303493499756,1,-30.86853,-2.4414062,1,-30.944824,-8.834839,1,-27.70996,-11.886597,1
321,-14.160156,17.578125,1,-23.956299,15.457153,1,-17.7883968353271,5.16361284255981,1,-30.88379,-2.1514893,1,-31.311035,-8.605957,1,-28.320312,-11.84082,1
322,-13.702393,17.593384,1,-23.590088,15.609741,1,-17.6492881774902,5.18348121643066,1,-30.88379,-1.876831,1,-31.646729,-8.239746,1,-28.869629,-11.779785,1
323,-13.259888,17.63916,1,-23.162842,15.74707,1,-17.4023742675781,5.22010612487793,1,-30.807495,-1.5106201,1,-31.87561,-7.9193115,1,-29.35791,-11.71875,1
324,-12.832642,17.669678,1,-22.720337,15.899658,1,-17.1305847167969,5.28105783462524,1,-30.670166,-1.1749268,1,-32.104492,-7.507324,1,-29.708862,-11.59668,1
325,-12.34436,17.715454,1,-22.140503,16.036987,1,-16.804328918457,5.28872060775757,1,-30.50232,-0.8239746,1,-32.25708,-7.0343018,1,-30.12085,-11.444092,1
326,-11.84082,17.745972,1,-21.697998,16.082764,1,-16.4073314666748,5.31202268600464,1,-30.227661,-0.5187988,1,-32.333374,-6.6986084,1,-30.60913,-11.3220215,1
327,-11.3220215,17.868042,1,-21.16394,16.25061,1,-15.9706935882568,5.43256139755249,1,-29.922485,-0.076293945,1,-32.333374,-6.210327,1,-31.021118,-11.047363,1
328,-10.83374,18.051147,1,-20.767212,16.403198,1,-15.3539752960205,5.69353723526001,1,-29.525757,0.77819824,1,-32.089233,-5.4779053,1,-31.341553,-10.513306,1
329,-10.437012,18.295288,1,-20.233154,16.63208,1,-14.5931615829468,6.04007863998413,1,-29.067993,2.105713,1,-30.975342,-4.348755,1,-31.402588,-9.506226,1
330,-9.902954,18.615723,1,-19.851685,16.983032,1,-13.7237586975098,6.66564321517944,1,-28.35083,3.3416748,1,-28.915405,-2.8076172,1,-29.083252,-7.7819824,1
331,-9.3688965,19.042969,1,-19.241333,17.410278,1,-12.89719581604,7.22441005706787,1,-27.633667,4.425049,1,-26.550293,-1.1901855,1,-25.20752,-6.0272217,1
332,-8.926392,19.470215,1,-18.78357,17.913818,1,-12.0821781158447,7.95935487747192,1,-26.794434,5.0354004,1,-24.337769,0.2746582,1,-21.392822,-3.8909912,1
333,-8.377075,19.943237,1,-18.341064,18.447876,1,-11.1802234649658,8.81863212585449,1,-25.71106,5.0964355,1,-22.232056,1.159668,1,-18.508911,-2.243042,1
334,-7.827759,20.523071,1,-17.791748,18.997192,1,-10.1723222732544,9.7265739440918,1,-24.353027,4.837036,1,-20.27893,1.5106201,1,-16.067505,-1.1444092,1
335,-7.217407,21.057129,1,-17.242432,19.561768,1,-9.19929218292236,10.656270980835,1,-22.857666,4.4555664,1,-18.52417,1.6021729,1,-13.870239,-0.50354004,1
336,-6.5460205,21.713257,1,-16.647339,20.080566,1,-8.15935134887695,11.5979919433594,1,-21.118164,4.043579,1,-16.586304,1.4343262,1,-11.71875,-0.2593994,1
337,-5.8135986,22.277832,1,-15.975952,20.629883,1,-7.10021495819092,12.5539140701294,1,-19.302368,3.829956,1,-14.633179,1.1901855,1,-9.750366,-0.30517578,1
338,-5.1116943,22.827148,1,-15.304565,21.118164,1,-6.04212188720703,13.4888010025024,1,-17.440796,3.7384033,1,-12.741089,0.9765625,1,-7.7056885,-0.50354004,1
339,-4.3792725,23.330688,1,-14.572144,21.514893,1,-4.9074821472168,14.4019241333008,1,-15.50293,3.7841797,1,-10.879517,0.9765625,1,-5.8898926,-0.45776367,1
340,-3.692627,23.773193,1,-13.839722,21.92688,1,-4.02573966979981,15.0213899612427,1,-13.961792,3.7841797,1,-9.109497,1.0375977,1,-4.0283203,-0.24414062,1
341,-3.0212402,24.124146,1,-13.168335,22.18628,1,-3.20011234283447,15.5053691864014,1,-12.4053955,3.6621094,1,-7.461548,1.083374,1,-2.4414062,-0.076293945,1
342,-2.3651123,24.307251,1,-12.313843,22.277832,1,-2.2058629989624,15.8103170394897,1,-10.83374,3.540039,1,-5.7678223,1.083374,1,-0.6713867,0.15258789,1
343,-1.7242432,24.429321,1,-11.703491,22.216797,1,-1.42025947570801,16.0317230224609,1,-9.170532,3.189087,1,-4.043579,1.0223389,1,1.1444092,0.32043457,1
344,-1.2359619,24.44458,1,-11.108398,22.064209,1,-0.697542190551758,16.09645652771,1,-7.507324,2.7313232,1,-2.1820068,0.79345703,1,3.036499,0.2593994,1
345,-0.8087158,24.32251,1,-10.543823,21.835327,1,-0.0464859008789063,16.0210437774658,1,-6.011963,2.2583008,1,-0.50354004,0.44250488,1,4.7302246,0.030517578,1
346,-0.33569336,24.246216,1,-9.994507,21.514893,1,0.58773946762085,15.8566207885742,1,-4.6081543,1.7852783,1,0.88500977,0.045776367,1,6.1187744,-0.35095215,1
347,0.076293945,24.047852,1,-9.353638,21.1792,1,1.20910310745239,15.4845962524414,1,-3.5705566,1.2664795,1,1.9836426,-0.5340576,1,7.232666,-0.9613037,1
348,0.61035156,23.849487,1,-8.682251,20.812988,1,1.87023067474365,15.0993957519531,1,-2.6397705,0.79345703,1,2.89917,-1.159668,1,8.19397,-1.6784668,1
349,1.2054443,23.620605,1,-8.056641,20.431519,1,2.54444599151611,14.8086242675781,1,-1.7700195,0.44250488,1,3.8604736,-1.8005371,1,9.094238,-2.456665,1
350,1.7242432,23.330688,1,-7.4005127,19.989014,1,3.21187877655029,14.3874816894531,1,-0.76293945,-0.076293945,1,4.8065186,-2.380371,1,10.08606,-3.189087,1
351,2.3345947,23.025513,1,-6.744385,19.470215,1,3.87169528007507,13.875678062439,1,0.2746582,-0.6866455,1,5.935669,-3.036499,1,11.276245,-3.7384033,1
352,2.7313232,22.583008,1,-6.134033,18.829346,1,4.46272468566895,13.1982975006104,1,1.373291,-1.4801025,1,7.1411133,-3.5705566,1,12.542725,-4.119873,1
353,3.189087,22.094727,1,-5.5999756,18.081665,1,5.09927272796631,12.6478748321533,1,2.5634766,-2.1362305,1,8.331299,-4.257202,1,13.717651,-4.547119,1
354,3.5858154,21.469116,1,-5.0964355,17.318726,1,5.52615642547607,11.7365636825562,1,3.6315918,-3.1433105,1,9.399414,-5.279541,1,14.755249,-5.2490234,1
355,3.8757324,20.751953,1,-4.623413,16.433716,1,5.92574024200439,10.713981628418,1,4.5928955,-4.2266846,1,10.4522705,-6.8969727,1,15.838623,-6.881714,1
356,4.196167,19.943237,1,-4.1656494,15.411377,1,6.21657371520996,9.39394950866699,1,5.41687,-5.584717,1,11.245728,-9.002686,1,16.51001,-9.44519,1
357,4.333496,18.951416,1,-3.90625,14.205933,1,6.21865367889404,7.7649450302124,1,5.9509277,-7.232666,1,11.428833,-11.245728,1,16.75415,-12.008667,1
358,4.5928955,17.913818,1,-3.5705566,12.9852295,1,6.39685249328613,6.30310821533203,1,5.2337646,-8.651733,1,10.375977,-11.550903,1,16.098022,-12.6953125,1
359,4.7454834,16.937256,1,-3.5095215,11.978149,1,6.81759166717529,5.86662578582764,1,4.7302246,-8.987427,1,9.735107,-11.886597,1,15.457153,-12.817383,1
360,4.974365,16.311646,1,-3.5552979,11.291504,1,7.01639842987061,5.61354351043701,1,4.2266846,-9.124756,1,9.155273,-12.1154785,1,14.862061,-12.8479,1
361,4.928589,16.036987,1,-3.479004,10.925293,1,7.11511754989624,5.28928565979004,1,3.6621094,-9.307861,1,8.560181,-12.237549,1,14.251709,-12.8479,1
362,5.0201416,15.899658,1,-3.5552979,10.803223,1,6.98181104660034,5.06132984161377,1,3.0517578,-9.414673,1,7.949829,-12.268066,1,13.702393,-12.893677,1
363,4.9591064,15.930176,1,-3.6468506,10.83374,1,6.82780408859253,4.97868824005127,1,2.5024414,-9.384155,1,7.30896,-12.313843,1,13.031006,-12.893677,1
364,4.8217773,15.930176,1,-3.8146973,10.955811,1,6.53086996078491,4.87557601928711,1,1.876831,-9.384155,1,6.729126,-12.329102,1,12.359619,-12.908936,1
365,4.6081543,16.082764,1,-4.0740967,11.123657,1,6.16459465026856,4.8651294708252,1,1.2969971,-9.32312,1,6.0424805,-12.237549,1,11.764526,-12.908936,1
366,4.3640137,16.37268,1,-4.425049,11.413574,1,5.75294017791748,5.05680084228516,1,0.77819824,-9.094238,1,5.493164,-12.145996,1,11.09314,-12.893677,1
367,4.119873,16.723633,1,-4.760742,11.795044,1,5.25673389434814,5.18821716308594,1,0.1373291,-8.911133,1,4.8980713,-12.023926,1,10.482788,-12.908936,1
368,3.829956,17.120361,1,-5.0354004,12.252808,1,4.84811544418335,5.44721508026123,1,-0.39672852,-8.605957,1,4.211426,-11.947632,1,9.750366,-12.893677,1
369,3.5705566,17.425537,1,-5.279541,12.756348,1,4.44139289855957,5.72048044204712,1,-1.0070801,-8.255005,1,3.4484863,-11.550903,1,9.140015,-12.878418,1
370,3.189087,17.77649,1,-5.722046,13.183594,1,3.79701471328735,5.8769211769104,1,-1.6021729,-8.117676,1,2.8381348,-11.505127,1,8.422852,-12.863159,1
371,2.960205,18.112183,1,-6.0272217,13.549805,1,3.34873390197754,6.06038093566895,1,-2.166748,-7.888794,1,2.105713,-11.505127,1,7.797241,-12.8479,1
372,2.6245117,18.356323,1,-6.4086914,13.931274,1,2.80006122589111,6.2371940612793,1,-2.8076172,-7.675171,1,1.4343262,-11.489868,1,7.2021484,-12.8479,1
373,2.3040771,18.569946,1,-6.7749023,14.266968,1,2.22691679000854,6.33177757263184,1,-3.4484863,-7.5531006,1,0.77819824,-11.474609,1,6.5307617,-12.8479,1
374,1.8920898,18.753052,1,-7.1411133,14.511108,1,1.75749588012695,6.46034717559814,1,-4.0130615,-7.385254,1,0.21362305,-11.489868,1,5.874634,-12.878418,1
375,1.663208,18.829346,1,-7.4920654,14.724731,1,1.25135660171509,6.50569486618042,1,-4.5928955,-7.30896,1,-0.4272461,-11.459351,1,5.3100586,-12.878418,1
376,1.3885498,18.844604,1,-7.8125,14.907837,1,0.790599822998047,6.54203224182129,1,-5.1116943,-7.247925,1,-1.0986328,-11.489868,1,4.5776367,-12.893677,1
377,1.0223389,18.844604,1,-8.2092285,14.968872,1,0.326640129089355,6.53448152542114,1,-5.7678223,-7.171631,1,-1.7089844,-11.505127,1,3.8604736,-12.908936,1
378,0.76293945,18.76831,1,-8.529663,14.953613,1,-0.0334439277648926,6.47928428649902,1,-6.3171387,-7.1411133,1,-2.4261475,-11.505127,1,3.3111572,-12.924194,1
379,0.50354004,18.64624,1,-8.81958,14.968872,1,-0.447186946868897,6.37218475341797,1,-6.958008,-7.1411133,1,-3.0975342,-11.520386,1,2.5939941,-12.939453,1
380,0.18310547,18.554688,1,-9.124756,14.907837,1,-0.829600811004639,6.23659658432007,1,-7.6446533,-7.1258545,1,-3.6621094,-11.520386,1,1.9683838,-12.954712,1
381,-0.091552734,18.38684,1,-9.384155,14.816284,1,-1.11924886703491,6.11620807647705,1,-8.19397,-7.1105957,1,-4.3792725,-11.520386,1,1.373291,-12.924194,1
382,-0.38146973,18.218994,1,-9.689331,14.6484375,1,-1.3473687171936,6.02221775054932,1,-8.758545,-7.019043,1,-4.989624,-11.520386,1,0.7019043,-12.893677,1
383,-0.7019043,18.112183,1,-9.887695,14.465332,1,-1.53156185150146,5.85283708572388,1,-9.384155,-6.92749,1,-5.4779053,-11.428833,1,0.030517578,-12.8479,1
384,-0.869751,17.959595,1,-10.1623535,14.266968,1,-1.70644950866699,5.75241041183472,1,-9.933472,-6.790161,1,-6.1187744,-11.383057,1,-0.5645752,-12.496948,1
385,-1.0375977,17.8833,1,-10.284424,14.190674,1,-1.8065013885498,5.69803953170776,1,-10.406494,-6.591797,1,-6.744385,-11.276245,1,-1.3275146,-12.252808,1
386,-1.0681152,17.852783,1,-10.375977,14.11438,1,-1.89006328582764,5.62973022460938,1,-10.879517,-6.378174,1,-7.3394775,-11.230469,1,-2.166748,-12.176514,1
387,-1.1749268,17.745972,1,-10.498047,14.11438,1,-2.0938835144043,5.54874897003174,1,-11.367798,-6.2408447,1,-7.888794,-11.21521,1,-2.8686523,-12.161255,1
388,-1.1901855,17.745972,1,-10.559082,14.190674,1,-2.21115112304687,5.57023048400879,1,-11.779785,-5.9814453,1,-8.4991455,-11.138916,1,-3.5247803,-12.252808,1
389,-1.1901855,17.76123,1,-10.665894,14.328003,1,-2.43192768096924,5.59863948822022,1,-12.237549,-5.7525635,1,-9.094238,-11.0321045,1,-4.211426,-12.313843,1
390,-1.2054443,17.807007,1,-10.620117,14.49585,1,-2.490478515625,5.66924238204956,1,-12.527466,-5.4779053,1,-9.597778,-10.940552,1,-4.8675537,-12.359619,1
391,-1.0528564,17.89856,1,-10.604858,14.694214,1,-2.57673168182373,5.77517795562744,1,-12.863159,-5.142212,1,-10.08606,-10.83374,1,-5.432129,-12.4053955,1
392,-0.93078613,17.990112,1,-10.543823,14.862061,1,-2.62410259246826,5.84662818908691,1,-13.153076,-4.837036,1,-10.604858,-10.665894,1,-6.225586,-12.374878,1
393,-0.8544922,18.051147,1,-10.467529,15.136719,1,-2.72848224639893,5.96572303771973,1,-13.442993,-4.5318604,1,-11.184692,-10.513306,1,-6.8359375,-12.374878,1
394,-0.7324219,18.173218,1,-10.360718,15.365601,1,-2.76848316192627,6.07270050048828,1,-13.702393,-4.196167,1,-11.672974,-10.3302,1,-7.4920654,-12.34436,1
395,-0.62561035,18.26477,1,-10.284424,15.563965,1,-2.83738803863525,6.15430545806885,1,-13.977051,-3.8909912,1,-12.191772,-10.101318,1,-8.102417,-12.252808,1
396,-0.48828125,18.310547,1,-10.177612,15.716553,1,-2.83383750915527,6.22608518600464,1,-14.205933,-3.5552979,1,-12.72583,-9.887695,1,-8.7890625,-12.176514,1
397,-0.44250488,18.371582,1,-10.131836,15.914917,1,-2.9799165725708,6.27904319763184,1,-14.526367,-3.2958984,1,-13.244629,-9.689331,1,-9.399414,-12.1154785,1
398,-0.2746582,18.432617,1,-10.040283,16.036987,1,-3.00799655914307,6.31346225738525,1,-14.785767,-2.9754639,1,-13.73291,-9.429932,1,-10.08606,-11.978149,1
399,-0.19836426,18.4021,1,-9.872437,16.113281,1,-2.95096778869629,6.3105640411377,1,-14.99939,-2.6245117,1,-14.175415,-9.017944,1,-10.757446,-11.825562,1
400,-0.091552734,18.478394,1,-9.796143,16.220093,1,-2.88749885559082,6.40833282470703,1,-15.151978,-2.2277832,1,-14.572144,-8.666992,1,-11.352539,-11.825562,1
401,0,18.508911,1,-9.613037,16.26587,1,-2.7874116897583,6.39617729187012,1,-15.319824,-1.8463135,1,-14.984131,-8.361816,1,-11.947632,-11.749268,1
402,0.1373291,18.52417,1,-9.475708,16.26587,1,-2.67250156402588,6.38070821762085,1,-15.457153,-1.4648438,1,-15.365601,-7.9956055,1,-12.481689,-11.71875,1
403,0.2593994,18.64624,1,-9.399414,16.448975,1,-2.54429340362549,6.59974384307861,1,-15.472412,-1.0070801,1,-15.640259,-7.5683594,1,-13.015747,-11.627197,1
404,0.289917,18.829346,1,-9.246826,16.586304,1,-2.1894006729126,6.88100910186768,1,-15.380859,-0.2593994,1,-15.701294,-6.8359375,1,-13.35144,-11.459351,1
405,0.45776367,19.058228,1,-9.170532,16.784668,1,-1.76419162750244,7.34294605255127,1,-15.258789,0.79345703,1,-15.090942,-5.79834,1,-13.122559,-10.7421875,1
406,0.579834,19.317627,1,-8.987427,17.074585,1,-1.35579109191895,7.81401443481445,1,-15.090942,1.7852783,1,-13.748169,-4.348755,1,-12.191772,-9.231567,1
407,0.64086914,19.607544,1,-8.94165,17.303467,1,-0.926609039306641,8.37267017364502,1,-14.831543,2.746582,1,-12.283325,-2.6245117,1,-9.979248,-7.080078,1
408,0.8239746,19.943237,1,-8.81958,17.654419,1,-0.4813232421875,9.02461624145508,1,-14.49585,3.6773682,1,-10.940552,-0.91552734,1,-7.4768066,-4.547119,1
409,0.90026855,20.309448,1,-8.743286,17.990112,1,-0.154850006103516,9.60925483703613,1,-14.053345,3.9672852,1,-9.658813,0.2746582,1,-5.645752,-2.4719238,1
410,1.0375977,20.736694,1,-8.621216,18.432617,1,0.216042518615723,10.3145580291748,1,-13.381958,3.982544,1,-8.4991455,0.9918213,1,-4.3029785,-1.3275146,1
411,1.159668,21.148682,1,-8.4991455,18.859863,1,0.611799240112305,11.0502090454102,1,-12.451172,3.6773682,1,-7.507324,1.2207031,1,-2.9907227,-0.5950928,1
412,1.3275146,21.591187,1,-8.422852,19.27185,1,0.976844787597656,11.8122463226318,1,-11.444092,3.40271,1,-6.3323975,1.2512207,1,-1.5869141,-0.21362305,1
413,1.5106201,22.04895,1,-8.300781,19.65332,1,1.42703151702881,12.6269655227661,1,-10.131836,3.0670166,1,-4.8980713,1.1291504,1,0,0.015258789,1
414,1.6937256,22.476196,1,-8.117676,20.019531,1,1.92208957672119,13.4466228485107,1,-8.621216,2.7770996,1,-3.2806396,0.9765625,1,1.7700195,0.22888184,1
415,1.8157959,22.888184,1,-7.888794,20.309448,1,2.43065643310547,14.1849946975708,1,-7.0343018,2.5482178,1,-1.5563965,0.93078613,1,3.6315918,0.44250488,1
416,1.8463135,23.330688,1,-7.7667236,20.523071,1,2.83294105529785,14.8974933624268,1,-5.3863525,2.3498535,1,0.18310547,0.90026855,1,5.4779053,0.74768066,1
417,1.953125,23.6969,1,-7.6293945,20.67566,1,3.26304817199707,15.6403141021729,1,-3.6621094,2.3345947,1,2.0446777,0.9918213,1,7.232666,0.90026855,1
418,2.0751953,24.002075,1,-7.461548,20.751953,1,3.64599704742432,16.2107601165771,1,-1.9378662,2.2888184,1,3.753662,1.0528564,1,9.017944,1.0681152,1
419,2.0599365,24.215698,1,-7.2784424,20.751953,1,3.98573970794678,16.6145401000977,1,-0.2593994,2.2277832,1,5.584717,1.083374,1,10.772705,1.0375977,1
420,2.1209717,24.261475,1,-7.1105957,20.6604,1,4.23083925247192,16.7397041320801,1,1.2969971,2.029419,1,7.2784424,0.9613037,1,12.512207,0.9613037,1
421,2.1514893,24.276733,1,-6.8511963,20.492554,1,4.51312732696533,16.6387042999268,1,2.7770996,1.739502,1,8.880615,0.6866455,1,14.099121,0.5950928,1
422,2.1362305,24.230957,1,-6.5460205,20.248413,1,4.77870559692383,16.2797145843506,1,4.058838,1.2969971,1,10.314941,0.15258789,1,15.50293,0.10681152,1
423,2.1820068,24.032593,1,-6.2561035,19.943237,1,4.95169258117676,15.6554298400879,1,5.0964355,0.6561279,1,11.413574,-0.579834,1,16.647339,-0.579834,1
424,2.2583008,23.773193,1,-5.9509277,19.577026,1,5.13556098937988,14.9846658706665,1,5.8135986,0,1,12.268066,-1.449585,1,17.410278,-1.5106201,1
425,2.4108887,23.422241,1,-5.630493,19.104004,1,5.27927684783936,14.1063137054443,1,6.362915,-0.8544922,1,12.741089,-2.5787354,1,17.990112,-2.609253,1
426,2.5787354,22.979736,1,-5.2948,18.64624,1,5.42447376251221,13.2520608901978,1,6.6986084,-1.6937256,1,13.046265,-3.9520264,1,18.341064,-4.0893555,1
427,2.7160645,22.491455,1,-5.050659,18.096924,1,5.50616216659546,12.3913545608521,1,6.8511963,-2.5482178,1,13.092041,-5.569458,1,18.371582,-6.072998,1
428,2.8533936,21.972656,1,-4.7454834,17.578125,1,5.56996154785156,11.4469261169434,1,6.8969727,-3.4942627,1,12.832642,-7.30896,1,17.990112,-8.300781,1
429,3.112793,21.377563,1,-4.547119,16.952515,1,5.49388885498047,10.3815059661865,1,6.790161,-4.562378,1,12.283325,-9.262085,1,17.25769,-10.879517,1
430,3.2653809,20.751953,1,-4.211426,16.342163,1,5.5279426574707,9.33183479309082,1,6.3476562,-5.645752,1,11.428833,-10.681152,1,16.51001,-11.566162,1
431,3.479004,20.065308,1,-4.0893555,15.716553,1,5.56539821624756,8.59014129638672,1,5.7525635,-6.4086914,1,10.803223,-10.910034,1,16.036987,-11.59668,1
432,3.616333,19.592285,1,-4.0130615,15.258789,1,5.75729465484619,8.29171371459961,1,5.218506,-6.6986084,1,10.20813,-11.047363,1,15.426636,-11.657715,1
433,3.6468506,19.363403,1,-4.1046143,14.984131,1,5.72991514205933,8.10793685913086,1,4.623413,-6.8511963,1,9.597778,-11.123657,1,14.862061,-11.627197,1
434,3.6621094,19.14978,1,-4.211426,14.770508,1,5.61421775817871,7.88162517547607,1,4.0283203,-7.0343018,1,8.865356,-11.199951,1,14.251709,-11.688232,1
435,3.7384033,18.936157,1,-4.348755,14.572144,1,5.40450096130371,7.58114910125732,1,3.3569336,-7.2784424,1,8.19397,-11.276245,1,13.595581,-11.71875,1
436,3.768921,18.737793,1,-4.3640137,14.3585205,1,5.36461162567139,7.33329200744629,1,2.7160645,-7.4310303,1,7.522583,-11.306763,1,13.122559,-11.71875,1
437,3.768921,18.508911,1,-4.501343,14.205933,1,5.12919044494629,7.04682445526123,1,2.029419,-7.6293945,1,6.866455,-11.367798,1,12.252808,-11.71875,1
438,3.7841797,18.371582,1,-4.6081543,14.099121,1,4.90737915039063,6.78785419464111,1,1.4038086,-7.797241,1,6.1950684,-11.367798,1,11.581421,-11.734009,1
439,3.8146973,18.26477,1,-4.714966,14.11438,1,4.74218416213989,6.72774982452393,1,0.8239746,-7.751465,1,5.5236816,-11.398315,1,10.986328,-11.749268,1
440,3.8146973,18.234253,1,-4.8980713,14.190674,1,4.42841339111328,6.63973522186279,1,0.19836426,-7.751465,1,4.91333,-11.383057,1,10.314941,-11.749268,1
441,3.8146973,18.249512,1,-5.0964355,14.3585205,1,4.08636522293091,6.63348627090454,1,-0.36621094,-7.6904297,1,4.2419434,-11.352539,1,9.719849,-11.764526,1
442,3.7078857,18.38684,1,-5.3253174,14.602661,1,3.75489521026611,6.7572979927063,1,-0.93078613,-7.4920654,1,3.5705566,-11.291504,1,8.972168,-11.749268,1
443,3.479004,18.493652,1,-5.630493,14.816284,1,3.34274744987488,6.84878921508789,1,-1.4801025,-7.3547363,1,3.0212402,-11.245728,1,8.300781,-11.764526,1
444,3.250122,18.64624,1,-5.9661865,15.045166,1,2.8931040763855,6.9511570930481,1,-2.0751953,-7.2021484,1,2.380371,-11.21521,1,7.7056885,-11.764526,1
445,3.036499,18.829346,1,-6.2408447,15.289307,1,2.43920469284058,7.00336933135986,1,-2.6397705,-7.1105957,1,1.7547607,-11.199951,1,7.095337,-11.779785,1
446,2.7313232,19.012451,1,-6.6833496,15.563965,1,1.85440015792847,7.13147926330566,1,-3.250122,-6.9732666,1,1.1901855,-11.184692,1,6.42395,-11.779785,1
447,2.4414062,19.195557,1,-6.9885254,15.853882,1,1.36563205718994,7.23947143554688,1,-3.8604736,-6.8206787,1,0.50354004,-11.169434,1,5.7525635,-11.779785,1
448,2.1514893,19.39392,1,-7.247925,16.082764,1,1.01705074310303,7.38275384902954,1,-4.3945312,-6.6070557,1,-0.061035156,-11.108398,1,5.203247,-11.795044,1
449,1.8005371,19.515991,1,-7.6141357,16.204834,1,0.57199764251709,7.43059730529785,1,-4.989624,-6.500244,1,-0.7324219,-11.077881,1,4.5318604,-11.734009,1
450,1.4953613,19.683838,1,-7.965088,16.326904,1,0.112008571624756,7.45219230651856,1,-5.584717,-6.42395,1,-1.3885498,-11.0321045,1,3.8604736,-11.749268,1
451,1.1444092,19.760132,1,-8.331299,16.418457,1,-0.328338623046875,7.47683429718018,1,-6.149292,-6.3476562,1,-2.0446777,-11.062622,1,3.0822754,-11.779785,1
452,0.76293945,19.851685,1,-8.7890625,16.448975,1,-0.772820949554443,7.51925706863403,1,-6.744385,-6.2408447,1,-2.6550293,-11.001587,1,2.4108887,-11.734009,1
453,0.39672852,19.89746,1,-9.170532,16.448975,1,-1.16648435592651,7.50832605361939,1,-7.232666,-6.210327,1,-3.2653809,-11.001587,1,1.8005371,-11.764526,1
454,0.015258789,19.927979,1,-9.552002,16.448975,1,-1.57764339447021,7.48183441162109,1,-7.9040527,-6.1187744,1,-3.9215088,-10.955811,1,1.1291504,-11.779785,1
455,-0.39672852,19.927979,1,-9.902954,16.448975,1,-1.9085807800293,7.49967288970947,1,-8.422852,-6.011963,1,-4.562378,-10.955811,1,0.47302246,-11.795044,1
456,-0.79345703,19.989014,1,-10.314941,16.494751,1,-2.38005256652832,7.49266672134399,1,-9.002686,-5.9661865,1,-5.0964355,-10.925293,1,-0.12207031,-11.810303,1
457,-1.1901855,20.004272,1,-10.650635,16.555786,1,-2.75445079803467,7.51973247528076,1,-9.536743,-5.859375,1,-5.8135986,-10.910034,1,-0.7324219,-11.795044,1
458,-1.5716553,20.111084,1,-11.077881,16.647339,1,-3.26016139984131,7.5433144569397,1,-10.08606,-5.8135986,1,-6.378174,-10.879517,1,-1.449585,-11.810303,1
459,-1.9836426,20.15686,1,-11.474609,16.799927,1,-3.75918865203857,7.60904598236084,1,-10.635376,-5.722046,1,-7.003784,-10.803223,1,-2.0141602,-11.84082,1
460,-2.3651123,20.263672,1,-11.84082,16.906738,1,-4.20318222045898,7.65111923217773,1,-11.260986,-5.584717,1,-7.659912,-10.803223,1,-2.6855469,-11.825562,1
461,-2.7160645,20.385742,1,-12.10022,17.074585,1,-4.65163516998291,7.6661524772644,1,-11.795044,-5.5236816,1,-8.239746,-10.757446,1,-3.40271,-11.810303,1
462,-2.960205,20.462036,1,-12.329102,17.242432,1,-4.97473096847534,7.76017141342163,1,-12.252808,-5.355835,1,-8.850098,-10.665894,1,-3.9520264,-11.825562,1
463,-3.189087,20.477295,1,-12.435913,17.440796,1,-5.32199192047119,7.77683591842651,1,-12.786865,-5.2337646,1,-9.490967,-10.620117,1,-4.623413,-11.825562,1
464,-3.2806396,20.523071,1,-12.619019,17.608643,1,-5.63625288009644,7.84949445724487,1,-13.290405,-5.050659,1,-10.147095,-10.559082,1,-5.340576,-11.825562,1
465,-3.3721924,20.446777,1,-12.573242,17.715454,1,-5.77094650268555,7.82966756820679,1,-13.73291,-4.8828125,1,-10.681152,-10.543823,1,-5.9509277,-11.84082,1
466,-3.3874512,20.401001,1,-12.557983,17.791748,1,-5.99779033660889,7.74367141723633,1,-14.23645,-4.79126,1,-11.260986,-10.4522705,1,-6.576538,-11.825562,1
467,-3.2806396,20.29419,1,-12.542725,17.807007,1,-6.12450647354126,7.66765308380127,1,-14.678955,-4.6539307,1,-11.901855,-10.375977,1,-7.217407,-11.871338,1
468,-3.2196045,20.065308,1,-12.390137,17.730713,1,-6.07927703857422,7.52419376373291,1,-15.106201,-4.4555664,1,-12.481689,-10.3302,1,-7.888794,-11.856079,1
469,-3.0822754,19.89746,1,-12.268066,17.669678,1,-6.19082164764404,7.32235479354858,1,-15.594482,-4.3640137,1,-13.046265,-10.284424,1,-8.514404,-11.856079,1
470,-2.960205,19.65332,1,-12.191772,17.486572,1,-6.15798950195313,7.11384534835815,1,-15.975952,-4.2266846,1,-13.656616,-10.177612,1,-9.231567,-11.856079,1
471,-2.8076172,19.40918,1,-12.10022,17.227173,1,-6.09439754486084,6.83823108673096,1,-16.418457,-4.043579,1,-14.251709,-10.040283,1,-9.857178,-11.825562,1
472,-2.7923584,19.226074,1,-12.069702,16.845703,1,-5.96568584442139,6.51414966583252,1,-16.784668,-3.8757324,1,-14.862061,-9.918213,1,-10.574341,-11.779785,1
473,-2.7923584,18.951416,1,-12.10022,16.540527,1,-5.87363052368164,6.28238010406494,1,-17.089844,-3.6773682,1,-15.457153,-9.796143,1,-11.260986,-11.779785,1
474,-2.6855469,18.737793,1,-12.008667,16.204834,1,-5.7550048828125,5.96316766738892,1,-17.410278,-3.479004,1,-15.960693,-9.58252,1,-12.023926,-11.795044,1
475,-2.532959,18.569946,1,-11.947632,16.00647,1,-5.67456722259522,5.77667808532715,1,-17.654419,-3.250122,1,-16.525269,-9.3688965,1,-12.6953125,-11.779785,1
476,-2.456665,18.38684,1,-11.886597,15.823364,1,-5.54925346374512,5.63326740264893,1,-17.822266,-2.9907227,1,-17.028809,-9.216309,1,-13.366699,-11.795044,1
477,-2.3498535,18.356323,1,-11.779785,15.808105,1,-5.51790046691895,5.57146453857422,1,-17.990112,-2.7618408,1,-17.471313,-9.063721,1,-13.99231,-11.734009,1
478,-2.1209717,18.325806,1,-11.627197,15.869141,1,-5.45926952362061,5.57561445236206,1,-18.127441,-2.456665,1,-17.89856,-8.773804,1,-14.633179,-11.734009,1
479,-1.953125,18.417358,1,-11.520386,16.036987,1,-5.39855289459229,5.71598148345947,1,-18.188477,-2.1209717,1,-18.371582,-8.468628,1,-15.258789,-11.657715,1
480,-1.6937256,18.493652,1,-11.306763,16.25061,1,-5.3520040512085,5.83231544494629,1,-18.26477,-1.8005371,1,-18.737793,-8.224487,1,-15.792847,-11.611938,1
481,-1.3427734,18.569946,1,-11.016846,16.479492,1,-5.32883548736572,5.91319990158081,1,-18.371582,-1.4953613,1,-19.088745,-7.9040527,1,-16.326904,-11.520386,1
482,-1.0681152,18.661499,1,-10.772705,16.708374,1,-5.27163887023926,6.04356002807617,1,-18.38684,-1.2359619,1,-19.39392,-7.5683594,1,-16.799927,-11.428833,1
483,-0.7324219,18.76831,1,-10.406494,16.860962,1,-5.20177555084229,6.04842853546143,1,-18.463135,-0.9613037,1,-19.66858,-7.2631836,1,-17.288208,-11.33728,1
484,-0.39672852,18.89038,1,-10.147095,17.044067,1,-5.06351089477539,6.17405414581299,1,-18.38684,-0.7171631,1,-19.958496,-6.92749,1,-17.807007,-11.245728,1
485,-0.15258789,18.936157,1,-9.857178,17.196655,1,-4.91508865356445,6.26158666610718,1,-18.356323,-0.39672852,1,-20.15686,-6.6375732,1,-18.325806,-11.047363,1
486,0.16784668,19.042969,1,-9.552002,17.288208,1,-4.76845359802246,6.28286170959473,1,-18.310547,-0.16784668,1,-20.370483,-6.3171387,1,-18.76831,-10.955811,1
487,0.4272461,19.16504,1,-9.307861,17.410278,1,-4.50961685180664,6.41133117675781,1,-18.127441,0.12207031,1,-20.523071,-5.9661865,1,-19.256592,-10.7421875,1
488,0.6561279,19.28711,1,-9.124756,17.532349,1,-4.26411819458008,6.56083011627197,1,-17.959595,0.44250488,1,-20.645142,-5.6915283,1,-19.714355,-10.5896,1
489,0.90026855,19.424438,1,-8.911133,17.562866,1,-3.9285249710083,6.64620018005371,1,-17.852783,1.0681152,1,-20.6604,-5.050659,1,-20.15686,-10.177612,1
490,1.083374,19.592285,1,-8.728027,17.76123,1,-3.39671230316162,7.01055145263672,1,-17.608643,2.2125244,1,-19.927979,-4.1503906,1,-20.339966,-9.307861,1
491,1.2512207,19.77539,1,-8.560181,17.868042,1,-2.69809341430664,7.39732456207275,1,-17.181396,3.4942627,1,-18.371582,-2.7923584,1,-18.920898,-7.9040527,1
492,1.3427734,19.973755,1,-8.453369,18.051147,1,-2.07153701782227,7.88885307312012,1,-16.708374,4.6081543,1,-16.494751,-1.2054443,1,-15.914917,-6.378174,1
493,1.4343262,20.29419,1,-8.422852,18.295288,1,-1.68654155731201,8.36441993713379,1,-16.38794,5.3863525,1,-14.694214,0.15258789,1,-12.771606,-4.547119,1
494,1.5106201,20.629883,1,-8.31604,18.615723,1,-1.34844970703125,8.84573364257813,1,-16.00647,5.6610107,1,-13.137817,1.0986328,1,-10.375977,-2.9296875,1
495,1.5869141,21.011353,1,-8.255005,19.02771,1,-0.96263599395752,9.4976863861084,1,-15.426636,5.5236816,1,-11.84082,1.5869141,1,-8.544922,-1.8463135,1
496,1.6937256,21.42334,1,-8.148193,19.454956,1,-0.681486129760742,10.0608997344971,1,-14.846802,5.126953,1,-10.757446,1.6937256,1,-6.9885254,-1.3427734,1
497,1.7242432,21.865845,1,-8.026123,19.79065,1,-0.224323272705078,10.6729784011841,1,-13.977051,4.6844482,1,-9.780884,1.5106201,1,-5.7373047,-1.0986328,1
498,1.8310547,22.30835,1,-7.965088,20.217896,1,0.16563606262207,11.3922910690308,1,-13.061523,4.3182373,1,-8.743286,1.373291,1,-4.3792725,-0.91552734,1
499,1.9073486,22.781372,1,-7.9956055,20.614624,1,0.568671226501465,12.209080696106,1,-12.023926,4.058838,1,-7.4768066,1.3885498,1,-2.9907227,-0.61035156,1
500,2.090454,23.223877,1,-7.888794,21.011353,1,1.00840950012207,12.959038734436,1,-10.986328,3.9520264,1,-6.286621,1.4953613,1,-1.5563965,-0.21362305,1
501,2.1514893,23.666382,1,-7.8125,21.408081,1,1.40279197692871,13.7218351364136,1,-9.979248,3.9520264,1,-5.0201416,1.7242432,1,-0.21362305,0.2746582,1
502,2.3345947,24.06311,1,-7.6904297,21.78955,1,1.84979820251465,14.510534286499,1,-8.834839,3.982544,1,-3.829956,1.9073486,1,1.0375977,0.6561279,1
503,2.5024414,24.490356,1,-7.598877,22.140503,1,2.1974892616272,15.2100477218628,1,-7.7667236,3.9978027,1,-2.6550293,2.0599365,1,2.3040771,0.869751,1
504,2.5787354,24.887085,1,-7.3242188,22.445679,1,2.68838453292847,15.8314666748047,1,-6.6070557,4.058838,1,-1.4343262,2.1362305,1,3.5705566,1.1749268,1
505,2.6397705,25.299072,1,-7.247925,22.705078,1,3.01031589508057,16.4786434173584,1,-5.3100586,3.9978027,1,-0.10681152,2.3040771,1,5.0354004,1.4801025,1
506,2.7160645,25.634766,1,-7.0648193,22.903442,1,3.45433473587036,17.1287212371826,1,-3.90625,4.058838,1,1.3885498,2.456665,1,6.5460205,1.876831,1
507,2.8686523,25.939941,1,-6.881714,23.040771,1,3.87354850769043,17.7187099456787,1,-2.456665,4.119873,1,2.9907227,2.609253,1,8.148193,2.2583008,1
508,2.9907227,26.107788,1,-6.6375732,23.086548,1,4.29679536819458,18.1429061889648,1,-1.0681152,4.135132,1,4.562378,2.7313232,1,9.674072,2.4719238,1
509,3.0822754,26.229858,1,-6.454468,23.05603,1,4.59751796722412,18.3812408447266,1,0.289917,4.0130615,1,6.072998,2.7770996,1,11.245728,2.4871826,1
510,3.1280518,26.229858,1,-6.1798096,22.903442,1,4.94147157669067,18.3959941864014,1,1.7547607,3.7384033,1,7.5531006,2.5482178,1,12.771606,2.2277832,1
511,3.112793,26.2146,1,-5.92041,22.659302,1,5.23565483093262,18.2386455535889,1,3.1280518,3.3874512,1,9.109497,2.1362305,1,14.282227,1.739502,1
512,3.1280518,26.031494,1,-5.630493,22.354126,1,5.513512134552,17.9031524658203,1,4.3945312,2.9449463,1,10.559082,1.4953613,1,15.716553,1.0681152,1
513,3.1738281,25.848389,1,-5.432129,21.972656,1,5.62870740890503,17.3188514709473,1,5.508423,2.319336,1,11.71875,0.7324219,1,16.87622,0.24414062,1
514,3.1738281,25.58899,1,-5.203247,21.469116,1,5.75316143035889,16.5745162963867,1,6.362915,1.5869141,1,12.634277,-0.16784668,1,17.852783,-0.6713867,1
515,3.1585693,25.161743,1,-5.0201416,20.858765,1,5.85458183288574,15.7852659225464,1,7.1258545,0.8392334,1,13.473511,-1.1901855,1,18.753052,-1.6784668,1
516,3.1585693,24.673462,1,-4.8065186,20.187378,1,5.93729686737061,14.842246055603,1,7.7667236,-0.045776367,1,14.022827,-2.4719238,1,19.363403,-2.9449463,1
517,3.2196045,24.047852,1,-4.837036,19.470215,1,5.7387490272522,13.7998723983765,1,8.041382,-1.0223389,1,14.266968,-4.058838,1,19.546509,-4.6691895,1
518,3.112793,23.361206,1,-4.6691895,18.661499,1,5.73404169082642,12.6804628372192,1,8.071899,-2.1362305,1,14.099121,-5.9051514,1,19.210815,-6.9732666,1
519,3.112793,22.628784,1,-4.623413,17.852783,1,5.50982618331909,11.4249172210693,1,7.675171,-3.4179688,1,13.305664,-8.010864,1,18.356323,-9.628296,1
520,3.0670166,21.78955,1,-4.5318604,16.983032,1,5.2846474647522,10.0811357498169,1,6.9885254,-4.8217773,1,12.161255,-10.192871,1,16.830444,-11.611938,1
521,3.112793,20.889282,1,-4.5776367,16.082764,1,4.99354887008667,8.84450435638428,1,6.0424805,-6.1187744,1,11.169434,-10.848999,1,16.26587,-11.566162,1
522,3.0975342,20.03479,1,-4.5928955,15.289307,1,5.17205142974854,8.31465148925781,1,5.41687,-6.6833496,1,10.498047,-11.108398,1,15.655518,-11.566162,1
523,3.0670166,19.439697,1,-4.776001,14.663696,1,5.17765665054321,7.961106300354,1,4.8065186,-7.0343018,1,9.841919,-11.199951,1,15.106201,-11.642456,1
524,3.0059814,18.981934,1,-5.0201416,14.205933,1,5.02216815948486,7.63691329956055,1,4.180908,-7.3394775,1,9.109497,-11.291504,1,14.556885,-11.611938,1
525,2.7618408,18.661499,1,-5.3253174,13.839722,1,4.70137310028076,7.24688625335693,1,3.5095215,-7.7056885,1,8.422852,-11.367798,1,13.961792,-11.627197,1
526,2.5482178,18.218994,1,-5.706787,13.427734,1,4.31495761871338,6.82738304138184,1,2.7160645,-8.087158,1,7.7056885,-11.459351,1,13.35144,-11.642456,1
527,2.3040771,17.745972,1,-5.996704,12.9852295,1,3.9976646900177,6.34349822998047,1,1.9378662,-8.514404,1,7.095337,-11.520386,1,12.664795,-11.657715,1
528,2.0599365,17.318726,1,-6.362915,12.60376,1,3.654545545578,5.99690818786621,1,1.2207031,-8.804321,1,6.42395,-11.59668,1,12.023926,-11.657715,1
529,1.8157959,17.028809,1,-6.668091,12.359619,1,3.39322328567505,5.8197455406189,1,0.5645752,-8.911133,1,5.706787,-11.611938,1,11.33728,-11.71875,1
530,1.5716553,16.799927,1,-7.080078,12.084961,1,3.04175281524658,5.63914632797241,1,-0.076293945,-9.033203,1,5.0811768,-11.611938,1,10.665894,-11.734009,1
531,1.3275146,16.586304,1,-7.369995,11.901855,1,2.75034236907959,5.45369529724121,1,-0.7171631,-9.140015,1,4.425049,-11.566162,1,10.116577,-11.71875,1
532,1.083374,16.448975,1,-7.6904297,11.779785,1,2.43845319747925,5.34505748748779,1,-1.3427734,-9.170532,1,3.753662,-11.566162,1,9.399414,-11.749268,1
533,0.88500977,16.38794,1,-8.010864,11.749268,1,2.02870750427246,5.17606544494629,1,-1.9836426,-9.277344,1,3.0670166,-11.550903,1,8.728027,-11.734009,1
534,0.64086914,16.357422,1,-8.31604,11.795044,1,1.7086296081543,5.19913768768311,1,-2.5939941,-9.170532,1,2.3498535,-11.550903,1,8.117676,-11.734009,1
535,0.35095215,16.433716,1,-8.682251,11.932373,1,1.25081062316895,5.19929790496826,1,-3.250122,-9.109497,1,1.6937256,-11.566162,1,7.461548,-11.71875,1
536,0.061035156,16.479492,1,-8.987427,12.069702,1,0.835674285888672,5.17719221115112,1,-3.9215088,-9.048462,1,1.083374,-11.642456,1,6.8511963,-11.71875,1
537,-0.12207031,16.647339,1,-9.292603,12.298584,1,0.373933792114258,5.18816375732422,1,-4.486084,-9.002686,1,0.45776367,-11.657715,1,6.1798096,-11.749268,1
538,-0.33569336,16.76941,1,-9.58252,12.634277,1,-0.116693496704102,5.25876808166504,1,-5.0811768,-8.895874,1,-0.18310547,-11.657715,1,5.554199,-11.734009,1
539,-0.47302246,16.921997,1,-9.796143,12.939453,1,-0.515715599060059,5.33197736740112,1,-5.783081,-8.712769,1,-0.79345703,-11.642456,1,4.8980713,-11.703491,1
540,-0.6866455,17.044067,1,-10.025024,13.183594,1,-0.98562479019165,5.2912392616272,1,-6.439209,-8.682251,1,-1.5258789,-11.627197,1,4.211426,-11.657715,1
541,-0.88500977,17.181396,1,-10.269165,13.427734,1,-1.41225099563599,5.33112621307373,1,-7.0343018,-8.575439,1,-2.0751953,-11.627197,1,3.4942627,-11.642456,1
542,-1.0223389,17.303467,1,-10.498047,13.656616,1,-1.83851718902588,5.34923791885376,1,-7.675171,-8.468628,1,-2.7923584,-11.611938,1,2.822876,-11.59668,1
543,-1.2512207,17.349243,1,-10.726929,13.870239,1,-2.23782682418823,5.38878011703491,1,-8.300781,-8.331299,1,-3.40271,-11.59668,1,2.1820068,-11.611938,1
544,-1.4343262,17.486572,1,-10.925293,14.007568,1,-2.46855688095093,5.49383640289307,1,-8.804321,-8.102417,1,-4.0130615,-11.550903,1,1.4953613,-11.642456,1
545,-1.5716553,17.593384,1,-11.09314,14.23645,1,-2.82015037536621,5.54406118392944,1,-9.307861,-7.9803467,1,-4.6691895,-11.535645,1,0.88500977,-11.627197,1
546,-1.6784668,17.669678,1,-11.276245,14.450073,1,-3.1451096534729,5.6248459815979,1,-9.872437,-7.7819824,1,-5.218506,-11.505127,1,0.289917,-11.642456,1
547,-1.9073486,17.77649,1,-11.459351,14.633179,1,-3.51546049118042,5.63903522491455,1,-10.482788,-7.6446533,1,-5.8898926,-11.444092,1,-0.38146973,-11.627197,1
548,-2.0446777,17.89856,1,-11.688232,14.862061,1,-3.83586978912354,5.78789949417114,1,-10.925293,-7.4310303,1,-6.439209,-11.413574,1,-1.0375977,-11.627197,1
549,-2.3651123,18.005371,1,-11.962891,15.075684,1,-4.20533514022827,5.92033910751343,1,-11.444092,-7.217407,1,-7.0343018,-11.383057,1,-1.6937256,-11.642456,1
550,-2.5177002,18.157959,1,-12.161255,15.24353,1,-4.5763578414917,5.94464063644409,1,-11.962891,-7.1105957,1,-7.6446533,-11.306763,1,-2.319336,-11.627197,1
551,-2.7618408,18.341064,1,-12.4053955,15.472412,1,-4.92833375930786,6.08659648895264,1,-12.466431,-6.881714,1,-8.19397,-11.276245,1,-2.9296875,-11.642456,1
552,-3.0059814,18.417358,1,-12.6953125,15.670776,1,-5.31157112121582,6.21137046813965,1,-13.000488,-6.668091,1,-8.804321,-11.199951,1,-3.5858154,-11.642456,1
553,-3.2806396,18.585205,1,-12.954712,15.838623,1,-5.72961664199829,6.25749635696411,1,-13.519287,-6.5612793,1,-9.414673,-11.138916,1,-4.211426,-11.642456,1
554,-3.5858154,18.737793,1,-13.2751465,16.00647,1,-6.1325626373291,6.36367511749268,1,-14.022827,-6.3934326,1,-10.009766,-11.154175,1,-4.852295,-11.657715,1
555,-3.8452148,18.859863,1,-13.595581,16.143799,1,-6.54006624221802,6.43711519241333,1,-14.556885,-6.2408447,1,-10.620117,-11.09314,1,-5.5389404,-11.688232,1
556,-4.135132,18.936157,1,-13.900757,16.326904,1,-6.982825756073,6.52169036865234,1,-15.106201,-6.088257,1,-11.245728,-11.016846,1,-6.149292,-11.688232,1
557,-4.40979,18.997192,1,-14.144897,16.494751,1,-7.35988521575928,6.59709358215332,1,-15.625,-5.92041,1,-11.810303,-10.971069,1,-6.790161,-11.71875,1
558,-4.638672,19.042969,1,-14.3585205,16.647339,1,-7.64911603927612,6.69827365875244,1,-16.036987,-5.7373047,1,-12.435913,-10.925293,1,-7.4310303,-11.734009,1
559,-4.79126,19.16504,1,-14.511108,16.76941,1,-7.93050193786621,6.73468828201294,1,-16.51001,-5.569458,1,-12.954712,-10.894775,1,-7.965088,-11.749268,1
560,-4.974365,19.241333,1,-14.541626,16.89148,1,-8.09980773925781,6.76710510253906,1,-16.89148,-5.3863525,1,-13.565063,-10.787964,1,-8.69751,-11.749268,1
561,-5.1116943,19.332886,1,-14.61792,17.028809,1,-8.32658386230469,6.81024217605591,1,-17.349243,-5.1727295,1,-14.160156,-10.681152,1,-9.353638,-11.749268,1
562,-5.264282,19.39392,1,-14.678955,17.120361,1,-8.50596237182617,6.82987213134766,1,-17.76123,-4.974365,1,-14.755249,-10.574341,1,-9.963989,-11.764526,1
563,-5.41687,19.470215,1,-14.678955,17.318726,1,-8.7725772857666,6.87292671203613,1,-18.203735,-4.79126,1,-15.274048,-10.498047,1,-10.635376,-11.779785,1
564,-5.4779053,19.546509,1,-14.6484375,17.318726,1,-8.83638000488281,6.82015419006348,1,-18.569946,-4.5928955,1,-15.869141,-10.360718,1,-11.245728,-11.779785,1
565,-5.5236816,19.546509,1,-14.663696,17.364502,1,-8.9810791015625,6.79530811309814,1,-18.936157,-4.425049,1,-16.418457,-10.299683,1,-11.901855,-11.810303,1
566,-5.569458,19.546509,1,-14.572144,17.37976,1,-9.11327743530273,6.69328212738037,1,-19.348145,-4.272461,1,-16.983032,-10.253906,1,-12.527466,-11.886597,1
567,-5.6152344,19.515991,1,-14.572144,17.318726,1,-9.20709133148193,6.58484411239624,1,-19.699097,-4.135132,1,-17.532349,-10.1623535,1,-13.183594,-11.886597,1
568,-5.554199,19.40918,1,-14.480591,17.288208,1,-9.25976943969727,6.48343944549561,1,-20.03479,-3.9520264,1,-18.127441,-10.070801,1,-13.824463,-11.886597,1
569,-5.493164,19.256592,1,-14.373779,17.181396,1,-9.33121776580811,6.29229354858398,1,-20.401001,-3.829956,1,-18.692017,-9.918213,1,-14.465332,-11.901855,1
570,-5.4016113,19.104004,1,-14.373779,17.01355,1,-9.40999221801758,6.08831167221069,1,-20.78247,-3.692627,1,-19.27185,-9.765625,1,-15.136719,-11.825562,1
571,-5.432129,18.89038,1,-14.312744,16.708374,1,-9.38042259216309,5.76889514923096,1,-21.118164,-3.5705566,1,-19.866943,-9.628296,1,-15.792847,-11.825562,1
572,-5.4473877,18.585205,1,-14.312744,16.357422,1,-9.33831977844238,5.43702220916748,1,-21.42334,-3.4484863,1,-20.492554,-9.44519,1,-16.586304,-11.795044,1
573,-5.5236816,18.310547,1,-14.419556,15.960693,1,-9.30728816986084,5.10414123535156,1,-21.68274,-3.3721924,1,-21.011353,-9.353638,1,-17.25769,-11.734009,1
574,-5.584717,18.066406,1,-14.450073,15.731812,1,-9.32622528076172,4.88071966171265,1,-21.911621,-3.2806396,1,-21.484375,-9.140015,1,-17.929077,-11.71875,1
575,-5.554199,17.89856,1,-14.556885,15.518188,1,-9.29336833953857,4.73415517807007,1,-22.04895,-3.1585693,1,-21.911621,-8.956909,1,-18.478394,-11.688232,1
576,-5.508423,17.791748,1,-14.556885,15.350342,1,-9.363356590271,4.53242826461792,1,-22.277832,-3.0975342,1,-22.399902,-8.804321,1,-19.302368,-11.642456,1
577,-5.41687,17.684937,1,-14.419556,15.213013,1,-9.30850696563721,4.35588693618774,1,-22.445679,-2.8839111,1,-22.842407,-8.69751,1,-19.927979,-11.627197,1
578,-5.3100586,17.593384,1,-14.404297,15.197754,1,-9.32452392578125,4.32596015930176,1,-22.55249,-2.746582,1,-23.284912,-8.560181,1,-20.67566,-11.611938,1
579,-5.2490234,17.547607,1,-14.328003,15.151978,1,-9.28279113769531,4.26410150527954,1,-22.567749,-2.7008057,1,-23.620605,-8.377075,1,-21.28601,-11.550903,1
580,-5.1574707,17.471313,1,-14.266968,15.182495,1,-9.17667675018311,4.31562232971191,1,-22.521973,-2.532959,1,-24.002075,-8.178711,1,-22.003174,-11.505127,1
581,-5.0354004,17.562866,1,-14.160156,15.213013,1,-9.20553493499756,4.283616065979,1,-22.628784,-2.4108887,1,-24.383545,-7.9956055,1,-22.55249,-11.383057,1
582,-4.837036,17.608643,1,-14.022827,15.274048,1,-9.11331844329834,4.32431077957153,1,-22.628784,-2.1820068,1,-24.642944,-7.736206,1,-23.147583,-11.245728,1
583,-4.6691895,17.700195,1,-13.824463,15.380859,1,-9.03208923339844,4.37935209274292,1,-22.644043,-1.9226074,1,-24.856567,-7.4310303,1,-23.544312,-11.077881,1
584,-4.470825,17.77649,1,-13.763428,15.441895,1,-8.92122554779053,4.46222639083862,1,-22.613525,-1.663208,1,-25.054932,-7.080078,1,-23.986816,-10.894775,1
585,-4.272461,17.913818,1,-13.641357,15.609741,1,-8.82348442077637,4.61937618255615,1,-22.567749,-1.3885498,1,-25.222778,-6.713867,1,-24.44458,-10.635376,1
586,-4.135132,18.096924,1,-13.565063,15.808105,1,-8.61542415618897,4.87645149230957,1,-22.445679,-0.93078613,1,-25.32959,-6.3171387,1,-24.978638,-10.375977,1
587,-4.0130615,18.325806,1,-13.412476,15.991211,1,-8.36818408966064,5.10290908813477,1,-22.445679,-0.076293945,1,-25.146484,-5.6152344,1,-25.20752,-9.994507,1
588,-3.90625,18.447876,1,-13.290405,16.189575,1,-7.97272777557373,5.43214464187622,1,-22.369385,1.2207031,1,-24.169922,-4.4555664,1,-24.68872,-9.140015,1
589,-3.753662,18.615723,1,-13.214111,16.433716,1,-7.45225620269775,5.90751028060913,1,-22.064209,2.5177002,1,-22.888184,-2.8686523,1,-22.918701,-7.751465,1
590,-3.6468506,18.920898,1,-13.259888,16.677856,1,-7.04913806915283,6.4101128578186,1,-21.78955,3.6315918,1,-21.347046,-1.4038086,1,-20.339966,-6.1798096,1
591,-3.616333,19.195557,1,-13.092041,16.998291,1,-6.66192722320557,6.86647701263428,1,-21.438599,4.2877197,1,-19.927979,-0.289917,1,-17.868042,-4.6539307,1
592,-3.5095215,19.561768,1,-13.076782,17.39502,1,-6.43754100799561,7.39899635314941,1,-21.16394,4.547119,1,-18.722534,0.35095215,1,-15.960693,-3.5247803,1
593,-3.4332275,19.89746,1,-13.000488,17.730713,1,-6.24922943115234,7.81000328063965,1,-20.858765,4.40979,1,-17.77649,0.6713867,1,-14.312744,-2.822876,1
594,-3.250122,20.29419,1,-12.878418,18.1427,1,-6.09649658203125,8.2429256439209,1,-20.523071,4.135132,1,-16.952515,0.76293945,1,-13.168335,-2.39563,1
595,-3.1433105,20.6604,1,-12.786865,18.64624,1,-5.87452411651611,8.83708381652832,1,-20.019531,3.8452148,1,-16.235352,0.7019043,1,-12.237549,-2.090454,1
596,-2.9144287,21.133423,1,-12.741089,19.104004,1,-5.55666446685791,9.49234199523926,1,-19.40918,3.7384033,1,-15.487671,0.76293945,1,-11.291504,-1.6479492,1
597,-2.7770996,21.560669,1,-12.527466,19.65332,1,-5.14461421966553,10.1932201385498,1,-18.692017,3.753662,1,-14.6484375,1.0375977,1,-10.177612,-0.9918213,1
598,-2.5939941,22.003174,1,-12.390137,20.202637,1,-4.74179649353027,10.9558601379395,1,-17.990112,3.9215088,1,-13.778687,1.4343262,1,-9.185791,-0.33569336,1
599,-2.319336,22.476196,1,-12.145996,20.736694,1,-4.26016998291016,11.6915979385376,1,-17.288208,4.257202,1,-12.939453,1.876831,1,-8.285522,0.289917,1
600,-2.0446777,22.903442,1,-11.962891,21.255493,1,-3.81907272338867,12.4419689178467,1,-16.601562,4.5928955,1,-12.145996,2.380371,1,-7.446289,0.90026855,1
601,-1.7700195,23.330688,1,-11.71875,21.78955,1,-3.3991060256958,13.1418046951294,1,-15.960693,4.9438477,1,-11.413574,2.7923584,1,-6.652832,1.2512207,1
602,-1.4038086,23.742676,1,-11.459351,22.247314,1,-2.85696506500244,13.8807764053345,1,-15.167236,5.3100586,1,-10.681152,3.0975342,1,-5.9814453,1.5258789,1
603,-1.083374,24.108887,1,-11.154175,22.628784,1,-2.33246326446533,14.4938344955444,1,-14.297485,5.4473877,1,-9.674072,3.2348633,1,-5.065918,1.6021729,1
604,-0.76293945,24.505615,1,-10.910034,22.979736,1,-1.74887847900391,15.229043006897,1,-13.198853,5.5389404,1,-8.651733,3.2653809,1,-4.0283203,1.6326904,1
605,-0.579834,24.871826,1,-10.681152,23.254395,1,-1.25665760040283,15.8261432647705,1,-12.1154785,5.4779053,1,-7.461548,3.2653809,1,-2.822876,1.663208,1
606,-0.35095215,25.146484,1,-10.482788,23.422241,1,-0.823338508605957,16.3021965026855,1,-11.062622,5.340576,1,-6.286621,3.3111572,1,-1.4953613,1.7700195,1
607,-0.24414062,25.436401,1,-10.299683,23.498535,1,-0.371708869934082,16.7579612731934,1,-9.918213,5.1879883,1,-5.065918,3.2348633,1,-0.19836426,1.8920898,1
608,-0.15258789,25.527954,1,-10.238647,23.4375,1,-0.097142219543457,17.02268409729,1,-8.865356,4.852295,1,-3.90625,3.036499,1,0.9765625,1.8463135,1
609,-0.16784668,25.57373,1,-10.177612,23.31543,1,0.123197555541992,17.1596755981445,1,-7.827759,4.4403076,1,-2.7160645,2.6550293,1,2.1362305,1.5563965,1
610,-0.289917,25.58899,1,-10.055542,23.1781,1,0.325996398925781,17.1594924926758,1,-6.8969727,4.0130615,1,-1.7547607,2.105713,1,3.1433105,0.9918213,1
611,-0.36621094,25.497437,1,-10.055542,22.918701,1,0.337615966796875,16.9201774597168,1,-6.164551,3.40271,1,-0.90026855,1.4343262,1,3.9520264,0.21362305,1
612,-0.48828125,25.344849,1,-9.963989,22.613525,1,0.407891273498535,16.5782871246338,1,-5.432129,2.7618408,1,-0.18310547,0.61035156,1,4.7302246,-0.6713867,1
613,-0.5187988,25.177002,1,-10.1623535,22.29309,1,0.204960823059082,16.2500133514404,1,-4.7454834,2.090454,1,0.45776367,-0.19836426,1,5.2948,-1.6021729,1
614,-0.6713867,24.932861,1,-10.070801,21.942139,1,0.257736206054687,15.8330192565918,1,-4.1503906,1.4953613,1,1.083374,-0.9613037,1,6.011963,-2.5634766,1
615,-0.77819824,24.719238,1,-10.116577,21.606445,1,0.161766529083252,15.4132509231567,1,-3.5705566,0.88500977,1,1.6784668,-1.7700195,1,6.5612793,-3.4484863,1
616,-0.91552734,24.490356,1,-10.070801,21.209717,1,0.192013263702393,14.9908237457275,1,-3.0059814,0.33569336,1,2.2277832,-2.4719238,1,7.217407,-4.257202,1
617,-0.91552734,24.276733,1,-10.070801,20.828247,1,0.166680335998535,14.5677375793457,1,-2.4719238,-0.19836426,1,2.8686523,-3.0975342,1,7.7819824,-4.8828125,1
618,-1.0223389,24.017334,1,-9.94873,20.41626,1,0.296304702758789,14.168119430542,1,-1.8920898,-0.6713867,1,3.479004,-3.6468506,1,8.422852,-5.355835,1
619,-0.9765625,23.773193,1,-9.841919,20.050049,1,0.405702114105225,13.8061504364014,1,-1.2817383,-1.0986328,1,3.982544,-4.135132,1,8.987427,-5.783081,1
620,-0.9460449,23.483276,1,-9.719849,19.65332,1,0.461536407470703,13.3019895553589,1,-0.76293945,-1.6479492,1,4.5776367,-4.623413,1,9.689331,-6.0577393,1
621,-0.8544922,23.147583,1,-9.552002,19.210815,1,0.588775634765625,12.794849395752,1,-0.24414062,-2.1820068,1,5.1116943,-5.2948,1,10.238647,-6.3476562,1
622,-0.77819824,22.79663,1,-9.429932,18.753052,1,0.670594692230225,12.2739028930664,1,0.12207031,-2.7160645,1,5.3710938,-6.2408447,1,10.574341,-7.217407,1
623,-0.6713867,22.399902,1,-9.277344,18.325806,1,0.65727424621582,11.595027923584,1,0.39672852,-3.40271,1,5.4473877,-7.522583,1,10.437012,-8.81958,1
624,-0.48828125,21.957397,1,-9.048462,17.837524,1,0.629004955291748,10.7419872283936,1,0.47302246,-4.257202,1,5.2490234,-9.033203,1,10.040283,-10.864258,1
625,-0.32043457,21.42334,1,-8.880615,17.196655,1,0.553111553192139,9.78013324737549,1,0.35095215,-5.218506,1,4.5776367,-10.406494,1,8.743286,-11.749268,1
626,-0.16784668,20.751953,1,-8.712769,16.571045,1,0.550621509552002,8.94283294677734,1,-0.39672852,-6.0272217,1,3.8452148,-10.757446,1,8.544922,-11.734009,1
627,-0.076293945,20.15686,1,-8.651733,15.960693,1,0.673881053924561,8.40867900848389,1,-0.9765625,-6.500244,1,3.1738281,-11.001587,1,7.9345703,-11.795044,1
628,-0.030517578,19.65332,1,-8.651733,15.472412,1,0.728973388671875,7.98894309997559,1,-1.5563965,-6.8359375,1,2.532959,-11.09314,1,7.3242188,-12.863159,1
629,0.015258789,19.241333,1,-8.728027,15.090942,1,0.692168235778809,7.6572413444519,1,-2.1820068,-7.0648193,1,1.8615723,-11.184692,1,6.6986084,-12.893677,1
630,0,18.859863,1,-8.895874,14.755249,1,0.533330917358398,7.33297872543335,1,-2.7923584,-7.293701,1,1.1291504,-11.260986,1,6.088257,-12.893677,1
631,-0.091552734,18.493652,1,-9.0789795,14.450073,1,0.376852035522461,7.06175422668457,1,-3.4332275,-7.446289,1,0.5645752,-11.352539,1,5.508423,-12.939453,1
632,-0.16784668,18.188477,1,-9.32312,14.221191,1,0.0985674858093262,6.78938102722168,1,-4.0893555,-7.6141357,1,-0.12207031,-11.413574,1,4.837036,-12.954712,1
633,-0.38146973,17.959595,1,-9.567261,14.083862,1,-0.149053573608398,6.64764165878296,1,-4.6539307,-7.659912,1,-0.79345703,-11.444092,1,4.2266846,-12.954712,1
634,-0.5950928,17.913818,1,-9.918213,14.099121,1,-0.578783988952637,6.56419849395752,1,-5.340576,-7.659912,1,-1.3580322,-11.428833,1,3.5552979,-12.969971,1
635,-0.8392334,17.929077,1,-10.269165,14.205933,1,-0.982861995697022,6.60563087463379,1,-5.935669,-7.5531006,1,-2.0599365,-11.383057,1,2.9449463,-12.954712,1
636,-1.1749268,18.035889,1,-10.5896,14.389038,1,-1.40151643753052,6.67028713226318,1,-6.515503,-7.4310303,1,-2.6855469,-11.3220215,1,2.3345947,-12.939453,1
637,-1.4190674,18.249512,1,-10.910034,14.633179,1,-1.79871845245361,6.82395839691162,1,-7.0343018,-7.232666,1,-3.189087,-11.306763,1,1.7242432,-12.908936,1
638,-1.663208,18.432617,1,-11.245728,14.9383545,1,-2.28898954391479,6.9523138999939,1,-7.6293945,-7.0648193,1,-3.8452148,-11.260986,1,1.0070801,-12.939453,1
639,-1.9226074,18.64624,1,-11.520386,15.24353,1,-2.67800045013428,7.13105773925781,1,-8.148193,-6.8359375,1,-4.4403076,-11.199951,1,0.38146973,-12.939453,1
640,-2.243042,18.844604,1,-11.886597,15.548706,1,-3.18080806732178,7.28981637954712,1,-8.712769,-6.652832,1,-5.050659,-11.09314,1,-0.19836426,-12.969971,1
641,-2.609253,19.14978,1,-12.22229,15.823364,1,-3.62889623641968,7.44759082794189,1,-9.262085,-6.454468,1,-5.6152344,-11.047363,1,-0.8544922,-13.000488,1
642,-2.9296875,19.363403,1,-12.573242,16.067505,1,-4.05569553375244,7.61461162567139,1,-9.765625,-6.2561035,1,-6.225586,-10.955811,1,-1.5258789,-12.893677,1
643,-3.2653809,19.592285,1,-12.878418,16.357422,1,-4.53559160232544,7.73203754425049,1,-10.3302,-6.1035156,1,-6.881714,-10.910034,1,-2.2277832,-12.863159,1
