LauraSchoenhals/autogait_trial/V3Off_Levelwalk/V3Off_Mouse506_levelwalk_Run1-6DLC-JointTracking.csv
scorer,DLC_JointTracking,DLC_JointTracking,DLC_JointTracking,DLC_JointTracking,DLC_JointTracking,DLC_JointTracking,DLC_JointTracking,DLC_JointTracking,DLC_JointTracking,DLC_JointTracking,DLC_JointTracking,DLC_JointTracking,DLC_JointTracking,DLC_JointTracking,DLC_JointTracking,DLC_JointTracking,DLC_JointTracking,DLC_JointTracking
bodyparts,Crest,Crest,Crest,Hip,Hip,Hip,Knee,Knee,Knee,Ankle,Ankle,Ankle,Metatarsal,Metatarsal,Metatarsal,ToeTip,ToeTip,ToeTip
coords,x,y,likelihood,x,y,likelihood,x,y,likelihood,x,y,likelihood,x,y,likelihood,x,y,likelihood
0,-68.64929,17.120361,1,-77.85034,9.94873,1,-66.6483993530273,5.64566326141357,1,-76.919556,-6.6223145,1,-71.92993,-10.543823,1,-66.223145,-11.154175,1
1,-68.80188,17.166138,1,-77.97241,10.070801,1,-66.8274230957031,5.62228775024414,1,-77.39258,-6.3934326,1,-72.5708,-10.498047,1,-66.81824,-11.230469,1
2,-68.96973,17.227173,1,-78.125,10.192871,1,-67.0378112792969,5.60218858718872,1,-77.89612,-6.149292,1,-73.0896,-10.482788,1,-67.38281,-11.21521,1
3,-69.21387,17.318726,1,-78.29285,10.299683,1,-67.2647476196289,5.56882333755493,1,-78.3844,-5.935669,1,-73.71521,-10.4522705,1,-67.977905,-11.199951,1
4,-69.44275,17.349243,1,-78.430176,10.253906,1,-67.461784362793,5.3862099647522,1,-78.9032,-5.79834,1,-74.23401,-10.406494,1,-68.54248,-11.245728,1
5,-69.68689,17.425537,1,-78.53699,10.223389,1,-67.5882720947266,5.31161499023438,1,-79.36096,-5.5236816,1,-74.81384,-10.299683,1,-69.07654,-11.184692,1
6,-69.885254,17.532349,1,-78.65906,10.055542,1,-67.7081604003906,5.14862775802612,1,-79.80347,-5.3253174,1,-75.33264,-10.192871,1,-69.68689,-11.169434,1
7,-70.28198,17.547607,1,-78.76587,9.94873,1,-67.8338012695312,5.00000190734863,1,-80.24597,-5.0964355,1,-75.912476,-10.070801,1,-70.28198,-11.154175,1
8,-70.48035,17.578125,1,-78.826904,9.765625,1,-67.9221649169922,4.75696849822998,1,-80.703735,-4.8675537,1,-76.431274,-9.963989,1,-70.81604,-11.108398,1
9,-70.77026,17.593384,1,-78.933716,9.658813,1,-68.0393676757813,4.62758922576904,1,-81.03943,-4.699707,1,-77.01111,-9.841919,1,-71.45691,-11.09314,1
10,-71.0907,17.608643,1,-78.96423,9.44519,1,-68.0840377807617,4.38344287872314,1,-81.4209,-4.4555664,1,-77.46887,-9.735107,1,-72.006226,-11.077881,1
11,-71.395874,17.547607,1,-79.055786,9.277344,1,-68.196418762207,4.17106246948242,1,-81.78711,-4.272461,1,-77.98767,-9.613037,1,-72.58606,-11.047363,1
12,-71.624756,17.532349,1,-79.10156,9.0789795,1,-68.2761535644531,3.90110087394714,1,-82.13806,-4.0893555,1,-78.552246,-9.475708,1,-73.22693,-11.0321045,1
13,-71.8689,17.51709,1,-79.22363,8.926392,1,-68.391357421875,3.76288533210754,1,-82.458496,-3.8604736,1,-79.02527,-9.277344,1,-73.791504,-11.047363,1
14,-72.11304,17.486572,1,-79.29993,8.804321,1,-68.5004653930664,3.5725269317627,1,-82.76367,-3.6773682,1,-79.54407,-9.262085,1,-74.37134,-10.955811,1
15,-72.29614,17.471313,1,-79.40674,8.636475,1,-68.6705474853516,3.27605295181274,1,-83.1604,-3.5095215,1,-80.01709,-9.048462,1,-74.920654,-10.879517,1
16,-72.43347,17.440796,1,-79.452515,8.468628,1,-68.7666015625,3.00866198539734,1,-83.465576,-3.3111572,1,-80.52063,-8.972168,1,-75.56152,-10.787964,1
17,-72.47925,17.39502,1,-79.48303,8.361816,1,-68.8386688232422,2.82128000259399,1,-83.70972,-3.0822754,1,-81.00891,-8.895874,1,-76.14136,-10.787964,1
18,-72.47925,17.37976,1,-79.51355,8.300781,1,-68.9786758422852,2.55478286743164,1,-84.01489,-2.9144287,1,-81.466675,-8.773804,1,-76.675415,-10.7421875,1
19,-72.49451,17.37976,1,-79.6051,8.270264,1,-69.1489486694336,2.38222980499268,1,-84.32007,-2.7008057,1,-81.9397,-8.682251,1,-77.27051,-10.681152,1
20,-72.54028,17.37976,1,-79.696655,8.453369,1,-69.3253021240234,2.41721630096436,1,-84.57947,-2.4108887,1,-82.44324,-8.514404,1,-77.59094,-10.5896,1
21,-72.60132,17.562866,1,-79.8645,8.636475,1,-69.591178894043,2.43495178222656,1,-84.91516,-2.166748,1,-82.962036,-8.453369,1,-78.52173,-10.71167,1
22,-72.5708,17.63916,1,-79.940796,8.972168,1,-69.773681640625,2.59801483154297,1,-85.14404,-1.8463135,1,-83.38928,-8.300781,1,-79.0863,-10.635376,1
23,-72.47925,17.77649,1,-80.03235,9.216309,1,-69.9058380126953,2.77784538269043,1,-85.31189,-1.5411377,1,-83.83179,-8.102417,1,-79.711914,-10.650635,1
24,-72.265625,17.929077,1,-80.06287,9.460449,1,-70.0543594360352,2.84005117416382,1,-85.510254,-1.2969971,1,-84.228516,-7.9803467,1,-80.322266,-10.5896,1
25,-72.006226,18.02063,1,-80.01709,9.750366,1,-70.1127395629883,2.97513008117676,1,-85.617065,-0.9765625,1,-84.65576,-7.7667236,1,-80.85632,-10.543823,1
26,-71.77734,18.005371,1,-79.91028,10.025024,1,-70.1382751464844,3.06026124954224,1,-85.69336,-0.6866455,1,-85.006714,-7.6141357,1,-81.466675,-10.498047,1
27,-71.44165,17.990112,1,-79.75769,10.223389,1,-70.1449203491211,3.04044246673584,1,-85.754395,-0.47302246,1,-85.4187,-7.537842,1,-82.03125,-10.467529,1
28,-70.98389,17.89856,1,-79.52881,10.284424,1,-70.0500946044922,2.9254846572876,1,-85.739136,-0.21362305,1,-85.80017,-7.385254,1,-82.50427,-10.437012,1
29,-70.54138,17.730713,1,-79.330444,10.360718,1,-69.8654479980469,2.98414039611816,1,-85.60181,0.091552734,1,-86.120605,-7.095337,1,-83.06885,-10.345459,1
30,-70.14465,17.63916,1,-79.055786,10.3302,1,-69.6380462646484,2.89338779449463,1,-85.44922,0.44250488,1,-86.39526,-6.8969727,1,-83.54187,-10.299683,1
31,-69.80896,17.501831,1,-78.826904,10.345459,1,-69.2867050170898,3.06640815734863,1,-85.128784,0.8239746,1,-86.59363,-6.591797,1,-83.96912,-10.253906,1
32,-69.610596,17.486572,1,-78.62854,10.375977,1,-69.0231323242188,3.18318891525269,1,-84.91516,1.3275146,1,-86.85303,-6.3171387,1,-84.487915,-10.055542,1
33,-69.5343,17.486572,1,-78.430176,10.437012,1,-68.8066253662109,3.26851511001587,1,-84.747314,1.8920898,1,-87.005615,-5.9051514,1,-84.82361,-9.902954,1
34,-69.45801,17.623901,1,-78.445435,10.665894,1,-68.8134994506836,3.50867223739624,1,-84.79309,2.7008057,1,-87.09717,-5.3253174,1,-85.02197,-9.613037,1
35,-69.381714,17.822266,1,-78.46069,10.971069,1,-68.8105926513672,3.83836126327515,1,-84.80835,3.5705566,1,-86.48682,-4.547119,1,-84.39636,-8.926392,1
36,-69.39697,18.005371,1,-78.567505,11.383057,1,-68.8855819702148,4.29359483718872,1,-84.88464,4.119873,1,-84.51843,-3.5858154,1,-82.855225,-8.300781,1
37,-69.45801,18.188477,1,-78.65906,11.413574,1,-68.8199996948242,4.54386520385742,1,-84.79309,3.616333,1,-82.26013,-3.2348633,1,-79.98657,-7.6293945,1
38,-69.59534,18.341064,1,-78.76587,11.367798,1,-68.4484329223633,5.23994970321655,1,-84.28955,2.9907227,1,-80.74951,-3.40271,1,-77.37732,-6.958008,1
39,-69.82422,18.569946,1,-78.87268,11.245728,1,-68.0839538574219,5.9918360710144,1,-83.66394,2.3498535,1,-79.3457,-3.540039,1,-75.74463,-6.2713623,1
40,-70.06836,18.829346,1,-78.948975,11.09314,1,-67.7871856689453,6.68694543838501,1,-82.91626,1.4801025,1,-77.89612,-3.5552979,1,-73.97461,-5.783081,1
41,-70.46509,19.042969,1,-79.01001,10.818481,1,-67.545051574707,7.27520513534546,1,-81.9397,0.289917,1,-76.15662,-3.9215088,1,-71.77734,-5.340576,1
42,-70.78552,19.332886,1,-79.071045,10.665894,1,-67.3897399902344,7.91871547698975,1,-80.62744,-1.0681152,1,-74.3103,-4.3792725,1,-69.64111,-5.065918,1
43,-71.0907,19.546509,1,-79.11682,10.391235,1,-67.2726745605469,8.46348571777344,1,-79.1626,-2.243042,1,-72.509766,-4.714966,1,-67.64221,-4.7454834,1
44,-71.47217,19.79065,1,-79.193115,10.223389,1,-67.2633209228516,8.92718601226807,1,-77.71301,-3.189087,1,-70.892334,-4.928589,1,-65.94849,-4.40979,1
45,-71.82312,19.89746,1,-79.330444,10.131836,1,-67.3661193847656,9.20731735229492,1,-76.40076,-3.9978027,1,-69.47327,-5.004883,1,-64.55994,-4.1656494,1
46,-72.15881,20.019531,1,-79.52881,9.994507,1,-67.5370788574219,9.54911804199219,1,-75.302124,-4.4403076,1,-68.42041,-5.126953,1,-63.40027,-4.043579,1
47,-72.43347,20.187378,1,-79.65088,10.070801,1,-67.6559219360352,9.72303199768066,1,-74.35608,-4.8065186,1,-67.56592,-5.1727295,1,-62.5,-4.0283203,1
48,-72.631836,20.370483,1,-79.818726,10.131836,1,-67.8197860717773,9.97231674194336,1,-73.6084,-4.9438477,1,-66.80298,-5.2337646,1,-61.813354,-3.9520264,1
49,-72.769165,20.599365,1,-79.84924,10.345459,1,-67.8497467041016,10.2360496520996,1,-72.906494,-4.9438477,1,-66.13159,-5.0964355,1,-61.172485,-3.753662,1
50,-72.906494,20.9198,1,-79.940796,10.513306,1,-67.9421157836914,10.6915588378906,1,-72.20459,-4.7302246,1,-65.460205,-5.0201416,1,-60.409546,-3.5247803,1
51,-72.87598,21.224976,1,-79.89502,10.787964,1,-67.8970031738281,11.0060482025146,1,-71.45691,-4.5928955,1,-64.68201,-4.8065186,1,-59.646606,-3.326416,1
52,-72.906494,21.591187,1,-79.87976,11.047363,1,-67.8833847045898,11.3422222137451,1,-70.60242,-4.425049,1,-63.720703,-4.3945312,1,-58.73108,-2.9449463,1
53,-72.891235,21.911621,1,-79.78821,11.398315,1,-67.7960205078125,11.8311967849731,1,-69.5343,-4.0740967,1,-62.74414,-4.1046143,1,-57.800293,-2.4871826,1
54,-72.79968,22.232056,1,-79.74243,11.657715,1,-67.7539825439453,12.1840162277222,1,-68.481445,-3.7994385,1,-61.553955,-3.6621094,1,-56.655884,-2.090454,1
55,-72.8302,22.506714,1,-79.6051,11.84082,1,-67.6217041015625,12.4718074798584,1,-67.29126,-3.5247803,1,-60.34851,-3.40271,1,-55.43518,-1.8005371,1
56,-72.769165,22.67456,1,-79.51355,12.023926,1,-67.5277328491211,12.6070919036865,1,-66.07056,-3.326416,1,-58.914185,-3.189087,1,-54.031372,-1.7700195,1
57,-72.784424,22.766113,1,-79.437256,12.130737,1,-67.4461822509766,12.5935115814209,1,-64.91089,-3.2043457,1,-57.678223,-3.1585693,1,-52.65808,-1.8310547,1
58,-72.67761,22.827148,1,-79.3457,12.191772,1,-67.3507690429688,12.5402460098267,1,-63.827515,-3.0670166,1,-56.365967,-3.2806396,1,-51.26953,-2.1209717,1
59,-72.72339,22.750854,1,-79.22363,12.130737,1,-67.2267150878906,12.402961730957,1,-62.973022,-3.0212402,1,-55.252075,-3.540039,1,-50.04883,-2.4871826,1
60,-72.784424,22.705078,1,-79.17786,12.084961,1,-67.1779022216797,12.0506620407105,1,-62.210083,-3.1585693,1,-54.30603,-3.8452148,1,-48.965454,-3.0212402,1
61,-72.84546,22.445679,1,-79.22363,11.947632,1,-67.2255783081055,11.7317428588867,1,-61.691284,-3.2806396,1,-53.588867,-4.2877197,1,-48.202515,-3.6773682,1
62,-72.891235,22.232056,1,-79.23889,11.71875,1,-67.2468872070313,11.2808685302734,1,-61.37085,-3.6010742,1,-53.146362,-4.9438477,1,-47.531128,-4.5776367,1
63,-73.028564,21.865845,1,-79.29993,11.398315,1,-67.3230361938477,10.6538248062134,1,-61.035156,-4.058838,1,-52.78015,-5.8898926,1,-46.98181,-5.8135986,1
64,-73.22693,21.408081,1,-79.37622,10.971069,1,-67.4181594848633,9.96869373321533,1,-60.821533,-4.6081543,1,-52.505493,-6.9122314,1,-46.432495,-7.0648193,1
65,-73.48633,20.950317,1,-79.46777,10.391235,1,-67.5248641967773,9.22211647033691,1,-60.699463,-5.2490234,1,-52.352905,-8.071899,1,-46.188354,-8.514404,1
66,-73.68469,20.324707,1,-79.51355,9.872437,1,-67.6022338867188,8.41621589660645,1,-60.62317,-5.9814453,1,-52.39868,-9.3688965,1,-46.11206,-10.116577,1
67,-73.83728,19.729614,1,-79.58984,9.216309,1,-67.7031097412109,7.57141494750977,1,-60.775757,-6.8511963,1,-52.6886,-10.269165,1,-46.310425,-11.367798,1
68,-74.020386,19.104004,1,-79.74243,8.575439,1,-67.8885498046875,6.70852327346802,1,-61.203003,-7.827759,1,-53.268433,-11.0321045,1,-46.936035,-11.33728,1
69,-74.157715,18.38684,1,-79.940796,7.949829,1,-68.0934143066406,6.04209709167481,1,-61.691284,-8.621216,1,-54.000854,-11.108398,1,-47.592163,-11.474609,1
70,-74.295044,17.791748,1,-80.13916,7.293701,1,-68.2305908203125,5.81519174575806,1,-62.194824,-9.002686,1,-54.595947,-11.016846,1,-48.12622,-11.428833,1
71,-74.539185,17.303467,1,-80.3833,6.80542,1,-68.434326171875,5.69995975494385,1,-62.60681,-9.20105,1,-55.145264,-10.971069,1,-48.66028,-11.367798,1
72,-74.85962,16.952515,1,-80.67322,6.500244,1,-68.6966857910156,5.75011968612671,1,-63.079834,-9.231567,1,-55.664062,-10.971069,1,-49.240112,-11.306763,1
73,-75.10376,16.708374,1,-80.947876,6.2713623,1,-68.9591598510742,5.75108861923218,1,-63.552856,-9.307861,1,-56.243896,-10.940552,1,-49.77417,-11.291504,1
74,-75.21057,16.601562,1,-81.1615,6.2408447,1,-69.1679153442383,5.84852933883667,1,-64.04114,-9.307861,1,-56.80847,-10.940552,1,-50.39978,-11.230469,1
75,-75.25635,16.586304,1,-81.31409,6.2713623,1,-69.3187255859375,5.93754529953003,1,-64.55994,-9.338379,1,-57.34253,-10.940552,1,-50.872803,-11.276245,1
76,-75.25635,16.601562,1,-81.466675,6.42395,1,-69.4711303710938,6.09702682495117,1,-65.093994,-9.292603,1,-57.96814,-10.971069,1,-51.498413,-11.3220215,1
77,-75.149536,16.723633,1,-81.55823,6.6223145,1,-69.5632019042969,6.27660846710205,1,-65.56702,-9.216309,1,-58.547974,-10.971069,1,-52.093506,-11.306763,1
78,-75.164795,16.906738,1,-81.6803,6.92749,1,-69.6928482055664,6.37883758544922,1,-66.11633,-9.216309,1,-59.158325,-11.016846,1,-52.703857,-11.33728,1
79,-74.99695,17.089844,1,-81.74133,7.156372,1,-69.7544479370117,6.59549856185913,1,-66.69617,-9.109497,1,-59.783936,-11.062622,1,-53.28369,-11.260986,1
80,-74.84436,17.25769,1,-81.78711,7.4768066,1,-69.8132095336914,6.68578577041626,1,-67.16919,-9.094238,1,-60.333252,-11.047363,1,-53.848267,-11.260986,1
81,-74.73755,17.410278,1,-81.832886,7.6904297,1,-69.8669204711914,6.78721761703491,1,-67.68799,-9.063721,1,-60.97412,-11.062622,1,-54.45862,-11.260986,1
82,-74.661255,17.471313,1,-81.8634,7.873535,1,-69.9057846069336,6.86590003967285,1,-68.25256,-9.048462,1,-61.50818,-11.047363,1,-55.023193,-11.33728,1
83,-74.58496,17.547607,1,-81.89392,8.041382,1,-69.9463043212891,6.92132139205933,1,-68.740845,-9.033203,1,-62.149048,-11.108398,1,-55.648804,-11.276245,1
84,-74.3866,17.501831,1,-81.81763,8.148193,1,-69.8753128051758,6.97296285629272,1,-69.33594,-9.017944,1,-62.7594,-11.138916,1,-56.19812,-11.291504,1
85,-74.24927,17.410278,1,-81.75659,8.117676,1,-69.8119354248047,6.96646022796631,1,-69.91577,-9.033203,1,-63.354492,-11.169434,1,-56.869507,-11.245728,1
86,-73.913574,17.27295,1,-81.54297,8.071899,1,-69.6007232666016,6.8959755897522,1,-70.495605,-9.0789795,1,-63.919067,-11.245728,1,-57.388306,-11.245728,1
87,-73.68469,17.211914,1,-81.39038,7.965088,1,-69.4326934814453,6.95828771591187,1,-70.92285,-8.972168,1,-64.575195,-11.230469,1,-58.029175,-11.276245,1
88,-73.410034,17.166138,1,-81.14624,7.9956055,1,-69.1944122314453,6.92143487930298,1,-71.395874,-8.926392,1,-65.13977,-11.276245,1,-58.59375,-11.245728,1
89,-73.04382,17.059326,1,-80.947876,7.9193115,1,-69.0026092529297,6.77452611923218,1,-71.83838,-8.972168,1,-65.719604,-11.154175,1,-59.188843,-11.306763,1
90,-72.67761,16.75415,1,-80.65796,7.751465,1,-68.7055053710938,6.68427419662476,1,-72.28088,-8.911133,1,-66.3147,-11.260986,1,-59.73816,-11.291504,1
91,-72.32666,16.601562,1,-80.42908,7.7056885,1,-68.480598449707,6.59496307373047,1,-72.769165,-8.81958,1,-66.78772,-11.276245,1,-60.272217,-11.245728,1
92,-71.99097,16.433716,1,-80.18494,7.7209473,1,-68.2618408203125,6.36455774307251,1,-73.16589,-8.865356,1,-67.352295,-11.276245,1,-60.86731,-11.291504,1
93,-71.640015,16.311646,1,-80.01709,7.7209473,1,-68.1174011230469,6.17259073257446,1,-73.62366,-8.850098,1,-67.90161,-11.154175,1,-61.431885,-11.245728,1
94,-71.31958,16.159058,1,-79.818726,7.675171,1,-67.9476165771484,5.92112350463867,1,-74.09668,-8.850098,1,-68.52722,-11.199951,1,-61.965942,-11.230469,1
95,-71.02966,15.945435,1,-79.6051,7.675171,1,-67.7720031738281,5.68074798583984,1,-74.60022,-8.7890625,1,-69.03076,-11.077881,1,-62.545776,-11.199951,1
96,-70.81604,15.853882,1,-79.452515,7.6293945,1,-67.6385345458984,5.52468299865723,1,-75.027466,-8.666992,1,-69.503784,-11.016846,1,-63.095093,-11.245728,1
97,-70.54138,15.686035,1,-79.29993,7.7209473,1,-67.5361938476563,5.3514404296875,1,-75.546265,-8.4991455,1,-70.03784,-10.864258,1,-63.659668,-11.230469,1
98,-70.40405,15.655518,1,-79.193115,7.827759,1,-67.491081237793,5.17023944854736,1,-76.00403,-8.377075,1,-70.54138,-10.818481,1,-64.27002,-11.291504,1
99,-70.251465,15.640259,1,-79.13208,8.010864,1,-67.4971466064453,5.07346677780151,1,-76.50757,-8.148193,1,-71.121216,-10.726929,1,-64.80408,-11.291504,1
100,-70.20569,15.670776,1,-79.11682,8.102417,1,-67.5463027954102,4.9207181930542,1,-77.07214,-7.9345703,1,-71.624756,-10.696411,1,-65.38391,-11.276245,1
101,-70.3125,15.762329,1,-79.1626,8.270264,1,-67.6368103027344,4.93018436431885,1,-77.52991,-7.6446533,1,-72.20459,-10.5896,1,-65.979004,-11.276245,1
102,-70.52612,15.792847,1,-79.26941,8.346558,1,-67.7808837890625,4.88047027587891,1,-78.01819,-7.4157715,1,-72.70813,-10.574341,1,-66.4978,-11.291504,1
103,-70.72449,15.838623,1,-79.39148,8.346558,1,-67.9128799438477,4.84774541854858,1,-78.49121,-7.156372,1,-73.25745,-10.528564,1,-67.12341,-11.33728,1
104,-70.95337,15.945435,1,-79.51355,8.43811,1,-68.0927581787109,4.75498199462891,1,-79.02527,-6.92749,1,-73.80676,-10.482788,1,-67.68799,-11.306763,1
105,-71.16699,15.930176,1,-79.58984,8.377075,1,-68.1847076416016,4.6457257270813,1,-79.48303,-6.6833496,1,-74.3866,-10.482788,1,-68.26782,-11.383057,1
106,-71.41113,15.945435,1,-79.711914,8.31604,1,-68.3317184448242,4.50932121276856,1,-79.956055,-6.4849854,1,-74.99695,-10.467529,1,-68.89343,-11.383057,1
107,-71.65527,15.930176,1,-79.833984,8.19397,1,-68.4668731689453,4.34836053848267,1,-80.47485,-6.225586,1,-75.546265,-10.406494,1,-69.44275,-11.413574,1
108,-71.82312,15.945435,1,-79.940796,8.026123,1,-68.6177597045898,4.05261182785034,1,-80.99365,-6.088257,1,-76.11084,-10.3302,1,-69.992065,-11.383057,1
109,-71.99097,15.884399,1,-80.00183,7.8430176,1,-68.7013244628906,3.8058660030365,1,-81.40564,-5.92041,1,-76.690674,-10.238647,1,-70.64819,-11.383057,1
110,-72.265625,15.899658,1,-80.03235,7.7056885,1,-68.7637329101563,3.58036088943481,1,-81.87866,-5.584717,1,-77.23999,-10.177612,1,-71.21277,-11.33728,1
111,-72.46399,15.899658,1,-80.1239,7.522583,1,-68.8558197021484,3.39580488204956,1,-82.26013,-5.340576,1,-77.819824,-10.040283,1,-71.82312,-11.413574,1
112,-72.66235,15.838623,1,-80.1239,7.461548,1,-68.9452514648437,3.09831666946411,1,-82.68738,-5.0964355,1,-78.323364,-9.94873,1,-72.35718,-11.367798,1
113,-72.81494,15.838623,1,-80.13916,7.293701,1,-68.9775390625,2.88709282875061,1,-83.02307,-4.776001,1,-78.85742,-9.887695,1,-72.93701,-11.3220215,1
114,-72.93701,15.869141,1,-80.23071,7.2631836,1,-69.1287231445313,2.70842504501343,1,-83.40454,-4.5166016,1,-79.437256,-9.719849,1,-73.516846,-11.306763,1
115,-73.07434,15.930176,1,-80.24597,7.217407,1,-69.2252731323242,2.46933960914612,1,-83.77075,-4.196167,1,-79.956055,-9.552002,1,-74.06616,-11.230469,1
116,-73.10486,15.960693,1,-80.29175,7.217407,1,-69.3368377685547,2.31944751739502,1,-84.07593,-3.90625,1,-80.47485,-9.429932,1,-74.661255,-11.123657,1
117,-73.07434,15.991211,1,-80.200195,7.217407,1,-69.3502960205078,2.09103155136108,1,-84.27429,-3.6773682,1,-80.947876,-9.246826,1,-75.25635,-11.108398,1
118,-72.96753,15.975952,1,-80.1239,7.217407,1,-69.3387069702149,1.95626831054688,1,-84.4574,-3.2806396,1,-81.39038,-9.0789795,1,-75.805664,-11.0321045,1
119,-72.92175,16.189575,1,-80.078125,7.30896,1,-69.4251937866211,1.78492116928101,1,-84.68628,-3.0212402,1,-81.81763,-8.926392,1,-76.46179,-11.001587,1
120,-72.81494,16.37268,1,-80.04761,7.522583,1,-69.4943389892578,1.81044387817383,1,-84.854126,-2.670288,1,-82.24487,-8.7890625,1,-77.041626,-10.925293,1
121,-72.60132,16.601562,1,-79.98657,7.8125,1,-69.5665435791016,1.86077690124512,1,-85.006714,-2.3345947,1,-82.733154,-8.636475,1,-77.57568,-10.894775,1
122,-72.37244,16.860962,1,-79.91028,8.132935,1,-69.6539001464844,1.9034218788147,1,-85.17456,-1.9836426,1,-83.099365,-8.453369,1,-78.15552,-10.83374,1
123,-72.128296,17.150879,1,-79.87976,8.575439,1,-69.7514495849609,2.13981771469116,1,-85.29663,-1.6479492,1,-83.49609,-8.31604,1,-78.76587,-10.787964,1
124,-71.7926,17.471313,1,-79.75769,9.140015,1,-69.7986145019531,2.44547748565674,1,-85.372925,-1.2207031,1,-83.9386,-8.087158,1,-79.3457,-10.7421875,1
125,-71.47217,17.807007,1,-79.66614,9.567261,1,-69.8369598388672,2.68341684341431,1,-85.43396,-0.88500977,1,-84.33533,-7.888794,1,-80.04761,-10.665894,1
126,-71.136475,18.035889,1,-79.48303,10.055542,1,-69.7855224609375,2.98742437362671,1,-85.40344,-0.48828125,1,-84.68628,-7.6141357,1,-80.56641,-10.620117,1
127,-70.67871,18.249512,1,-79.26941,10.498047,1,-69.6899185180664,3.27078342437744,1,-85.34241,-0.045776367,1,-84.96094,-7.2784424,1,-81.100464,-10.437012,1
128,-70.15991,18.478394,1,-78.99475,10.955811,1,-69.4893798828125,3.63134098052979,1,-85.17456,0.47302246,1,-85.14404,-6.713867,1,-81.54297,-10.192871,1
129,-69.732666,18.753052,1,-78.62854,11.276245,1,-69.0407638549805,4.05997753143311,1,-84.80835,1.3427734,1,-85.02197,-5.9509277,1,-81.726074,-9.82666,1
130,-69.2749,19.073486,1,-78.186035,11.688232,1,-68.2771606445313,4.9196081161499,1,-84.09119,2.4871826,1,-83.43506,-4.837036,1,-80.85632,-9.170532,1
131,-68.84766,19.40918,1,-77.75879,12.145996,1,-67.3159027099609,6.23447036743164,1,-82.977295,2.960205,1,-79.98657,-3.4332275,1,-77.6062,-7.7667236,1
132,-68.46619,19.851685,1,-77.27051,12.374878,1,-66.3808975219727,7.33341932296753,1,-81.69556,2.7008057,1,-77.178955,-2.4871826,1,-73.0896,-6.30188,1
133,-68.16101,20.355225,1,-76.85852,12.374878,1,-65.6090545654297,8.19761371612549,1,-80.49011,2.319336,1,-75.10376,-2.1972656,1,-70.129395,-4.623413,1
134,-67.96265,20.690918,1,-76.59912,12.451172,1,-65.096321105957,9.03275203704834,1,-79.37622,1.8157959,1,-73.532104,-1.8463135,1,-68.95447,-3.90625,1
135,-67.87109,21.072388,1,-76.3855,12.496948,1,-64.7015991210938,9.76080513000488,1,-78.23181,1.2207031,1,-72.128296,-1.7700195,1,-67.52014,-3.3569336,1
136,-67.91687,21.362305,1,-76.40076,12.496948,1,-64.5512924194336,10.6021566390991,1,-77.01111,0.5645752,1,-70.58716,-1.9226074,1,-65.78064,-2.7160645,1
137,-68.02368,21.621704,1,-76.40076,12.573242,1,-64.4695816040039,11.2898435592651,1,-75.912476,0.10681152,1,-69.122314,-1.9226074,1,-64.25476,-2.2277832,1
138,-68.17627,21.80481,1,-76.553345,12.619019,1,-64.5940399169922,11.6314945220947,1,-74.76807,-0.7171631,1,-68.00842,-2.0141602,1,-63.049316,-2.0141602,1
139,-68.481445,21.881104,1,-76.70593,12.573242,1,-64.7241287231445,11.9127311706543,1,-74.035645,-1.0986328,1,-67.276,-2.1972656,1,-62.22534,-2.029419,1
140,-68.64929,21.881104,1,-76.84326,12.451172,1,-64.850715637207,12.0282878875732,1,-73.42529,-1.4801025,1,-66.5741,-2.3651123,1,-61.63025,-2.0599365,1
141,-68.89343,21.881104,1,-76.99585,12.359619,1,-64.9993515014648,12.0698623657227,1,-72.92175,-1.8310547,1,-66.101074,-2.6245117,1,-61.065674,-2.105713,1
142,-69.107056,21.850586,1,-77.1637,12.207031,1,-65.1640853881836,12.1099901199341,1,-72.32666,-2.1972656,1,-65.52124,-2.8839111,1,-60.47058,-2.2277832,1
143,-69.3512,21.759033,1,-77.20947,12.023926,1,-65.20947265625,12.021445274353,1,-71.68579,-2.609253,1,-64.834595,-3.0517578,1,-59.753418,-2.1820068,1
144,-69.610596,21.652222,1,-77.33154,11.764526,1,-65.3329391479492,11.9476203918457,1,-70.98389,-3.0212402,1,-64.10217,-3.250122,1,-59.066772,-2.1820068,1
145,-69.732666,21.575928,1,-77.3468,11.505127,1,-65.351448059082,11.8388423919678,1,-70.26672,-3.3874512,1,-63.36975,-3.40271,1,-58.34961,-2.1820068,1
146,-69.869995,21.438599,1,-77.40784,11.230469,1,-65.4192962646484,11.754753112793,1,-69.47327,-3.7231445,1,-62.591553,-3.692627,1,-57.58667,-2.380371,1
147,-70.08362,21.240234,1,-77.423096,10.986328,1,-65.4407653808594,11.6372308731079,1,-68.69507,-4.0283203,1,-61.782837,-3.8909912,1,-56.777954,-2.4261475,1
148,-70.15991,21.133423,1,-77.3468,10.7421875,1,-65.3710861206055,11.505298614502,1,-67.840576,-4.3029785,1,-60.897827,-3.9978027,1,-55.877686,-2.5024414,1
149,-70.32776,20.980835,1,-77.301025,10.498047,1,-65.3310089111328,11.3457851409912,1,-66.89453,-4.5776367,1,-59.9823,-4.135132,1,-54.91638,-2.5024414,1
150,-70.373535,20.858765,1,-77.23999,10.223389,1,-65.2850723266602,11.2625637054443,1,-65.76538,-4.7302246,1,-58.807373,-4.257202,1,-53.78723,-2.5787354,1
151,-70.46509,20.736694,1,-77.13318,10.055542,1,-65.1718139648438,11.0176620483398,1,-64.66675,-4.974365,1,-57.69348,-4.3792725,1,-52.612305,-2.670288,1
152,-70.52612,20.568848,1,-77.01111,9.719849,1,-65.0630645751953,10.8353443145752,1,-63.430786,-5.0811768,1,-56.427002,-4.5776367,1,-51.315308,-2.89917,1
153,-70.632935,20.41626,1,-76.88904,9.475708,1,-64.9456634521484,10.6400957107544,1,-62.22534,-5.126953,1,-55.007935,-4.6844482,1,-49.942017,-3.189087,1
154,-70.64819,20.187378,1,-76.828,9.20105,1,-64.8810043334961,10.3276691436768,1,-61.035156,-5.203247,1,-53.588867,-4.852295,1,-48.40088,-3.3874512,1
155,-70.78552,19.958496,1,-76.75171,8.865356,1,-64.8029708862305,9.97332763671875,1,-59.87549,-5.2490234,1,-52.230835,-4.9591064,1,-46.951294,-3.692627,1
156,-70.877075,19.683838,1,-76.73645,8.621216,1,-64.7762603759766,9.59785652160645,1,-59.005737,-5.3253174,1,-51.116943,-5.279541,1,-45.791626,-4.0283203,1
157,-70.96863,19.439697,1,-76.690674,8.422852,1,-64.7126083374023,9.14800071716309,1,-58.36487,-5.5389404,1,-50.323486,-5.6762695,1,-44.830322,-4.562378,1
158,-71.04492,19.134521,1,-76.73645,8.224487,1,-64.746940612793,8.72615051269531,1,-57.937622,-5.7525635,1,-49.66736,-6.225586,1,-44.0979,-5.264282,1
159,-71.121216,18.829346,1,-76.828,7.9956055,1,-64.8293914794922,8.1785888671875,1,-57.58667,-6.088257,1,-49.224854,-6.92749,1,-43.441772,-6.1798096,1
160,-71.28906,18.539429,1,-76.87378,7.7667236,1,-64.8738098144531,7.74116611480713,1,-57.434082,-6.42395,1,-48.88916,-7.751465,1,-42.938232,-7.2784424,1
161,-71.502686,18.188477,1,-76.96533,7.461548,1,-64.9678726196289,7.21486854553223,1,-57.34253,-6.8511963,1,-48.736572,-8.7890625,1,-42.633057,-8.636475,1
162,-71.640015,17.807007,1,-77.041626,7.1868896,1,-65.0510406494141,6.71169853210449,1,-57.34253,-7.30896,1,-48.76709,-9.796143,1,-42.510986,-10.192871,1
163,-71.7926,17.410278,1,-77.20947,6.7749023,1,-65.2287826538086,6.09430646896362,1,-57.47986,-7.9040527,1,-49.041748,-10.528564,1,-42.800903,-11.444092,1
164,-72.021484,16.967773,1,-77.46887,6.454468,1,-65.5058441162109,5.51323747634888,1,-57.922363,-8.575439,1,-49.575806,-11.184692,1,-43.304443,-11.260986,1
165,-72.29614,16.525269,1,-77.65198,6.011963,1,-65.6858596801758,5.11076784133911,1,-58.47168,-9.170532,1,-50.231934,-11.33728,1,-43.807983,-11.3220215,1
166,-72.54028,16.067505,1,-77.91138,5.6152344,1,-65.936408996582,4.84045886993408,1,-58.85315,-9.506226,1,-50.827026,-11.260986,1,-44.418335,-11.260986,1
167,-72.8302,15.731812,1,-78.201294,5.1879883,1,-66.2069854736328,4.81838655471802,1,-59.23462,-9.58252,1,-51.3916,-11.21521,1,-44.921875,-11.33728,1
168,-73.150635,15.472412,1,-78.552246,4.989624,1,-66.5524291992188,4.92345094680786,1,-59.768677,-9.567261,1,-51.956177,-11.245728,1,-45.48645,-11.276245,1
169,-73.44055,15.289307,1,-78.811646,4.8675537,1,-66.8125915527344,5.01802825927734,1,-60.302734,-9.597778,1,-52.56653,-11.230469,1,-46.0968,-11.352539,1
170,-73.6084,15.182495,1,-79.0863,4.852295,1,-67.0910034179687,5.18793296813965,1,-60.86731,-9.552002,1,-53.146362,-11.245728,1,-46.722412,-11.306763,1
171,-73.71521,15.197754,1,-79.36096,4.91333,1,-67.3659973144531,5.26092290878296,1,-61.35559,-9.567261,1,-53.771973,-11.21521,1,-47.225952,-11.291504,1
172,-73.83728,15.197754,1,-79.574585,4.9438477,1,-67.5852279663086,5.44930505752564,1,-61.85913,-9.490967,1,-54.32129,-11.260986,1,-47.836304,-11.291504,1
173,-73.8678,15.258789,1,-79.75769,5.1116943,1,-67.7678909301758,5.60628223419189,1,-62.469482,-9.490967,1,-54.885864,-11.306763,1,-48.38562,-11.260986,1
174,-73.913574,15.319824,1,-79.87976,5.264282,1,-67.8888092041016,5.73022603988647,1,-62.957764,-9.490967,1,-55.496216,-11.260986,1,-48.980713,-11.245728,1
175,-73.95935,15.457153,1,-80.09338,5.432129,1,-68.1000137329102,5.83106088638306,1,-63.49182,-9.490967,1,-56.06079,-11.291504,1,-49.545288,-11.260986,1
176,-73.95935,15.579224,1,-80.29175,5.645752,1,-68.2963638305664,5.978590965271,1,-64.04114,-9.44519,1,-56.655884,-11.33728,1,-50.1709,-11.21521,1
177,-73.92883,15.640259,1,-80.41382,5.79834,1,-68.4180450439453,6.11698722839356,1,-64.575195,-9.414673,1,-57.266235,-11.291504,1,-50.76599,-11.169434,1
178,-73.94409,15.686035,1,-80.55115,5.9509277,1,-68.5542068481445,6.22194719314575,1,-65.093994,-9.399414,1,-57.84607,-11.33728,1,-51.28479,-11.154175,1
179,-73.913574,15.853882,1,-80.67322,6.134033,1,-68.6758117675781,6.38327693939209,1,-65.704346,-9.338379,1,-58.47168,-11.291504,1,-51.956177,-11.169434,1
180,-73.898315,15.914917,1,-80.79529,6.2713623,1,-68.7973556518555,6.4939546585083,1,-66.19263,-9.292603,1,-59.036255,-11.33728,1,-52.505493,-11.154175,1
181,-73.76099,15.945435,1,-80.825806,6.439209,1,-68.8270568847656,6.61268615722656,1,-66.711426,-9.246826,1,-59.60083,-11.245728,1,-53.100586,-11.199951,1
182,-73.6084,15.991211,1,-80.79529,6.5307617,1,-68.7970657348633,6.73730659484863,1,-67.230225,-9.185791,1,-60.165405,-11.291504,1,-53.726196,-11.169434,1
183,-73.394775,15.991211,1,-80.718994,6.6223145,1,-68.7210006713867,6.84186124801636,1,-67.68799,-9.124756,1,-60.74524,-11.33728,1,-54.29077,-11.169434,1
184,-73.12012,16.021729,1,-80.581665,6.7596436,1,-68.58203125,6.85361289978027,1,-68.13049,-9.140015,1,-61.309814,-11.3220215,1,-54.82483,-11.184692,1
185,-72.79968,16.113281,1,-80.39856,6.881714,1,-68.398567199707,6.88898754119873,1,-68.618774,-9.109497,1,-61.88965,-11.3220215,1,-55.374146,-11.199951,1
186,-72.509766,16.159058,1,-80.29175,7.019043,1,-68.2917785644531,6.99100255966187,1,-69.122314,-8.987427,1,-62.438965,-11.33728,1,-55.984497,-11.21521,1
187,-72.20459,16.189575,1,-80.078125,7.232666,1,-68.0805969238281,6.98935890197754,1,-69.56482,-8.94165,1,-63.034058,-11.276245,1,-56.518555,-11.199951,1
188,-71.82312,16.296387,1,-79.89502,7.446289,1,-67.9054489135742,6.94613361358643,1,-70.03784,-8.911133,1,-63.62915,-11.3220215,1,-57.113647,-11.184692,1
189,-71.395874,16.326904,1,-79.66614,7.5683594,1,-67.6799926757812,6.99176740646362,1,-70.495605,-8.758545,1,-64.17847,-11.291504,1,-57.70874,-11.154175,1
190,-71.121216,16.311646,1,-79.48303,7.736206,1,-67.5174865722656,6.8275318145752,1,-70.999146,-8.7890625,1,-64.74304,-11.276245,1,-58.258057,-11.199951,1
191,-70.69397,16.311646,1,-79.315186,7.8582764,1,-67.362907409668,6.78913736343384,1,-71.44165,-8.682251,1,-65.322876,-11.3220215,1,-58.82263,-11.230469,1
192,-70.41931,16.296387,1,-79.11682,7.888794,1,-67.184326171875,6.61776494979858,1,-71.91467,-8.666992,1,-65.841675,-11.276245,1,-59.402466,-11.21521,1
193,-70.114136,16.25061,1,-78.933716,8.041382,1,-67.0418319702148,6.43417692184448,1,-72.37244,-8.651733,1,-66.39099,-11.21521,1,-59.936523,-11.21521,1
194,-69.885254,16.204834,1,-78.85742,8.117676,1,-66.9810791015625,6.39938068389893,1,-72.81494,-8.4991455,1,-66.95557,-11.260986,1,-60.531616,-11.3220215,1
195,-69.58008,16.143799,1,-78.704834,8.2092285,1,-66.8758850097656,6.19033527374268,1,-73.287964,-8.468628,1,-67.5354,-11.09314,1,-61.11145,-11.3220215,1
196,-69.3512,16.082764,1,-78.61328,8.300781,1,-66.814567565918,6.11207103729248,1,-73.73047,-8.31604,1,-68.02368,-11.016846,1,-61.645508,-11.291504,1
197,-69.16809,15.945435,1,-78.50647,8.331299,1,-66.743049621582,5.96024417877197,1,-74.20349,-8.19397,1,-68.52722,-11.001587,1,-62.164307,-11.306763,1
198,-68.984985,15.792847,1,-78.39966,8.331299,1,-66.662971496582,5.83127355575562,1,-74.661255,-8.026123,1,-69.107056,-10.910034,1,-62.713623,-11.245728,1
199,-68.878174,15.792847,1,-78.308105,8.285522,1,-66.5851898193359,5.72167205810547,1,-75.11902,-7.8125,1,-69.58008,-10.848999,1,-63.323975,-11.306763,1
200,-68.81714,15.716553,1,-78.26233,8.392334,1,-66.5845336914063,5.63024663925171,1,-75.56152,-7.6141357,1,-70.09888,-10.772705,1,-63.858032,-11.3220215,1
201,-68.80188,15.686035,1,-78.26233,8.43811,1,-66.6236572265625,5.51553010940552,1,-76.00403,-7.446289,1,-70.64819,-10.696411,1,-64.40735,-11.306763,1
202,-68.862915,15.731812,1,-78.26233,8.453369,1,-66.6656036376953,5.36858081817627,1,-76.44653,-7.293701,1,-71.18225,-10.650635,1,-64.971924,-11.33728,1
203,-68.90869,15.716553,1,-78.24707,8.453369,1,-66.6769561767578,5.27022790908814,1,-76.9043,-7.0343018,1,-71.71631,-10.5896,1,-65.5365,-11.306763,1
204,-68.95447,15.777588,1,-78.26233,8.544922,1,-66.7507934570313,5.1560525894165,1,-77.37732,-6.80542,1,-72.265625,-10.528564,1,-66.13159,-11.33728,1
205,-69.03076,15.823364,1,-78.27759,8.560181,1,-66.8114547729492,5.02072811126709,1,-77.85034,-6.5612793,1,-72.784424,-10.482788,1,-66.66565,-11.33728,1
206,-69.15283,15.914917,1,-78.33862,8.712769,1,-66.9486618041992,4.93538379669189,1,-78.308105,-6.3323975,1,-73.30322,-10.360718,1,-67.24548,-11.260986,1
207,-69.21387,16.00647,1,-78.3844,8.7890625,1,-67.06005859375,4.81926393508911,1,-78.76587,-6.088257,1,-73.85254,-10.284424,1,-67.7948,-11.291504,1
208,-69.41223,16.143799,1,-78.445435,8.81958,1,-67.162239074707,4.73429584503174,1,-79.193115,-5.8135986,1,-74.3866,-10.131836,1,-68.40515,-11.276245,1
209,-69.65637,16.296387,1,-78.53699,8.865356,1,-67.3088531494141,4.63107824325562,1,-79.63562,-5.569458,1,-74.920654,-10.055542,1,-68.95447,-11.199951,1
210,-69.869995,16.418457,1,-78.6438,8.987427,1,-67.4777603149414,4.59201765060425,1,-80.09338,-5.2490234,1,-75.424194,-9.94873,1,-69.51904,-11.138916,1
211,-70.114136,16.448975,1,-78.73535,8.987427,1,-67.6379699707031,4.42144298553467,1,-80.56641,-5.004883,1,-76.049805,-9.780884,1,-70.19043,-11.123657,1
212,-70.35828,16.586304,1,-78.84216,8.972168,1,-67.7685394287109,4.34886360168457,1,-80.93262,-4.7454834,1,-76.538086,-9.70459,1,-70.69397,-11.123657,1
213,-70.69397,16.677856,1,-78.933716,8.850098,1,-67.9118194580078,4.10479545593262,1,-81.39038,-4.5166016,1,-77.0874,-9.58252,1,-71.30432,-11.062622,1
214,-70.90759,16.723633,1,-78.99475,8.804321,1,-68.0263214111328,3.93670320510864,1,-81.78711,-4.2266846,1,-77.62146,-9.429932,1,-71.884155,-11.016846,1
215,-71.121216,16.799927,1,-79.0863,8.773804,1,-68.1471252441406,3.840815782547,1,-82.13806,-3.9215088,1,-78.17078,-9.246826,1,-72.49451,-10.955811,1
216,-71.30432,16.845703,1,-79.13208,8.69751,1,-68.2917251586914,3.5509831905365,1,-82.53479,-3.7384033,1,-78.67432,-9.140015,1,-73.04382,-10.925293,1
217,-71.517944,16.845703,1,-79.23889,8.4991455,1,-68.3819580078125,3.38767552375793,1,-82.855225,-3.4332275,1,-79.208374,-9.0789795,1,-73.62366,-10.848999,1
218,-71.67053,16.799927,1,-79.25415,8.377075,1,-68.4906997680664,3.07159829139709,1,-83.221436,-3.1738281,1,-79.711914,-8.880615,1,-74.18823,-10.787964,1
219,-71.70105,16.677856,1,-79.23889,8.2092285,1,-68.5355911254883,2.78342580795288,1,-83.480835,-2.9296875,1,-80.215454,-8.834839,1,-74.81384,-10.803223,1
220,-71.71631,16.51001,1,-79.193115,7.9803467,1,-68.6135330200195,2.3170919418335,1,-83.80127,-2.7160645,1,-80.78003,-8.743286,1,-75.424194,-10.7421875,1
221,-71.68579,16.37268,1,-79.11682,7.751465,1,-68.6365509033203,1.90647554397583,1,-84.03015,-2.456665,1,-81.222534,-8.560181,1,-76.01929,-10.726929,1
222,-71.45691,16.12854,1,-78.99475,7.537842,1,-68.594108581543,1.55230712890625,1,-84.15222,-2.1820068,1,-81.710815,-8.392334,1,-76.538086,-10.696411,1
223,-71.28906,16.00647,1,-78.79639,7.507324,1,-68.5580444335938,1.24823236465454,1,-84.243774,-1.9073486,1,-82.1228,-8.300781,1,-77.13318,-10.681152,1
224,-70.999146,15.960693,1,-78.704834,7.537842,1,-68.5960388183594,1.07160234451294,1,-84.365845,-1.6326904,1,-82.53479,-8.19397,1,-77.66724,-10.604858,1
225,-70.72449,16.00647,1,-78.65906,7.8125,1,-68.6249771118164,1.23091506958008,1,-84.41162,-1.373291,1,-82.93152,-8.041382,1,-78.26233,-10.574341,1
226,-70.46509,16.143799,1,-78.58276,8.178711,1,-68.6738891601563,1.4100866317749,1,-84.487915,-1.0223389,1,-83.343506,-7.8430176,1,-78.826904,-10.574341,1
227,-70.114136,16.357422,1,-78.47595,8.514404,1,-68.7184143066406,1.52938795089722,1,-84.56421,-0.6866455,1,-83.70972,-7.6904297,1,-79.46777,-10.5896,1
228,-69.68689,16.494751,1,-78.26233,9.002686,1,-68.7026443481445,1.7492413520813,1,-84.56421,-0.35095215,1,-84.121704,-7.4310303,1,-80.06287,-10.482788,1
229,-69.30542,16.63208,1,-78.048706,9.384155,1,-68.6943130493164,1.86781787872314,1,-84.57947,-0.045776367,1,-84.47266,-7.293701,1,-80.61218,-10.437012,1
230,-68.71033,16.708374,1,-77.74353,9.719849,1,-68.6337661743164,1.90881538391113,1,-84.53369,0.12207031,1,-84.88464,-7.0495605,1,-81.17676,-10.437012,1
231,-68.222046,16.708374,1,-77.39258,10.055542,1,-68.4762725830078,2.02438116073608,1,-84.39636,0.4272461,1,-85.14404,-6.8206787,1,-81.74133,-10.299683,1
232,-67.62695,16.677856,1,-77.01111,10.299683,1,-68.3203430175781,2.02498292922974,1,-84.25903,0.62561035,1,-85.40344,-6.576538,1,-82.1228,-10.20813,1
233,-67.092896,16.738892,1,-76.690674,10.482788,1,-68.0965042114258,2.1078143119812,1,-84.06067,1.0375977,1,-85.58655,-6.286621,1,-82.55005,-10.116577,1
234,-66.726685,16.906738,1,-76.293945,10.559082,1,-67.6109161376953,2.27626800537109,1,-83.602905,1.7700195,1,-85.47974,-5.645752,1,-82.79419,-9.841919,1
235,-66.43677,17.181396,1,-75.912476,10.910034,1,-66.9638977050781,2.91485786437988,1,-82.962036,3.1585693,1,-84.6405,-4.5776367,1,-82.03125,-9.155273,1
236,-66.13159,17.39502,1,-75.62256,11.245728,1,-66.0939178466797,3.95155382156372,1,-82.092285,3.7231445,1,-80.55115,-3.2196045,1,-78.445435,-7.873535,1
237,-65.841675,17.684937,1,-75.13428,11.230469,1,-65.1008605957031,4.6478762626648,1,-81.05469,3.4332275,1,-77.59094,-2.6550293,1,-74.37134,-6.9885254,1
238,-65.55176,17.89856,1,-74.798584,11.154175,1,-64.2495422363281,5.4342474937439,1,-80.09338,3.2043457,1,-76.00403,-2.6855469,1,-72.72339,-6.1950684,1
239,-65.41443,18.035889,1,-74.539185,11.154175,1,-63.7654418945313,5.86962699890137,1,-79.52881,3.1280518,1,-75.149536,-2.5177002,1,-72.23511,-5.4626465,1
240,-65.36865,18.096924,1,-74.50867,11.09314,1,-63.5279884338379,6.25323677062988,1,-79.1626,2.8533936,1,-74.55444,-2.5634766,1,-71.45691,-5.1116943,1
241,-65.460205,18.218994,1,-74.61548,10.910034,1,-63.4062576293945,6.62595653533936,1,-78.78113,2.1972656,1,-73.80676,-2.9754639,1,-70.388794,-5.126953,1
242,-65.56702,18.341064,1,-74.661255,10.772705,1,-63.2795333862305,6.97054576873779,1,-78.21655,1.2359619,1,-72.8302,-3.540039,1,-68.93921,-5.264282,1
243,-65.704346,18.493652,1,-74.69177,10.620117,1,-63.1250152587891,7.42479228973389,1,-77.40784,0.21362305,1,-71.59424,-4.0130615,1,-67.352295,-5.340576,1
244,-65.7959,18.64624,1,-74.72229,10.4522705,1,-62.9627227783203,8.06216812133789,1,-76.553345,-0.38146973,1,-70.22095,-4.3792725,1,-65.7959,-5.2337646,1
245,-65.88745,18.76831,1,-74.70703,10.375977,1,-62.9302825927734,8.07201957702637,1,-75.48523,-1.8463135,1,-68.92395,-4.699707,1,-64.22424,-5.1879883,1
246,-66.11633,18.89038,1,-74.72229,10.192871,1,-62.8657569885254,8.34282779693604,1,-74.32556,-2.822876,1,-67.67273,-4.9438477,1,-62.789917,-4.9591064,1
247,-66.29944,18.920898,1,-74.76807,9.994507,1,-62.8454971313477,8.63348770141602,1,-73.12012,-3.6315918,1,-66.4978,-5.2490234,1,-61.416626,-4.8828125,1
248,-66.51306,18.951416,1,-74.73755,9.674072,1,-62.7787094116211,8.68101596832275,1,-72.021484,-4.3792725,1,-65.26184,-5.508423,1,-60.134888,-4.79126,1
249,-66.74194,18.875122,1,-74.76807,9.353638,1,-62.779655456543,8.82642269134522,1,-70.77026,-5.0354004,1,-64.02588,-5.844116,1,-58.86841,-4.760742,1
250,-66.90979,18.76831,1,-74.76807,9.0789795,1,-62.7705688476563,8.83374214172363,1,-69.610596,-5.630493,1,-62.86621,-6.149292,1,-57.739258,-4.8675537,1
251,-67.108154,18.64624,1,-74.783325,8.81958,1,-62.7836303710938,8.733473777771,1,-68.618774,-6.164551,1,-61.813354,-6.500244,1,-56.71692,-5.050659,1
252,-67.24548,18.478394,1,-74.798584,8.514404,1,-62.7994537353516,8.65920257568359,1,-67.77954,-6.5460205,1,-60.97412,-6.6833496,1,-55.877686,-5.1574707,1
253,-67.474365,18.38684,1,-74.8291,8.285522,1,-62.8310852050781,8.50370216369629,1,-67.16919,-6.8969727,1,-60.287476,-6.744385,1,-55.32837,-5.126953,1
254,-67.62695,18.28003,1,-74.84436,8.071899,1,-62.8484649658203,8.3855562210083,1,-66.711426,-7.1411133,1,-59.921265,-6.8206787,1,-54.91638,-5.065918,1
255,-67.81006,18.127441,1,-74.920654,7.9040527,1,-62.9315757751465,8.4160041809082,1,-66.40625,-7.2021484,1,-59.631348,-6.7749023,1,-54.733276,-4.974365,1
256,-67.94739,18.188477,1,-74.95117,7.873535,1,-62.9630699157715,8.40775966644287,1,-66.11633,-7.2784424,1,-59.387207,-6.713867,1,-54.58069,-4.837036,1
257,-68.17627,18.249512,1,-75.11902,7.8125,1,-63.1369667053223,8.46855735778809,1,-65.7959,-7.30896,1,-59.173584,-6.6375732,1,-54.244995,-4.7454834,1
258,-68.38989,18.417358,1,-75.22583,7.9345703,1,-63.2502059936523,8.69907379150391,1,-65.50598,-7.1411133,1,-58.85315,-6.5307617,1,-54.06189,-4.5928955,1
259,-68.69507,18.554688,1,-75.408936,8.087158,1,-63.438045501709,8.92244911193848,1,-65.26184,-6.9732666,1,-58.670044,-6.3934326,1,-53.78723,-4.470825,1
260,-68.90869,18.829346,1,-75.57678,8.255005,1,-63.6109924316406,9.16041564941406,1,-65.04822,-6.7749023,1,-58.48694,-6.2408447,1,-53.54309,-4.2419434,1
261,-69.107056,19.104004,1,-75.790405,8.514404,1,-63.8347244262695,9.54477691650391,1,-64.834595,-6.42395,1,-58.181763,-5.9661865,1,-53.29895,-3.9978027,1
262,-69.33594,19.378662,1,-75.94299,8.682251,1,-63.9950065612793,9.79837226867676,1,-64.453125,-6.1950684,1,-57.876587,-5.630493,1,-52.93274,-3.6773682,1
263,-69.625854,19.638062,1,-76.1261,8.956909,1,-64.1800155639649,10.093189239502,1,-63.949585,-5.9051514,1,-57.281494,-5.2948,1,-52.352905,-3.3416748,1
264,-69.732666,19.91272,1,-76.21765,9.155273,1,-64.2758331298828,10.3354473114014,1,-63.23242,-5.630493,1,-56.503296,-5.004883,1,-51.605225,-3.036499,1
265,-70.007324,20.095825,1,-76.309204,9.246826,1,-64.3794326782227,10.543176651001,1,-62.454224,-5.340576,1,-55.648804,-4.760742,1,-50.628662,-2.8381348,1
266,-70.20569,20.263672,1,-76.416016,9.384155,1,-64.4885635375977,10.7016448974609,1,-61.59973,-5.0354004,1,-54.611206,-4.5776367,1,-49.468994,-2.8381348,1
267,-70.34302,20.339966,1,-76.5686,9.506226,1,-64.6226654052734,10.6440563201904,1,-60.760498,-4.8828125,1,-53.54309,-4.562378,1,-48.339844,-2.9754639,1
268,-70.48035,20.324707,1,-76.58386,9.521484,1,-64.6222076416016,10.4800338745117,1,-59.99756,-4.837036,1,-52.505493,-4.852295,1,-47.164917,-3.479004,1
269,-70.617676,20.187378,1,-76.6449,9.44519,1,-64.6652374267578,10.1434898376465,1,-59.295654,-4.928589,1,-51.483154,-5.3863525,1,-46.0968,-4.2266846,1
270,-70.632935,19.973755,1,-76.675415,9.277344,1,-64.6818466186523,9.67014694213867,1,-58.670044,-5.1574707,1,-50.67444,-6.0577393,1,-45.059204,-5.279541,1
271,-70.632935,19.638062,1,-76.66016,9.017944,1,-64.661003112793,9.15999221801758,1,-58.166504,-5.4626465,1,-50.01831,-6.9732666,1,-44.21997,-6.439209,1
272,-70.5719,19.27185,1,-76.5686,8.666992,1,-64.5695037841797,8.51947116851807,1,-57.678223,-5.92041,1,-49.438477,-7.888794,1,-43.502808,-7.736206,1
273,-70.5719,18.76831,1,-76.46179,8.132935,1,-64.4653244018555,7.84201288223267,1,-57.250977,-6.439209,1,-48.950195,-9.002686,1,-42.84668,-9.185791,1
274,-70.5719,18.203735,1,-76.32446,7.7056885,1,-64.3336715698242,7.23572731018066,1,-57.037354,-7.003784,1,-48.76709,-10.040283,1,-42.510986,-11.016846,1
275,-70.46509,17.593384,1,-76.24817,7.0648193,1,-64.2592620849609,6.54899454116821,1,-57.08313,-7.751465,1,-48.950195,-10.543823,1,-42.617798,-11.199951,1
276,-70.40405,17.01355,1,-76.26343,6.5460205,1,-64.2794799804688,5.92553091049194,1,-57.388306,-8.514404,1,-49.468994,-11.245728,1,-43.22815,-11.260986,1
277,-70.40405,16.357422,1,-76.27869,5.9509277,1,-64.2870712280273,5.50243473052979,1,-57.907104,-9.170532,1,-50.109863,-11.199951,1,-43.792725,-11.3220215,1
278,-70.44983,15.731812,1,-76.40076,5.355835,1,-64.400764465332,5.34249830245972,1,-58.181763,-9.399414,1,-50.720215,-11.123657,1,-44.281006,-11.352539,1
279,-70.617676,15.304565,1,-76.553345,4.91333,1,-64.5621337890625,5.37250137329102,1,-58.639526,-9.490967,1,-51.330566,-11.123657,1,-44.84558,-11.398315,1
280,-70.892334,14.923096,1,-76.76697,4.638672,1,-64.7942428588867,5.44728851318359,1,-59.143066,-9.521484,1,-51.879883,-11.184692,1,-45.394897,-11.367798,1
281,-71.04492,14.709473,1,-76.96533,4.4403076,1,-65.0140762329102,5.52082824707031,1,-59.646606,-9.552002,1,-52.474976,-11.154175,1,-46.020508,-11.367798,1
282,-71.21277,14.511108,1,-77.13318,4.3182373,1,-65.2027893066406,5.60891771316528,1,-60.134888,-9.567261,1,-53.009033,-11.184692,1,-46.554565,-11.367798,1
283,-71.28906,14.465332,1,-77.37732,4.3182373,1,-65.4553833007813,5.68476867675781,1,-60.668945,-9.58252,1,-53.619385,-11.230469,1,-47.1344,-11.367798,1
284,-71.31958,14.465332,1,-77.48413,4.470825,1,-65.5644989013672,5.85732507705689,1,-61.203003,-9.536743,1,-54.153442,-11.199951,1,-47.714233,-11.398315,1
285,-71.41113,14.61792,1,-77.66724,4.638672,1,-65.7442016601563,5.99562931060791,1,-61.782837,-9.506226,1,-54.79431,-11.260986,1,-48.26355,-11.33728,1
286,-71.41113,14.831543,1,-77.8656,4.8980713,1,-65.9273452758789,6.11383199691772,1,-62.39319,-9.490967,1,-55.358887,-11.276245,1,-48.843384,-11.367798,1
287,-71.380615,15.029907,1,-78.03345,5.279541,1,-66.0736236572266,6.26070356369019,1,-62.942505,-9.429932,1,-55.96924,-11.291504,1,-49.49951,-11.276245,1
288,-71.33484,15.24353,1,-78.17078,5.6152344,1,-66.1949081420898,6.37580013275147,1,-63.52234,-9.399414,1,-56.533813,-11.3220215,1,-50.04883,-11.260986,1
289,-71.2738,15.441895,1,-78.308105,5.9509277,1,-66.322021484375,6.52872753143311,1,-64.04114,-9.307861,1,-57.144165,-11.245728,1,-50.67444,-11.245728,1
290,-71.258545,15.670776,1,-78.35388,6.164551,1,-66.3627548217773,6.62588930130005,1,-64.60571,-9.277344,1,-57.739258,-11.3220215,1,-51.208496,-11.245728,1
291,-71.0907,15.823364,1,-78.41492,6.454468,1,-66.4177627563477,6.71608066558838,1,-65.12451,-9.231567,1,-58.303833,-11.276245,1,-51.864624,-11.230469,1
292,-70.892334,15.945435,1,-78.41492,6.6833496,1,-66.4151916503906,6.76506090164185,1,-65.64331,-9.216309,1,-58.883667,-11.276245,1,-52.4292,-11.230469,1
293,-70.70923,16.00647,1,-78.36914,6.881714,1,-66.369140625,6.88850593566895,1,-66.11633,-9.109497,1,-59.4635,-11.276245,1,-53.03955,-11.184692,1
294,-70.495605,16.098022,1,-78.27759,7.0495605,1,-66.2780303955078,6.94720506668091,1,-66.65039,-9.048462,1,-60.058594,-11.276245,1,-53.619385,-11.199951,1
295,-70.236206,16.220093,1,-78.10974,7.247925,1,-66.1123733520508,6.99681568145752,1,-67.108154,-8.972168,1,-60.668945,-11.276245,1,-54.153442,-11.21521,1
296,-69.992065,16.26587,1,-77.98767,7.3547363,1,-65.9957733154297,6.91394948959351,1,-67.62695,-9.002686,1,-61.23352,-11.230469,1,-54.779053,-11.230469,1
297,-69.70215,16.326904,1,-77.89612,7.507324,1,-65.9078521728516,6.97682666778564,1,-68.03894,-8.880615,1,-61.813354,-11.230469,1,-55.31311,-11.169434,1
298,-69.45801,16.418457,1,-77.75879,7.675171,1,-65.7828674316406,6.91543483734131,1,-68.51196,-8.850098,1,-62.37793,-11.260986,1,-55.877686,-11.199951,1
299,-69.244385,16.494751,1,-77.66724,7.873535,1,-65.7051696777344,6.92013263702393,1,-68.96973,-8.743286,1,-62.942505,-11.260986,1,-56.45752,-11.21521,1
300,-69.0155,16.51001,1,-77.57568,8.010864,1,-65.6356811523438,6.8124418258667,1,-69.44275,-8.728027,1,-63.50708,-11.230469,1,-56.991577,-11.21521,1
301,-68.81714,16.479492,1,-77.49939,8.148193,1,-65.5738754272461,6.81320571899414,1,-69.90051,-8.590698,1,-64.0564,-11.260986,1,-57.57141,-11.123657,1
302,-68.66455,16.464233,1,-77.438354,8.2092285,1,-65.5416793823242,6.63789510726929,1,-70.44983,-8.590698,1,-64.66675,-11.169434,1,-58.166504,-11.169434,1
303,-68.51196,16.433716,1,-77.438354,8.31604,1,-65.5731887817383,6.52221345901489,1,-70.999146,-8.529663,1,-65.216064,-11.199951,1,-58.71582,-11.169434,1
304,-68.43567,16.433716,1,-77.438354,8.361816,1,-65.5841522216797,6.49691390991211,1,-71.44165,-8.392334,1,-65.81116,-11.077881,1,-59.32617,-11.230469,1
305,-68.42041,16.418457,1,-77.51465,8.468628,1,-65.6958236694336,6.39128398895264,1,-71.96045,-8.331299,1,-66.345215,-11.062622,1,-59.87549,-11.154175,1
306,-68.481445,16.418457,1,-77.6062,8.4991455,1,-65.8110046386719,6.29159832000732,1,-72.54028,-8.224487,1,-66.90979,-11.016846,1,-60.48584,-11.245728,1
307,-68.55774,16.311646,1,-77.66724,8.575439,1,-65.9100875854492,6.1734619140625,1,-73.04382,-8.148193,1,-67.50488,-11.0321045,1,-61.035156,-11.230469,1
308,-68.725586,16.26587,1,-77.78931,8.575439,1,-66.0535888671875,6.0708532333374,1,-73.59314,-8.041382,1,-68.099976,-10.940552,1,-61.61499,-11.154175,1
309,-68.90869,16.204834,1,-77.8656,8.514404,1,-66.1508102416992,5.91368961334229,1,-74.11194,-7.965088,1,-68.618774,-10.925293,1,-62.179565,-11.230469,1
310,-69.0918,16.159058,1,-77.97241,8.43811,1,-66.2808227539063,5.73500633239746,1,-74.645996,-7.9040527,1,-69.13757,-10.894775,1,-62.7594,-11.169434,1
311,-69.32068,16.143799,1,-78.07922,8.377075,1,-66.4013900756836,5.61516761779785,1,-75.19531,-7.751465,1,-69.77844,-10.864258,1,-63.38501,-11.230469,1
312,-69.503784,16.067505,1,-78.17078,8.270264,1,-66.5034561157227,5.46429014205933,1,-75.69885,-7.6293945,1,-70.34302,-10.803223,1,-63.964844,-11.230469,1
313,-69.747925,16.067505,1,-78.308105,8.178711,1,-66.6465835571289,5.34869813919067,1,-76.23291,-7.461548,1,-70.92285,-10.71167,1,-64.590454,-11.230469,1
314,-70.007324,16.082764,1,-78.445435,8.132935,1,-66.8256378173828,5.13622951507568,1,-76.76697,-7.4005127,1,-71.48743,-10.71167,1,-65.17029,-11.245728,1
315,-70.35828,16.082764,1,-78.59802,8.117676,1,-67.0031967163086,5.02574968338013,1,-77.28577,-7.232666,1,-72.03674,-10.650635,1,-65.73486,-11.184692,1
316,-70.632935,16.143799,1,-78.78113,8.026123,1,-67.1998748779297,4.88373517990112,1,-77.78931,-7.1105957,1,-72.631836,-10.543823,1,-66.29944,-11.21521,1
317,-70.93811,16.189575,1,-78.96423,8.117676,1,-67.4337387084961,4.79386711120606,1,-78.308105,-6.942749,1,-73.135376,-10.513306,1,-66.94031,-11.260986,1
318,-71.19751,16.311646,1,-79.17786,8.071899,1,-67.6786880493164,4.64129257202148,1,-78.84216,-6.8206787,1,-73.74573,-10.4522705,1,-67.50488,-11.21521,1
319,-71.54846,16.342163,1,-79.39148,8.071899,1,-67.9241256713867,4.53639316558838,1,-79.36096,-6.652832,1,-74.37134,-10.391235,1,-68.099976,-11.138916,1
320,-71.7926,16.418457,1,-79.559326,8.056641,1,-68.1542587280273,4.32507705688477,1,-79.87976,-6.5612793,1,-74.87488,-10.3302,1,-68.740845,-11.154175,1
321,-72.006226,16.464233,1,-79.74243,8.071899,1,-68.3710861206055,4.23880481719971,1,-80.36804,-6.3476562,1,-75.50049,-10.253906,1,-69.33594,-11.108398,1
322,-72.25037,16.555786,1,-79.91028,8.071899,1,-68.6143569946289,4.02192640304565,1,-80.9021,-6.225586,1,-76.09558,-10.1623535,1,-69.91577,-11.09314,1
323,-72.509766,16.601562,1,-80.00183,8.010864,1,-68.7618637084961,3.80812907218933,1,-81.40564,-5.996704,1,-76.5686,-10.116577,1,-70.58716,-11.0321045,1
324,-72.631836,16.693115,1,-80.16968,8.010864,1,-68.9640045166016,3.71750640869141,1,-81.89392,-5.706787,1,-77.14844,-9.979248,1,-71.19751,-10.971069,1
325,-72.79968,16.738892,1,-80.27649,8.071899,1,-69.1430740356445,3.5945029258728,1,-82.29065,-5.5236816,1,-77.72827,-9.857178,1,-71.762085,-11.001587,1
326,-72.98279,16.784668,1,-80.36804,8.117676,1,-69.3392639160156,3.38838958740234,1,-82.74841,-5.340576,1,-78.21655,-9.811401,1,-72.32666,-10.925293,1
327,-73.12012,16.784668,1,-80.55115,8.087158,1,-69.5601654052734,3.2706823348999,1,-83.1604,-5.1574707,1,-78.78113,-9.735107,1,-72.87598,-10.894775,1
328,-73.16589,16.815186,1,-80.61218,8.026123,1,-69.6868362426758,3.06257152557373,1,-83.55713,-4.91333,1,-79.39148,-9.643555,1,-73.516846,-10.925293,1
329,-73.22693,16.723633,1,-80.718994,8.026123,1,-69.8784255981445,2.88003993034363,1,-83.96912,-4.699707,1,-79.91028,-9.58252,1,-74.08142,-10.879517,1
330,-73.31848,16.708374,1,-80.78003,7.9803467,1,-70.0181350708008,2.67171144485474,1,-84.350586,-4.4403076,1,-80.459595,-9.490967,1,-74.63074,-10.848999,1
331,-73.394775,16.693115,1,-80.81055,7.9040527,1,-70.099983215332,2.49259901046753,1,-84.65576,-4.1503906,1,-80.91736,-9.429932,1,-75.24109,-10.894775,1
332,-73.36426,16.601562,1,-80.87158,7.873535,1,-70.2381286621094,2.31208205223083,1,-84.96094,-3.9520264,1,-81.40564,-9.292603,1,-75.72937,-10.894775,1
333,-73.410034,16.555786,1,-80.947876,7.9193115,1,-70.3908233642578,2.21416330337524,1,-85.29663,-3.6010742,1,-81.90918,-9.231567,1,-76.293945,-10.803223,1
334,-73.410034,16.464233,1,-81.02417,7.949829,1,-70.5714111328125,2.05576181411743,1,-85.617065,-3.3874512,1,-82.44324,-9.170532,1,-76.797485,-10.818481,1
335,-73.410034,16.464233,1,-81.085205,7.9803467,1,-70.7548446655273,1.87430381774902,1,-85.95276,-3.1280518,1,-82.901,-9.002686,1,-77.423096,-10.864258,1
336,-73.394775,16.464233,1,-81.1615,8.132935,1,-70.9660873413086,1.80413866043091,1,-86.27319,-2.8533936,1,-83.45032,-8.956909,1,-78.03345,-10.848999,1
337,-73.37952,16.464233,1,-81.25305,8.239746,1,-71.1746597290039,1.72622871398926,1,-86.56311,-2.6550293,1,-83.96912,-8.865356,1,-78.62854,-10.83374,1
338,-73.31848,16.494751,1,-81.31409,8.300781,1,-71.3405990600586,1.6277346611023,1,-86.82251,-2.4108887,1,-84.44214,-8.7890625,1,-79.1626,-10.818481,1
339,-73.287964,16.616821,1,-81.344604,8.4991455,1,-71.5584564208984,1.55426979064941,1,-87.11243,-2.1972656,1,-84.91516,-8.636475,1,-79.72717,-10.757446,1
340,-73.30322,16.75415,1,-81.39038,8.743286,1,-71.7255706787109,1.630530834198,1,-87.32605,-1.9226074,1,-85.357666,-8.514404,1,-80.36804,-10.787964,1
341,-73.287964,16.952515,1,-81.451416,8.94165,1,-71.9033584594727,1.67291450500488,1,-87.55493,-1.6479492,1,-85.861206,-8.422852,1,-80.88684,-10.681152,1
342,-73.21167,17.120361,1,-81.43616,9.155273,1,-72.0916366577148,1.62666511535645,1,-87.79907,-1.4190674,1,-86.30371,-8.270264,1,-81.466675,-10.71167,1
343,-73.150635,17.333984,1,-81.4209,9.460449,1,-72.1912460327148,1.7914514541626,1,-87.9364,-1.0528564,1,-86.746216,-8.071899,1,-82.06177,-10.665894,1
344,-72.99805,17.471313,1,-81.40564,9.719849,1,-72.3234939575195,1.87672233581543,1,-88.10425,-0.76293945,1,-87.2345,-7.873535,1,-82.67212,-10.559082,1
345,-72.86072,17.700195,1,-81.37512,9.963989,1,-72.3359298706055,2.07140159606934,1,-88.134766,-0.45776367,1,-87.631226,-7.598877,1,-83.26721,-10.4522705,1
346,-72.72339,17.837524,1,-81.25305,10.269165,1,-72.3306503295899,2.24478149414062,1,-88.150024,-0.15258789,1,-87.98218,-7.4005127,1,-83.78601,-10.391235,1
347,-72.41821,17.913818,1,-81.1615,10.467529,1,-72.3045501708984,2.37095212936401,1,-88.150024,0.15258789,1,-88.37891,-7.171631,1,-84.44214,-10.314941,1
348,-72.09778,18.051147,1,-80.963135,10.635376,1,-72.2375106811523,2.3974404335022,1,-88.11951,0.45776367,1,-88.69934,-6.942749,1,-84.93042,-10.314941,1
349,-71.71631,18.1427,1,-80.81055,10.864258,1,-72.0068130493164,2.7098536491394,1,-87.90588,0.91552734,1,-89.00452,-6.576538,1,-85.510254,-10.192871,1
350,-71.44165,18.432617,1,-80.581665,11.199951,1,-71.7128753662109,3.11635208129883,1,-87.61597,1.3580322,1,-89.157104,-6.011963,1,-85.92224,-9.918213,1
351,-71.21277,18.753052,1,-80.3833,11.505127,1,-71.2479476928711,3.72404384613037,1,-87.17346,2.1820068,1,-89.035034,-5.4016113,1,-86.16638,-9.658813,1
352,-71.06018,19.134521,1,-80.1239,11.886597,1,-70.9354248046875,4.16830635070801,1,-86.91406,3.3416748,1,-88.16528,-4.486084,1,-85.876465,-9.109497,1
353,-70.77026,19.470215,1,-79.97131,12.466431,1,-70.5685958862305,5.01063537597656,1,-86.54785,4.196167,1,-85.83069,-3.2043457,1,-84.01489,-8.026123,1
354,-70.67871,19.89746,1,-79.80347,12.878418,1,-70.2122955322266,5.66666030883789,1,-86.135864,4.1046143,1,-83.26721,-2.5634766,1,-80.596924,-7.0648193,1
355,-70.64819,20.355225,1,-79.75769,13.122559,1,-69.7868804931641,6.44550943374634,1,-85.58655,3.9215088,1,-81.64978,-2.166748,1,-77.682495,-5.9814453,1
356,-70.58716,20.736694,1,-79.696655,13.320923,1,-69.3532180786133,7.23707103729248,1,-84.9762,3.7841797,1,-80.56641,-1.9226074,1,-76.32446,-4.928589,1
357,-70.52612,21.072388,1,-79.66614,13.48877,1,-68.9953765869141,7.99924802780151,1,-84.365845,3.5552979,1,-79.574585,-1.6937256,1,-75.72937,-4.272461,1
358,-70.52612,21.453857,1,-79.574585,13.717651,1,-68.5884399414063,8.89015960693359,1,-83.52661,3.1585693,1,-78.36914,-1.6174316,1,-74.21875,-3.7841797,1
359,-70.52612,21.850586,1,-79.46777,13.885498,1,-68.208984375,9.73343467712402,1,-82.458496,2.456665,1,-76.675415,-1.5869141,1,-72.18933,-3.0670166,1
360,-70.46509,22.232056,1,-79.3457,14.007568,1,-67.8569412231445,10.5422830581665,1,-81.23779,1.7700195,1,-74.96643,-1.4801025,1,-70.32776,-2.3345947,1
361,-70.46509,22.628784,1,-79.26941,14.129639,1,-67.5923461914063,11.3644580841064,1,-79.940796,1.1901855,1,-73.410034,-1.3122559,1,-68.67981,-1.7089844,1
362,-70.55664,23.010254,1,-79.10156,14.221191,1,-67.3075714111328,12.00719165802,1,-78.73535,0.8087158,1,-72.08252,-1.1291504,1,-67.276,-1.2207031,1
363,-70.52612,23.345947,1,-79.04053,14.282227,1,-67.1543731689453,12.6332187652588,1,-77.6062,0.5187988,1,-70.77026,-0.88500977,1,-66.02478,-0.5645752,1
364,-70.632935,23.590088,1,-78.91846,14.389038,1,-66.9844818115234,13.131983757019,1,-76.50757,0.2746582,1,-69.65637,-0.64086914,1,-64.88037,-0.061035156,1
365,-70.66345,23.834229,1,-78.88794,14.389038,1,-66.9039611816406,13.7690935134888,1,-75.50049,0.2746582,1,-68.58826,-0.38146973,1,-63.76648,0.4272461,1
366,-70.80078,24.06311,1,-78.78113,14.511108,1,-66.7879943847656,14.1051368713379,1,-74.34082,0,1,-67.50488,-0.22888184,1,-62.72888,0.79345703,1
367,-70.80078,24.307251,1,-78.704834,14.61792,1,-66.706169128418,14.439323425293,1,-73.30322,-0.1373291,1,-66.4978,-0.1373291,1,-61.676025,1.0070801,1
368,-70.86182,24.505615,1,-78.6438,14.694214,1,-66.6440505981445,14.7720108032227,1,-72.25037,-0.21362305,1,-65.41443,-0.030517578,1,-60.638428,1.2207031,1
369,-70.95337,24.70398,1,-78.65906,14.724731,1,-66.6640167236328,15.0696382522583,1,-71.19751,-0.2746582,1,-64.315796,0,1,-59.49402,1.4343262,1
370,-70.96863,24.841309,1,-78.53699,14.73999,1,-66.5448760986328,15.1749706268311,1,-70.02258,-0.44250488,1,-63.26294,0.045776367,1,-58.36487,1.7242432,1
371,-71.06018,24.94812,1,-78.46069,14.73999,1,-66.4714813232422,15.2487106323242,1,-68.90869,-0.5645752,1,-62.088013,-0.015258789,1,-57.250977,1.6479492,1
372,-71.15173,25.024414,1,-78.430176,14.724731,1,-66.4501419067383,15.4167976379395,1,-67.70325,-0.5340576,1,-60.836792,-0.1373291,1,-55.877686,1.4801025,1
373,-71.28906,25.024414,1,-78.430176,14.6484375,1,-66.4512329101563,15.3589534759521,1,-66.37573,-0.64086914,1,-59.417725,-0.2593994,1,-54.29077,1.2817383,1
374,-71.30432,24.963379,1,-78.36914,14.556885,1,-66.38525390625,15.1785087585449,1,-65.0177,-0.76293945,1,-57.800293,-0.47302246,1,-52.703857,0.9613037,1
375,-71.47217,24.795532,1,-78.35388,14.419556,1,-66.3683547973633,15.0088291168213,1,-63.76648,-0.77819824,1,-56.350708,-0.7324219,1,-51.086426,0.45776367,1
376,-71.517944,24.612427,1,-78.3844,14.144897,1,-66.3954010009766,14.6587028503418,1,-62.72888,-0.91552734,1,-55.114746,-1.1749268,1,-49.78943,-0.22888184,1
377,-71.56372,24.337769,1,-78.308105,13.900757,1,-66.3103408813477,14.1324052810669,1,-61.85913,-1.2359619,1,-53.985596,-1.8157959,1,-48.431396,-1.1291504,1
378,-71.57898,23.925781,1,-78.29285,13.519287,1,-66.2929534912109,13.468092918396,1,-61.00464,-1.6326904,1,-52.93274,-2.6550293,1,-47.225952,-2.2277832,1
379,-71.640015,23.391724,1,-78.17078,13.031006,1,-66.1748123168945,12.7199401855469,1,-60.272217,-2.1514893,1,-51.971436,-3.6468506,1,-45.98999,-3.4942627,1
380,-71.67053,22.735596,1,-78.10974,12.374878,1,-66.1219787597656,11.8331604003906,1,-59.73816,-2.8381348,1,-51.254272,-4.928589,1,-45.10498,-5.065918,1
381,-71.70105,21.987915,1,-77.95715,11.703491,1,-65.9902114868164,10.8133783340454,1,-59.37195,-3.753662,1,-50.872803,-6.5307617,1,-44.631958,-6.9885254,1
382,-71.68579,21.133423,1,-77.89612,10.910034,1,-65.9648208618164,9.62774467468262,1,-59.158325,-4.852295,1,-50.842285,-8.300781,1,-44.525146,-9.277344,1
383,-71.59424,20.233154,1,-77.819824,10.009766,1,-65.9298858642578,8.38825988769531,1,-59.280396,-6.164551,1,-51.254272,-9.765625,1,-44.937134,-11.291504,1
384,-71.54846,19.180298,1,-77.85034,9.094238,1,-66.0020599365234,7.1920919418335,1,-60.012817,-7.6446533,1,-52.139282,-11.077881,1,-45.578003,-11.398315,1
385,-71.48743,18.035889,1,-77.85034,8.010864,1,-65.9769515991211,6.27230739593506,1,-60.577393,-8.7890625,1,-52.947998,-11.199951,1,-46.173096,-11.413574,1
386,-71.45691,17.01355,1,-77.95715,6.9732666,1,-65.9937362670898,6.0369029045105,1,-60.88257,-9.124756,1,-53.482056,-11.138916,1,-46.73767,-11.489868,1
387,-71.68579,16.281128,1,-78.14026,6.2561035,1,-66.143310546875,5.98552227020264,1,-61.294556,-9.262085,1,-54.04663,-11.154175,1,-47.25647,-11.459351,1
388,-71.899414,15.808105,1,-78.323364,5.8135986,1,-66.3251190185547,6.01858043670654,1,-61.782837,-9.32312,1,-54.595947,-11.199951,1,-47.790527,-11.444092,1
389,-72.03674,15.472412,1,-78.50647,5.5999756,1,-66.5142517089844,6.03188896179199,1,-62.286377,-9.399414,1,-55.160522,-11.154175,1,-48.294067,-11.444092,1
390,-72.08252,15.350342,1,-78.6438,5.493164,1,-66.6629333496094,6.17052841186523,1,-62.789917,-9.353638,1,-55.725098,-11.306763,1,-48.858643,-11.444092,1
391,-72.15881,15.319824,1,-78.78113,5.5236816,1,-66.8021240234375,6.23322105407715,1,-63.323975,-9.384155,1,-56.32019,-11.245728,1,-49.560547,-11.428833,1
392,-72.25037,15.365601,1,-78.933716,5.6762695,1,-66.9529876708984,6.35608339309692,1,-63.919067,-9.353638,1,-56.915283,-11.306763,1,-50.04883,-11.428833,1
393,-72.32666,15.487671,1,-79.10156,5.859375,1,-67.1167984008789,6.46377992630005,1,-64.51416,-9.32312,1,-57.510376,-11.413574,1,-50.704956,-11.398315,1
394,-72.47925,15.670776,1,-79.28467,6.1187744,1,-67.2917709350586,6.53150081634522,1,-65.13977,-9.32312,1,-58.135986,-11.398315,1,-51.30005,-11.398315,1
395,-72.47925,15.884399,1,-79.452515,6.362915,1,-67.4548110961914,6.59776878356934,1,-65.719604,-9.307861,1,-58.746338,-11.413574,1,-51.92566,-11.398315,1
396,-72.43347,16.036987,1,-79.58984,6.6375732,1,-67.5898590087891,6.65650320053101,1,-66.3147,-9.292603,1,-59.37195,-11.444092,1,-52.490234,-11.367798,1
397,-72.387695,16.220093,1,-79.696655,6.8969727,1,-67.6979827880859,6.7184910774231,1,-66.90979,-9.262085,1,-59.936523,-11.413574,1,-53.100586,-11.33728,1
398,-72.3114,16.311646,1,-79.711914,7.095337,1,-67.7142639160156,6.85770177841187,1,-67.44385,-9.140015,1,-60.546875,-11.398315,1,-53.741455,-11.291504,1
399,-72.18933,16.433716,1,-79.75769,7.2784424,1,-67.7639999389649,6.88945055007935,1,-67.94739,-9.109497,1,-61.141968,-11.398315,1,-54.367065,-11.33728,1
400,-72.03674,16.418457,1,-79.696655,7.385254,1,-67.7071304321289,6.88394021987915,1,-68.54248,-9.094238,1,-61.7218,-11.33728,1,-54.93164,-11.291504,1
401,-71.8689,16.494751,1,-79.6051,7.522583,1,-67.6216735839844,6.89203977584839,1,-69.000244,-9.048462,1,-62.301636,-11.33728,1,-55.57251,-11.291504,1
402,-71.59424,16.525269,1,-79.574585,7.6293945,1,-67.5909576416016,7.0027871131897,1,-69.51904,-8.880615,1,-62.942505,-11.291504,1,-56.106567,-11.306763,1
403,-71.380615,16.555786,1,-79.452515,7.7209473,1,-67.4821624755859,6.87793731689453,1,-69.97681,-8.926392,1,-63.50708,-11.3220215,1,-56.71692,-11.383057,1
404,-71.15173,16.555786,1,-79.3457,7.8582764,1,-67.3872985839844,6.85999202728272,1,-70.41931,-8.850098,1,-64.01062,-11.306763,1,-57.281494,-11.398315,1
405,-70.999146,16.63208,1,-79.25415,7.9193115,1,-67.3078308105469,6.78547525405884,1,-70.90759,-8.804321,1,-64.68201,-11.199951,1,-57.785034,-11.413574,1
406,-70.77026,16.677856,1,-79.193115,8.102417,1,-67.2724990844727,6.72437620162964,1,-71.36536,-8.743286,1,-65.17029,-11.230469,1,-58.380127,-11.383057,1
407,-70.632935,16.662598,1,-79.13208,8.2092285,1,-67.225700378418,6.71317148208618,1,-71.7926,-8.621216,1,-65.73486,-11.245728,1,-58.99048,-11.444092,1
408,-70.510864,16.647339,1,-79.0863,8.392334,1,-67.2182464599609,6.61775302886963,1,-72.28088,-8.560181,1,-66.28418,-11.169434,1,-59.47876,-11.398315,1
409,-70.43457,16.662598,1,-79.0863,8.4991455,1,-67.2507858276367,6.51909446716309,1,-72.769165,-8.4991455,1,-66.89453,-11.230469,1,-60.012817,-11.444092,1
410,-70.236206,16.616821,1,-79.0863,8.636475,1,-67.2842025756836,6.46611833572388,1,-73.25745,-8.377075,1,-67.42859,-11.108398,1,-60.653687,-11.428833,1
411,-70.19043,16.63208,1,-79.11682,8.69751,1,-67.3475494384766,6.35564613342285,1,-73.73047,-8.31604,1,-67.977905,-11.169434,1,-61.21826,-11.474609,1
412,-70.22095,16.540527,1,-79.14734,8.758545,1,-67.3981399536133,6.31800365447998,1,-74.23401,-8.148193,1,-68.496704,-11.0321045,1,-61.813354,-11.505127,1
413,-70.236206,16.479492,1,-79.208374,8.773804,1,-67.4878234863281,6.19914245605469,1,-74.72229,-8.071899,1,-69.06128,-10.986328,1,-62.423706,-11.550903,1
414,-70.32776,16.494751,1,-79.330444,8.834839,1,-67.6472396850586,6.09570598602295,1,-75.22583,-7.9956055,1,-69.54956,-10.803223,1,-62.973022,-11.520386,1
415,-70.44983,16.448975,1,-79.452515,8.865356,1,-67.7752990722656,6.10083770751953,1,-75.72937,-7.7819824,1,-70.114136,-10.7421875,1,-63.537598,-11.581421,1
416,-70.55664,16.403198,1,-79.54407,8.880615,1,-67.8938446044922,6.00443315505981,1,-76.21765,-7.659912,1,-70.66345,-10.696411,1,-64.10217,-11.581421,1
417,-70.70923,16.403198,1,-79.696655,8.880615,1,-68.0609436035156,5.94630241394043,1,-76.72119,-7.507324,1,-71.19751,-10.665894,1,-64.712524,-11.59668,1
418,-70.84656,16.357422,1,-79.78821,8.972168,1,-68.1892852783203,5.89561748504639,1,-77.22473,-7.30896,1,-71.70105,-10.650635,1,-65.26184,-11.611938,1
419,-71.04492,16.326904,1,-79.940796,8.94165,1,-68.3631591796875,5.78595590591431,1,-77.72827,-7.1868896,1,-72.32666,-10.681152,1,-65.88745,-11.581421,1
420,-71.121216,16.326904,1,-80.03235,8.987427,1,-68.491096496582,5.70115852355957,1,-78.21655,-7.003784,1,-72.87598,-10.665894,1,-66.43677,-11.611938,1
421,-71.31958,16.311646,1,-80.16968,9.002686,1,-68.6787490844727,5.54455471038818,1,-78.72009,-6.9122314,1,-73.37952,-10.665894,1,-66.986084,-11.657715,1
422,-71.517944,16.296387,1,-80.30701,9.048462,1,-68.8540954589844,5.46645545959473,1,-79.193115,-6.744385,1,-73.92883,-10.5896,1,-67.58118,-11.611938,1
423,-71.82312,16.311646,1,-80.49011,8.911133,1,-69.0445022583008,5.30586099624634,1,-79.74243,-6.591797,1,-74.55444,-10.635376,1,-68.14575,-11.688232,1
424,-72.17407,16.342163,1,-80.65796,8.880615,1,-69.2732620239258,5.08737468719482,1,-80.322266,-6.4849854,1,-75.11902,-10.574341,1,-68.66455,-11.627197,1
425,-72.60132,16.403198,1,-80.87158,8.865356,1,-69.4930191040039,5.0537543296814,1,-80.825806,-6.2408447,1,-75.668335,-10.513306,1,-69.30542,-11.611938,1
426,-72.99805,16.38794,1,-81.100464,8.743286,1,-69.74755859375,4.85594797134399,1,-81.39038,-6.1187744,1,-76.26343,-10.421753,1,-69.869995,-11.581421,1
427,-73.410034,16.479492,1,-81.31409,8.636475,1,-69.9766235351563,4.70431613922119,1,-81.9397,-5.92041,1,-76.797485,-10.406494,1,-70.48035,-11.59668,1
428,-73.80676,16.51001,1,-81.54297,8.407593,1,-70.1913223266602,4.51656341552734,1,-82.473755,-5.7373047,1,-77.46887,-10.284424,1,-71.06018,-11.642456,1
429,-74.23401,16.464233,1,-81.726074,8.31604,1,-70.4158935546875,4.30606985092163,1,-82.99255,-5.584717,1,-78.01819,-10.238647,1,-71.68579,-11.59668,1
430,-74.67651,16.448975,1,-81.90918,8.132935,1,-70.6146697998047,4.07902145385742,1,-83.480835,-5.432129,1,-78.6438,-10.1623535,1,-72.23511,-11.611938,1
431,-75.0885,16.357422,1,-82.13806,7.888794,1,-70.8244323730469,3.88858032226562,1,-83.96912,-5.2337646,1,-79.14734,-10.08606,1,-72.8302,-11.642456,1
432,-75.424194,16.26587,1,-82.30591,7.6446533,1,-71.0152740478516,3.57997965812683,1,-84.487915,-5.050659,1,-79.74243,-9.994507,1,-73.410034,-11.566162,1
433,-75.89722,16.143799,1,-82.48901,7.3242188,1,-71.19775390625,3.26127243041992,1,-84.96094,-4.8980713,1,-80.337524,-9.841919,1,-74.035645,-11.489868,1
434,-76.21765,15.930176,1,-82.6416,6.958008,1,-71.3474578857422,2.90308094024658,1,-85.43396,-4.6844482,1,-80.88684,-9.70459,1,-74.63074,-11.489868,1
435,-76.44653,15.731812,1,-82.733154,6.652832,1,-71.4679641723633,2.51816868782043,1,-85.84595,-4.501343,1,-81.43616,-9.567261,1,-75.22583,-11.383057,1
436,-76.538086,15.50293,1,-82.77893,6.3476562,1,-71.5573120117188,2.09615516662598,1,-86.18164,-4.3945312,1,-81.970215,-9.429932,1,-75.8667,-11.260986,1
437,-76.5686,15.350342,1,-82.87048,6.210327,1,-71.6856994628906,1.86284279823303,1,-86.4563,-4.2877197,1,-82.41272,-9.246826,1,-76.553345,-11.276245,1
438,-76.62964,15.213013,1,-82.99255,6.1035156,1,-71.8497314453125,1.64959287643433,1,-86.761475,-4.1503906,1,-82.901,-9.231567,1,-77.1637,-11.291504,1
439,-76.6449,15.213013,1,-83.14514,6.225586,1,-72.0958404541016,1.54445028305054,1,-87.127686,-3.9367676,1,-83.43506,-9.140015,1,-77.697754,-11.245728,1
440,-76.49231,15.274048,1,-83.31299,6.42395,1,-72.3295288085938,1.59035158157349,1,-87.44812,-3.6468506,1,-83.862305,-9.017944,1,-78.26233,-11.260986,1
441,-76.49231,15.411377,1,-83.45032,6.6833496,1,-72.5629119873047,1.63712310791016,1,-87.768555,-3.3416748,1,-84.33533,-8.987427,1,-78.79639,-10.986328,1
442,-76.293945,15.50293,1,-83.52661,7.0495605,1,-72.8068161010742,1.65641641616821,1,-88.08899,-3.0822754,1,-84.77783,-8.834839,1,-79.39148,-11.047363,1
443,-76.15662,15.609741,1,-83.57239,7.30896,1,-72.9607467651367,1.70600461959839,1,-88.33313,-2.7313232,1,-85.28137,-8.773804,1,-79.92554,-11.001587,1
444,-75.97351,15.686035,1,-83.602905,7.583618,1,-73.137939453125,1.71127080917358,1,-88.57727,-2.4871826,1,-85.78491,-8.636475,1,-80.47485,-11.001587,1
445,-75.68359,15.731812,1,-83.55713,7.797241,1,-73.2361221313477,1.67540645599365,1,-88.760376,-2.1972656,1,-86.257935,-8.544922,1,-81.03943,-10.986328,1
446,-75.45471,15.731812,1,-83.52661,8.010864,1,-73.3983840942383,1.57511281967163,1,-89.00452,-1.953125,1,-86.746216,-8.422852,1,-81.588745,-11.0321045,1
447,-75.19531,15.701294,1,-83.40454,8.148193,1,-73.4853897094727,1.3946475982666,1,-89.17236,-1.7547607,1,-87.17346,-8.346558,1,-82.1991,-10.986328,1
448,-74.93591,15.686035,1,-83.32825,8.300781,1,-73.5977020263672,1.27821397781372,1,-89.35547,-1.4953613,1,-87.61597,-8.300781,1,-82.733154,-11.016846,1
449,-74.69177,15.670776,1,-83.28247,8.407593,1,-73.7756271362305,1.08503007888794,1,-89.59961,-1.2817383,1,-88.08899,-8.2092285,1,-83.25195,-11.016846,1
450,-74.46289,15.655518,1,-83.19092,8.544922,1,-73.9206924438477,0.925017833709717,1,-89.79797,-1.0528564,1,-88.531494,-8.071899,1,-83.847046,-10.955811,1
451,-74.26453,15.716553,1,-83.08411,8.666992,1,-74.0457611083984,0.773430824279785,1,-89.96582,-0.8239746,1,-88.95874,-7.9956055,1,-84.39636,-10.940552,1
452,-74.157715,15.686035,1,-83.03833,8.758545,1,-74.2144165039062,0.625983238220215,1,-90.164185,-0.64086914,1,-89.416504,-7.7667236,1,-84.9762,-10.848999,1
453,-74.035645,15.777588,1,-82.977295,8.94165,1,-74.3597717285156,0.590711116790772,1,-90.33203,-0.35095215,1,-89.782715,-7.522583,1,-85.52551,-10.757446,1
454,-73.913574,15.884399,1,-82.94678,9.124756,1,-74.397590637207,0.703864097595215,1,-90.37781,-0.091552734,1,-90.20996,-7.3242188,1,-86.02905,-10.650635,1
455,-73.83728,15.975952,1,-82.977295,9.292603,1,-74.4691162109375,0.830282211303711,1,-90.4541,0.1373291,1,-90.60669,-7.171631,1,-86.57837,-10.5896,1
456,-73.73047,16.098022,1,-82.94678,9.399414,1,-74.5382843017578,0.838034152984619,1,-90.530396,0.33569336,1,-90.927124,-6.9885254,1,-87.127686,-10.498047,1
457,-73.62366,16.220093,1,-82.93152,9.597778,1,-74.6273651123047,0.935154438018799,1,-90.62195,0.5187988,1,-91.35437,-6.744385,1,-87.28027,-10.269165,1
458,-73.59314,16.433716,1,-82.901,9.82666,1,-74.7161026000977,1.05127477645874,1,-90.7135,0.76293945,1,-91.674805,-6.5307617,1,-88.31787,-10.314941,1
459,-73.48633,16.586304,1,-82.87048,10.040283,1,-74.7449493408203,1.20990085601807,1,-90.74402,1.0375977,1,-91.94946,-6.164551,1,-88.74512,-10.147095,1
460,-73.42529,16.87622,1,-82.82471,10.345459,1,-74.6384353637695,1.57135343551636,1,-90.63721,1.373291,1,-92.1936,-5.8135986,1,-89.263916,-9.979248,1
461,-73.31848,17.211914,1,-82.839966,10.604858,1,-74.5922775268555,1.88846111297607,1,-90.59143,1.7242432,1,-92.453,-5.4473877,1,-89.767456,-9.780884,1
462,-73.22693,17.593384,1,-82.74841,10.986328,1,-74.5609817504883,2.21330451965332,1,-90.56091,2.166748,1,-92.62085,-5.050659,1,-90.07263,-9.536743,1
463,-73.21167,17.944336,1,-82.611084,11.352539,1,-74.4087982177734,2.59340381622314,1,-90.408325,2.7160645,1,-92.559814,-4.562378,1,-90.286255,-9.338379,1
464,-73.10486,18.325806,1,-82.611084,11.764526,1,-74.3347854614258,3.07528591156006,1,-90.33203,3.3721924,1,-92.0105,-4.1656494,1,-90.10315,-9.017944,1
465,-72.98279,18.661499,1,-82.55005,12.237549,1,-74.1204452514648,3.69695663452148,1,-90.11841,3.9520264,1,-91.00342,-3.6621094,1,-89.523315,-8.575439,1
466,-72.784424,18.981934,1,-82.473755,12.649536,1,-73.8132858276367,4.3431396484375,1,-89.81323,4.3029785,1,-89.29443,-3.0975342,1,-87.677,-8.102417,1
467,-72.67761,19.378662,1,-82.30591,13.000488,1,-73.3544540405273,5.00852394104004,1,-89.34021,4.333496,1,-87.47864,-2.6397705,1,-84.991455,-7.446289,1
468,-72.44873,19.744873,1,-82.07703,13.2751465,1,-72.8327941894531,5.62372779846191,1,-88.775635,4.272461,1,-85.89172,-2.2888184,1,-82.41272,-6.576538,1
469,-72.23511,20.17212,1,-81.89392,13.565063,1,-72.2166442871094,6.4692702293396,1,-88.04321,4.119873,1,-84.487915,-2.0751953,1,-80.581665,-5.7373047,1
470,-71.94519,20.523071,1,-81.57349,13.778687,1,-71.5682144165039,7.1533989906311,1,-87.21924,3.829956,1,-83.06885,-1.876831,1,-79.23889,-4.9438477,1
471,-71.746826,20.935059,1,-81.329346,13.916016,1,-70.9214630126953,7.94306755065918,1,-86.30371,3.540039,1,-81.54297,-1.7242432,1,-77.65198,-4.3640137,1
472,-71.54846,21.331787,1,-81.05469,14.083862,1,-70.3369598388672,8.68660640716553,1,-85.31189,3.0517578,1,-80.06287,-1.6174316,1,-75.82092,-3.829956,1
473,-71.36536,21.68274,1,-80.74951,14.129639,1,-69.6657485961914,9.53071403503418,1,-84.09119,2.609253,1,-78.430176,-1.663208,1,-73.95935,-3.40271,1
474,-71.22803,22.033691,1,-80.47485,14.221191,1,-69.1020889282227,10.3923397064209,1,-82.733154,2.0141602,1,-76.76697,-1.739502,1,-72.03674,-2.9449463,1
475,-71.07544,22.369385,1,-80.200195,14.266968,1,-68.6057586669922,11.1735925674438,1,-81.25305,1.373291,1,-74.95117,-1.739502,1,-70.0531,-2.5177002,1
476,-70.999146,22.766113,1,-79.97131,14.343262,1,-68.212516784668,11.9493846893311,1,-79.696655,0.8087158,1,-73.150635,-1.7700195,1,-68.222046,-2.166748,1
477,-70.8313,22.93396,1,-79.6814,14.297485,1,-67.8029479980469,12.5938367843628,1,-77.95715,0.22888184,1,-71.258545,-1.7547607,1,-66.26892,-1.7547607,1
478,-70.77026,23.19336,1,-79.422,14.282227,1,-67.4683227539063,13.2288112640381,1,-76.309204,-0.10681152,1,-69.41223,-1.663208,1,-64.46838,-1.1291504,1
479,-70.69397,23.391724,1,-79.17786,14.23645,1,-67.2126922607422,13.322660446167,1,-74.60022,-0.869751,1,-67.70325,-1.6479492,1,-62.77466,-0.7171631,1
480,-70.72449,23.4375,1,-78.96423,14.0686035,1,-66.9775695800781,13.5029201507568,1,-72.906494,-1.3580322,1,-65.94849,-1.7242432,1,-61.11145,-0.48828125,1
481,-70.80078,23.529053,1,-78.78113,13.85498,1,-66.785514831543,13.5305376052856,1,-71.04492,-1.8920898,1,-64.0564,-1.9989014,1,-59.143066,-0.6713867,1
482,-70.892334,23.483276,1,-78.73535,13.61084,1,-66.7387313842773,13.3259963989258,1,-68.96973,-2.5177002,1,-61.935425,-2.4261475,1,-56.97632,-0.9613037,1
483,-70.999146,23.30017,1,-78.61328,13.259888,1,-66.6139831542969,13.1302318572998,1,-66.80298,-2.8686523,1,-59.70764,-2.8839111,1,-54.779053,-1.4343262,1
484,-71.18225,23.040771,1,-78.49121,12.878418,1,-66.4927444458008,12.6867485046387,1,-64.91089,-3.2348633,1,-57.617188,-3.2958984,1,-52.53601,-2.0599365,1
485,-71.31958,22.720337,1,-78.41492,12.435913,1,-66.4171600341797,12.2038955688477,1,-63.323975,-3.4942627,1,-55.81665,-3.7994385,1,-50.430298,-2.8839111,1
486,-71.380615,22.30835,1,-78.308105,12.039185,1,-66.3179473876953,11.5534038543701,1,-62.026978,-3.8604736,1,-54.32129,-4.5928955,1,-48.90442,-3.8909912,1
487,-71.45691,21.850586,1,-78.26233,11.581421,1,-66.2881317138672,10.7948770523071,1,-61.035156,-4.3182373,1,-53.131104,-5.432129,1,-47.454834,-5.1116943,1
488,-71.48743,21.28601,1,-78.201294,10.986328,1,-66.2382202148438,10.0457096099854,1,-60.287476,-4.8065186,1,-52.139282,-6.454468,1,-46.310425,-6.4849854,1
489,-71.502686,20.812988,1,-78.07922,10.528564,1,-66.1496047973633,9.2307825088501,1,-59.677124,-5.4016113,1,-51.376343,-7.675171,1,-45.318604,-8.010864,1
490,-71.5332,20.263672,1,-77.97241,10.055542,1,-66.0870819091797,8.40060806274414,1,-59.23462,-6.0577393,1,-50.872803,-9.0789795,1,-44.75403,-9.719849,1
491,-71.48743,19.714355,1,-77.85034,9.475708,1,-65.9939804077149,7.62458324432373,1,-59.08203,-6.80542,1,-50.88806,-9.811401,1,-44.73877,-10.879517,1
492,-71.42639,19.180298,1,-77.78931,8.911133,1,-65.9505157470703,6.95078945159912,1,-59.4635,-7.675171,1,-51.483154,-11.047363,1,-45.22705,-10.467529,1
493,-71.380615,18.630981,1,-77.85034,8.453369,1,-66.0227737426758,6.42640781402588,1,-59.951782,-8.377075,1,-52.215576,-11.154175,1,-45.959473,-11.001587,1
494,-71.380615,18.066406,1,-78.00293,8.010864,1,-66.1380996704102,6.21482706069946,1,-60.37903,-8.712769,1,-52.871704,-11.123657,1,-46.50879,-10.986328,1
495,-71.395874,17.700195,1,-78.125,7.659912,1,-66.2018203735352,6.30425977706909,1,-60.806274,-8.758545,1,-53.42102,-11.077881,1,-47.058105,-10.726929,1
496,-71.42639,17.486572,1,-78.323364,7.446289,1,-66.3704376220703,6.38444805145264,1,-61.294556,-8.7890625,1,-54.000854,-11.062622,1,-47.60742,-10.940552,1
497,-71.44165,17.318726,1,-78.49121,7.461548,1,-66.5380706787109,6.40214538574219,1,-61.75232,-8.865356,1,-54.519653,-11.077881,1,-48.187256,-11.0321045,1
498,-71.395874,17.211914,1,-78.567505,7.4157715,1,-66.6006317138672,6.52479696273804,1,-62.22534,-8.865356,1,-55.114746,-11.077881,1,-48.721313,-11.0321045,1
499,-71.28906,17.227173,1,-78.67432,7.522583,1,-66.7013320922852,6.71774482727051,1,-62.7594,-8.7890625,1,-55.67932,-11.123657,1,-49.362183,-10.925293,1
500,-71.22803,17.27295,1,-78.65906,7.6293945,1,-66.6855850219727,6.83196592330933,1,-63.293457,-8.804321,1,-56.274414,-11.108398,1,-49.942017,-10.940552,1
501,-71.18225,17.364502,1,-78.72009,7.797241,1,-66.7455444335937,7.01605224609375,1,-63.812256,-8.712769,1,-56.884766,-11.21521,1,-50.476074,-11.001587,1
502,-71.07544,17.486572,1,-78.85742,7.9803467,1,-66.8875961303711,7.12990140914917,1,-64.34631,-8.666992,1,-57.47986,-11.230469,1,-51.101685,-10.986328,1
503,-71.121216,17.623901,1,-78.9032,8.163452,1,-66.9399948120117,7.22439908981323,1,-64.834595,-8.636475,1,-58.09021,-11.230469,1,-51.696777,-10.986328,1
504,-71.06018,17.745972,1,-78.91846,8.392334,1,-66.9600601196289,7.39401912689209,1,-65.39917,-8.529663,1,-58.624268,-11.230469,1,-52.27661,-10.71167,1
505,-70.999146,17.8833,1,-78.91846,8.483887,1,-66.9628677368164,7.45243120193481,1,-65.93323,-8.514404,1,-59.2041,-11.169434,1,-52.841187,-10.71167,1
506,-70.95337,17.929077,1,-78.948975,8.651733,1,-67.0053253173828,7.49020004272461,1,-66.42151,-8.4991455,1,-59.783936,-11.21521,1,-53.43628,-10.71167,1
507,-70.877075,18.035889,1,-78.99475,8.804321,1,-67.0608749389649,7.54628467559814,1,-66.95557,-8.453369,1,-60.34851,-11.21521,1,-54.04663,-10.696411,1
508,-70.755005,18.157959,1,-79.01001,8.926392,1,-67.0814971923828,7.61846733093262,1,-67.45911,-8.377075,1,-60.928345,-11.138916,1,-54.595947,-10.726929,1
509,-70.70923,18.081665,1,-79.01001,8.956909,1,-67.0770797729492,7.68995094299316,1,-67.96265,-8.285522,1,-61.47766,-11.123657,1,-55.2063,-10.665894,1
510,-70.64819,18.051147,1,-79.055786,9.124756,1,-67.143684387207,7.67498588562012,1,-68.46619,-8.270264,1,-62.088013,-11.077881,1,-55.770874,-10.665894,1
511,-70.58716,18.127441,1,-79.0863,9.124756,1,-67.1841125488281,7.59580993652344,1,-69.000244,-8.300781,1,-62.652588,-11.108398,1,-56.32019,-10.665894,1
512,-70.66345,18.035889,1,-79.10156,9.140015,1,-67.2038421630859,7.57660436630249,1,-69.51904,-8.255005,1,-63.26294,-11.184692,1,-56.900024,-10.665894,1
513,-70.55664,17.944336,1,-79.17786,9.231567,1,-67.3060531616211,7.48218154907227,1,-70.02258,-8.285522,1,-63.827515,-11.108398,1,-57.4646,-10.726929,1
514,-70.55664,17.929077,1,-79.22363,9.20105,1,-67.3466873168945,7.48694753646851,1,-70.52612,-8.19397,1,-64.36157,-11.123657,1,-58.044434,-10.681152,1
515,-70.52612,17.8833,1,-79.26941,9.246826,1,-67.4200592041016,7.35130071640015,1,-71.014404,-8.239746,1,-64.971924,-11.184692,1,-58.639526,-10.681152,1
516,-70.48035,17.837524,1,-79.315186,9.307861,1,-67.4793472290039,7.32973575592041,1,-71.5332,-8.148193,1,-65.5365,-11.123657,1,-59.249878,-10.71167,1
517,-70.43457,17.77649,1,-79.37622,9.277344,1,-67.552131652832,7.23016548156738,1,-72.021484,-8.132935,1,-66.11633,-11.21521,1,-59.829712,-10.681152,1
518,-70.388794,17.715454,1,-79.437256,9.3688965,1,-67.6441497802734,7.15019989013672,1,-72.525024,-8.087158,1,-66.69617,-11.062622,1,-60.37903,-10.726929,1
519,-70.41931,17.63916,1,-79.49829,9.414673,1,-67.7191619873047,7.12292051315308,1,-73.04382,-7.965088,1,-67.24548,-11.09314,1,-60.97412,-11.016846,1
520,-70.40405,17.51709,1,-79.51355,9.414673,1,-67.7544555664062,7.02226066589356,1,-73.516846,-7.9040527,1,-67.81006,-11.108398,1,-61.569214,-11.001587,1
521,-70.373535,17.440796,1,-79.58984,9.384155,1,-67.8419036865234,6.93755912780762,1,-74.00513,-7.827759,1,-68.32886,-11.138916,1,-62.149048,-10.864258,1
522,-70.44983,17.37976,1,-79.711914,9.414673,1,-67.9814758300781,6.88546514511108,1,-74.47815,-7.736206,1,-68.862915,-11.062622,1,-62.683105,-10.864258,1
523,-70.60242,17.333984,1,-79.75769,9.44519,1,-68.0316162109375,6.89582443237305,1,-74.93591,-7.537842,1,-69.39697,-11.09314,1,-63.23242,-11.169434,1
524,-70.60242,17.303467,1,-79.84924,9.536743,1,-68.1455841064453,6.88636589050293,1,-75.408936,-7.369995,1,-69.94629,-10.467529,1,-63.827515,-11.09314,1
525,-70.70923,17.288208,1,-79.97131,9.643555,1,-68.3011856079102,6.8492488861084,1,-75.89722,-7.232666,1,-70.48035,-10.437012,1,-64.42261,-11.184692,1
526,-70.81604,17.364502,1,-80.1239,9.796143,1,-68.4892654418945,6.85757064819336,1,-76.40076,-7.0495605,1,-71.06018,-10.421753,1,-65.00244,-11.199951,1
527,-70.95337,17.456055,1,-80.322266,9.963989,1,-68.7137298583984,6.92394208908081,1,-76.9043,-6.8206787,1,-71.6095,-10.360718,1,-65.61279,-11.138916,1
528,-71.121216,17.562866,1,-80.50537,10.147095,1,-68.9452362060547,6.9278736114502,1,-77.45361,-6.6223145,1,-72.18933,-10.3302,1,-66.17737,-11.184692,1
529,-71.28906,17.730713,1,-80.703735,10.284424,1,-69.1625289916992,6.99802255630493,1,-77.941895,-6.378174,1,-72.69287,-10.253906,1,-66.7572,-11.245728,1
530,-71.45691,17.77649,1,-80.9021,10.437012,1,-69.3930740356445,7.03959035873413,1,-78.3844,-6.1950684,1,-73.24219,-10.269165,1,-67.337036,-11.245728,1
531,-71.70105,17.89856,1,-81.085205,10.513306,1,-69.6203536987305,6.96969604492188,1,-78.88794,-6.072998,1,-73.76099,-10.177612,1,-67.90161,-11.245728,1
532,-71.99097,17.974854,1,-81.25305,10.574341,1,-69.8273544311523,6.90645503997803,1,-79.452515,-5.874634,1,-74.35608,-10.177612,1,-68.46619,-11.230469,1
533,-72.23511,17.990112,1,-81.4209,10.559082,1,-70.0025024414063,6.86851263046265,1,-79.89502,-5.706787,1,-74.95117,-10.055542,1,-69.04602,-11.184692,1
534,-72.44873,18.02063,1,-81.55823,10.467529,1,-70.1520538330078,6.7393798828125,1,-80.42908,-5.5236816,1,-75.45471,-10.009766,1,-69.64111,-11.138916,1
535,-72.784424,18.051147,1,-81.710815,10.375977,1,-70.3239593505859,6.58921527862549,1,-80.91736,-5.4016113,1,-76.034546,-9.918213,1,-70.20569,-11.0321045,1
536,-73.028564,18.02063,1,-81.8634,10.192871,1,-70.4679260253906,6.43214511871338,1,-81.466675,-5.1879883,1,-76.675415,-9.887695,1,-70.877075,-11.199951,1
537,-73.33374,17.974854,1,-82.00073,9.979248,1,-70.6261215209961,6.15585803985596,1,-82.01599,-5.0811768,1,-77.20947,-9.857178,1,-71.42639,-11.138916,1
538,-73.62366,17.89856,1,-82.15332,9.857178,1,-70.7591094970703,6.09262752532959,1,-82.458496,-4.8217773,1,-77.804565,-9.765625,1,-72.006226,-11.21521,1
539,-74.035645,17.852783,1,-82.32117,9.658813,1,-70.9625549316406,5.78815412521362,1,-82.99255,-4.760742,1,-78.323364,-9.70459,1,-72.55554,-11.21521,1
540,-74.37134,17.77649,1,-82.53479,9.490967,1,-71.1838836669922,5.59778022766113,1,-83.480835,-4.638672,1,-78.9032,-9.658813,1,-73.16589,-11.276245,1
541,-74.783325,17.730713,1,-82.77893,9.3688965,1,-71.4435272216797,5.43078660964966,1,-83.99963,-4.486084,1,-79.52881,-9.597778,1,-73.74573,-11.169434,1
542,-75.149536,17.684937,1,-82.99255,9.185791,1,-71.6673278808594,5.2185206413269,1,-84.503174,-4.333496,1,-80.03235,-9.552002,1,-74.26453,-11.09314,1
543,-75.56152,17.63916,1,-83.236694,9.048462,1,-71.9095153808594,5.08675479888916,1,-84.93042,-4.211426,1,-80.67322,-9.506226,1,-74.93591,-11.047363,1
544,-75.89722,17.578125,1,-83.55713,8.880615,1,-72.1891708374023,5.03748226165772,1,-85.372925,-4.0283203,1,-81.25305,-9.414673,1,-75.51575,-11.062622,1
545,-76.431274,17.471313,1,-83.77075,8.651733,1,-72.431884765625,4.72360897064209,1,-85.84595,-3.9978027,1,-81.78711,-9.384155,1,-76.1261,-10.848999,1
546,-76.66016,17.288208,1,-83.9386,8.529663,1,-72.6761474609375,4.3875207901001,1,-86.34949,-3.9215088,1,-82.36694,-9.292603,1,-76.70593,-10.879517,1
547,-76.88904,17.150879,1,-84.18274,8.239746,1,-72.8982086181641,4.15815353393555,1,-86.761475,-3.829956,1,-82.88574,-9.231567,1,-77.25525,-10.83374,1
548,-77.041626,16.983032,1,-84.350586,7.965088,1,-73.0824356079102,3.83849287033081,1,-87.1582,-3.768921,1,-83.49609,-9.216309,1,-77.89612,-10.848999,1
549,-77.28577,16.830444,1,-84.503174,7.7819824,1,-73.2668914794922,3.56939220428467,1,-87.57019,-3.6010742,1,-83.99963,-9.140015,1,-78.445435,-10.818481,1
550,-77.36206,16.738892,1,-84.625244,7.7209473,1,-73.451416015625,3.34538197517395,1,-87.95166,-3.4179688,1,-84.51843,-9.0789795,1,-79.071045,-10.818481,1
551,-77.423096,16.799927,1,-84.747314,7.873535,1,-73.6616363525391,3.27921891212463,1,-88.30261,-3.1738281,1,-85.02197,-9.033203,1,-79.65088,-10.787964,1
552,-77.423096,16.937256,1,-84.8999,8.056641,1,-73.8712997436523,3.32697224617004,1,-88.62305,-2.8686523,1,-85.54077,-8.865356,1,-80.26123,-10.787964,1
553,-77.27051,17.105103,1,-84.96094,8.346558,1,-74.0562591552734,3.33776807785034,1,-88.92822,-2.5634766,1,-86.05957,-8.69751,1,-80.825806,-10.7421875,1
554,-77.14844,17.227173,1,-84.94568,8.69751,1,-74.1499481201172,3.45801115036011,1,-89.157104,-2.090454,1,-86.48682,-8.529663,1,-81.35986,-10.696411,1
555,-76.88904,17.456055,1,-84.8999,9.063721,1,-74.2647933959961,3.50543832778931,1,-89.38599,-1.7242432,1,-86.91406,-8.346558,1,-82.03125,-10.665894,1
556,-76.59912,17.669678,1,-84.79309,9.475708,1,-74.3147888183594,3.62719488143921,1,-89.523315,-1.3427734,1,-87.265015,-8.148193,1,-82.56531,-10.620117,1
557,-76.26343,17.807007,1,-84.65576,9.82666,1,-74.3458557128906,3.6861515045166,1,-89.660645,-0.9460449,1,-87.70752,-7.9193115,1,-83.12988,-10.528564,1
558,-75.88196,18.005371,1,-84.51843,10.20813,1,-74.2900772094727,3.93272161483765,1,-89.6759,-0.45776367,1,-88.134766,-7.7056885,1,-83.69446,-10.498047,1
559,-75.46997,18.081665,1,-84.30481,10.498047,1,-74.2453079223633,3.95538806915283,1,-89.73694,-0.045776367,1,-88.43994,-7.446289,1,-84.18274,-10.4522705,1
560,-75.11902,18.218994,1,-84.06067,10.757446,1,-74.1303482055664,4.02033472061157,1,-89.72168,0.4272461,1,-88.80615,-7.095337,1,-84.609985,-10.345459,1
561,-74.798584,18.356323,1,-83.847046,10.986328,1,-73.916374206543,4.24971961975098,1,-89.58435,1.0070801,1,-89.00452,-6.652832,1,-85.09827,-10.131836,1
562,-74.523926,18.600464,1,-83.58765,11.230469,1,-73.4773330688477,4.76659822463989,1,-89.20288,1.8157959,1,-89.06555,-6.072998,1,-85.40344,-10.040283,1
563,-74.279785,18.844604,1,-83.31299,11.581421,1,-73.1528015136719,5.19623422622681,1,-88.98926,2.9144287,1,-89.05029,-5.218506,1,-85.40344,-9.735107,1
564,-74.23401,19.195557,1,-83.14514,12.084961,1,-72.8579864501953,5.90640783309937,1,-88.653564,3.3569336,1,-86.59363,-3.7841797,1,-82.839966,-8.331299,1
565,-74.18823,19.577026,1,-83.02307,12.130737,1,-72.4216003417969,6.50856304168701,1,-88.012695,2.9144287,1,-84.21326,-3.0517578,1,-80.42908,-6.8359375,1
566,-74.18823,19.927979,1,-82.91626,11.917114,1,-71.9006423950195,7.15726470947266,1,-87.11243,2.1972656,1,-82.44324,-3.2348633,1,-78.21655,-6.0577393,1
567,-74.279785,20.202637,1,-82.93152,11.84082,1,-71.5481338500977,8.04364967346191,1,-86.10535,1.4038086,1,-80.55115,-3.2653809,1,-76.15662,-5.203247,1
568,-74.47815,20.401001,1,-82.93152,11.71875,1,-71.2892532348633,8.81054306030273,1,-85.03723,0.62561035,1,-78.933716,-3.1585693,1,-74.523926,-4.486084,1
569,-74.72229,20.477295,1,-83.03833,11.627197,1,-71.2619400024414,9.32142448425293,1,-84.121704,-0.19836426,1,-77.59094,-3.250122,1,-73.07434,-4.0130615,1
570,-75.01221,20.599365,1,-83.19092,11.474609,1,-71.3099136352539,9.78885841369629,1,-83.1604,-0.9613037,1,-76.44653,-3.40271,1,-71.82312,-3.829956,1
571,-75.3479,20.690918,1,-83.40454,11.199951,1,-71.4520568847656,10.1331806182861,1,-82.24487,-1.6784668,1,-75.45471,-3.753662,1,-70.64819,-3.829956,1
572,-75.71411,20.584106,1,-83.57239,11.09314,1,-71.6047592163086,10.2122535705566,1,-81.43616,-2.4108887,1,-74.58496,-4.1046143,1,-69.80896,-3.9978027,1
573,-76.01929,20.492554,1,-83.75549,10.818481,1,-71.7713165283203,10.2024612426758,1,-80.68848,-3.0822754,1,-73.791504,-4.5318604,1,-68.95447,-4.1503906,1
574,-76.32446,20.339966,1,-83.9386,10.574341,1,-71.9454498291016,10.1687698364258,1,-79.91028,-3.7078857,1,-72.99805,-4.9591064,1,-68.115234,-4.3182373,1
575,-76.52283,20.248413,1,-84.04541,10.269165,1,-72.0454711914063,10.2329683303833,1,-79.17786,-4.0893555,1,-72.265625,-5.355835,1,-67.26074,-4.486084,1
576,-76.66016,20.17212,1,-84.06067,10.040283,1,-72.0611572265625,10.1478404998779,1,-78.46069,-4.5166016,1,-71.380615,-5.554199,1,-66.45203,-4.6081543,1
577,-76.84326,20.111084,1,-84.13696,9.872437,1,-72.1409683227539,10.1822919845581,1,-77.697754,-4.8217773,1,-70.69397,-5.722046,1,-65.719604,-4.623413,1
578,-76.95007,20.03479,1,-84.13696,9.811401,1,-72.1431198120117,10.1956853866577,1,-76.99585,-5.050659,1,-69.97681,-5.722046,1,-65.04822,-4.4555664,1
579,-77.01111,20.080566,1,-84.106445,9.643555,1,-72.1205673217773,10.2255706787109,1,-76.18713,-5.2490234,1,-69.19861,-5.5999756,1,-64.34631,-4.2877197,1
580,-77.02637,20.080566,1,-84.04541,9.658813,1,-72.0617370605469,10.2845945358276,1,-75.36316,-5.3710938,1,-68.359375,-5.584717,1,-63.52234,-4.119873,1
581,-77.056885,20.126343,1,-83.90808,9.597778,1,-71.9370269775391,10.4307041168213,1,-74.44763,-5.3710938,1,-67.42859,-5.4779053,1,-62.591553,-3.9367676,1
582,-77.02637,20.217896,1,-83.77075,9.506226,1,-71.8123092651367,10.5040340423584,1,-73.54736,-5.4016113,1,-66.4978,-5.3100586,1,-61.59973,-3.753662,1
583,-76.99585,20.27893,1,-83.63342,9.475708,1,-71.6866226196289,10.6044578552246,1,-72.5708,-5.3710938,1,-65.5365,-5.1116943,1,-60.699463,-3.463745,1
584,-77.01111,20.27893,1,-83.51135,9.384155,1,-71.5776519775391,10.6438007354736,1,-71.68579,-5.355835,1,-64.60571,-5.0354004,1,-59.768677,-3.326416,1
585,-77.056885,20.29419,1,-83.4198,9.338379,1,-71.4850921630859,10.5884323120117,1,-70.58716,-5.3863525,1,-63.430786,-4.928589,1,-58.57849,-3.2348633,1
586,-77.11792,20.248413,1,-83.38928,9.216309,1,-71.4589080810547,10.5071182250977,1,-69.488525,-5.3710938,1,-62.194824,-4.9591064,1,-57.34253,-3.3569336,1
587,-77.178955,20.233154,1,-83.38928,9.231567,1,-71.44580078125,10.3947944641113,1,-68.46619,-5.3253174,1,-61.00464,-5.1116943,1,-55.984497,-3.616333,1
588,-77.194214,20.202637,1,-83.38928,9.216309,1,-71.4252700805664,10.1450252532959,1,-67.52014,-5.3710938,1,-59.84497,-5.355835,1,-54.733276,-4.135132,1
589,-77.27051,20.080566,1,-83.343506,9.170532,1,-71.3679656982422,9.93631076812744,1,-66.711426,-5.3710938,1,-58.746338,-5.8288574,1,-53.54309,-4.79126,1
590,-77.301025,19.958496,1,-83.37402,9.094238,1,-71.3821716308594,9.53639221191406,1,-65.979004,-5.5236816,1,-57.891846,-6.2713623,1,-52.444458,-5.493164,1
591,-77.36206,19.760132,1,-83.43506,8.987427,1,-71.4358215332031,9.12312507629395,1,-65.42969,-5.706787,1,-57.174683,-6.8969727,1,-51.101685,-6.0272217,1
592,-77.438354,19.592285,1,-83.480835,8.926392,1,-71.4826354980469,8.71854782104492,1,-65.200806,-5.996704,1,-56.793213,-7.675171,1,-50.979614,-7.4005127,1
593,-77.51465,19.424438,1,-83.57239,8.804321,1,-71.5873489379883,8.20541477203369,1,-64.971924,-6.362915,1,-56.655884,-8.529663,1,-50.750732,-8.758545,1
594,-77.71301,19.16504,1,-83.70972,8.682251,1,-71.747673034668,7.72858190536499,1,-64.92615,-6.744385,1,-56.56433,-9.567261,1,-50.567627,-10.116577,1
595,-77.83508,18.829346,1,-83.80127,8.422852,1,-71.858268737793,7.25460004806519,1,-65.00244,-7.2021484,1,-56.777954,-10.1623535,1,-50.582886,-11.276245,1
596,-78.01819,18.539429,1,-83.984375,8.148193,1,-72.06201171875,6.78541135787964,1,-65.24658,-7.6904297,1,-57.2052,-10.696411,1,-51.05591,-11.352539,1
597,-78.21655,18.127441,1,-84.15222,7.797241,1,-72.2453002929688,6.30555391311646,1,-65.61279,-8.255005,1,-57.83081,-11.352539,1,-51.620483,-11.33728,1
598,-78.430176,17.791748,1,-84.365845,7.4157715,1,-72.4563369750977,5.94486999511719,1,-66.14685,-8.758545,1,-58.502197,-11.398315,1,-52.215576,-11.33728,1
599,-78.689575,17.37976,1,-84.67102,7.003784,1,-72.7297668457031,5.81791400909424,1,-66.589355,-8.956909,1,-59.127808,-11.230469,1,-52.764893,-11.3220215,1
600,-79.04053,17.059326,1,-84.991455,6.652832,1,-73.0220184326172,5.79700326919556,1,-67.0166,-9.033203,1,-59.661865,-11.138916,1,-53.344727,-11.291504,1
601,-79.330444,16.860962,1,-85.31189,6.454468,1,-73.3286666870117,5.82011938095093,1,-67.5354,-9.094238,1,-60.22644,-11.123657,1,-53.970337,-11.260986,1
602,-79.63562,16.662598,1,-85.632324,6.286621,1,-73.6392669677734,5.87837362289429,1,-68.03894,-9.109497,1,-60.74524,-11.09314,1,-54.504395,-11.306763,1
603,-79.80347,16.555786,1,-85.876465,6.2561035,1,-73.8799057006836,5.96859073638916,1,-68.52722,-9.109497,1,-61.37085,-11.077881,1,-55.08423,-11.306763,1
604,-79.92554,16.571045,1,-86.10535,6.2713623,1,-74.1073226928711,6.05355310440064,1,-69.0918,-9.140015,1,-61.935425,-11.077881,1,-55.664062,-11.260986,1
605,-79.97131,16.601562,1,-86.242676,6.378174,1,-74.2437973022461,6.21418619155884,1,-69.64111,-9.109497,1,-62.5,-11.123657,1,-56.228638,-11.33728,1
606,-79.97131,16.647339,1,-86.34949,6.5307617,1,-74.3502731323242,6.39306735992432,1,-70.15991,-9.048462,1,-63.12561,-11.138916,1,-56.793213,-11.291504,1
607,-79.8645,16.784668,1,-86.41052,6.713867,1,-74.4114227294922,6.56672620773315,1,-70.72449,-9.002686,1,-63.75122,-11.154175,1,-57.403564,-11.21521,1
608,-79.6814,16.937256,1,-86.41052,6.9732666,1,-74.4126510620117,6.74744367599487,1,-71.2738,-8.94165,1,-64.30054,-11.169434,1,-57.96814,-11.154175,1
609,-79.46777,17.089844,1,-86.39526,7.1105957,1,-74.3974685668945,6.88046741485596,1,-71.73157,-8.895874,1,-64.92615,-11.21521,1,-58.517456,-11.21521,1
610,-79.23889,17.13562,1,-86.364746,7.3242188,1,-74.370246887207,6.961021900177,1,-72.23511,-8.895874,1,-65.475464,-11.154175,1,-59.08203,-11.245728,1
611,-78.97949,17.181396,1,-86.30371,7.446289,1,-74.3111038208008,7.02515554428101,1,-72.72339,-8.895874,1,-66.085815,-11.230469,1,-59.70764,-11.21521,1
612,-78.75061,17.196655,1,-86.257935,7.522583,1,-74.2665023803711,7.06931829452515,1,-73.21167,-8.895874,1,-66.604614,-11.245728,1,-60.272217,-11.230469,1
613,-78.59802,17.089844,1,-86.21216,7.6446533,1,-74.2226715087891,7.14232921600342,1,-73.73047,-8.850098,1,-67.15393,-11.276245,1,-60.791016,-11.184692,1
614,-78.36914,17.089844,1,-86.16638,7.6904297,1,-74.1778869628906,7.16506242752075,1,-74.23401,-8.834839,1,-67.7948,-11.230469,1,-61.416626,-11.245728,1
615,-78.21655,17.089844,1,-86.02905,7.797241,1,-74.0440979003906,7.19655752182007,1,-74.72229,-8.7890625,1,-68.34412,-11.21521,1,-61.9812,-11.230469,1
616,-77.941895,17.105103,1,-85.84595,7.8125,1,-73.8609619140625,7.21233940124512,1,-75.24109,-8.728027,1,-68.93921,-11.276245,1,-62.5,-11.169434,1
617,-77.74353,17.044067,1,-85.72388,7.9345703,1,-73.7483978271484,7.16790246963501,1,-75.69885,-8.712769,1,-69.488525,-11.260986,1,-63.12561,-11.184692,1
618,-77.545166,16.921997,1,-85.52551,7.888794,1,-73.5489349365234,7.13934803009033,1,-76.1261,-8.651733,1,-70.03784,-11.169434,1,-63.674927,-11.154175,1
619,-77.25525,16.87622,1,-85.40344,7.9193115,1,-73.4315414428711,7.09856224060059,1,-76.6449,-8.575439,1,-70.58716,-11.276245,1,-64.25476,-11.21521,1
620,-77.01111,16.662598,1,-85.22034,7.9345703,1,-73.2575759887695,6.98995590209961,1,-77.0874,-8.544922,1,-71.21277,-11.184692,1,-64.84985,-11.184692,1
621,-76.66016,16.525269,1,-85.06775,7.8582764,1,-73.1119995117188,6.8286600112915,1,-77.545166,-8.544922,1,-71.73157,-11.230469,1,-65.36865,-11.154175,1
622,-76.32446,16.37268,1,-84.8999,7.873535,1,-72.9589080810547,6.6849627494812,1,-78.048706,-8.483887,1,-72.25037,-11.21521,1,-65.87219,-11.154175,1
623,-76.06506,16.159058,1,-84.68628,7.8582764,1,-72.7683029174805,6.45761108398438,1,-78.49121,-8.483887,1,-72.86072,-11.199951,1,-66.51306,-11.108398,1
624,-75.77515,16.052246,1,-84.503174,7.7667236,1,-72.5841979980469,6.37457942962647,1,-78.88794,-8.331299,1,-73.33374,-11.108398,1,-67.06238,-11.138916,1
625,-75.45471,15.884399,1,-84.28955,7.751465,1,-72.4087753295899,6.06410312652588,1,-79.36096,-8.346558,1,-73.913574,-11.016846,1,-67.67273,-11.047363,1
626,-75.19531,15.792847,1,-84.09119,7.8125,1,-72.2421875,5.91480731964111,1,-79.78821,-8.19397,1,-74.417114,-10.894775,1,-68.222046,-11.077881,1
627,-74.905396,15.686035,1,-83.95386,7.8582764,1,-72.1507949829102,5.69313859939575,1,-80.30701,-8.071899,1,-74.98169,-10.925293,1,-68.71033,-11.077881,1
628,-74.67651,15.563965,1,-83.78601,7.9193115,1,-72.0384368896484,5.47094488143921,1,-80.74951,-7.949829,1,-75.51575,-10.83374,1,-69.30542,-11.062622,1
629,-74.44763,15.472412,1,-83.64868,7.873535,1,-71.9290924072266,5.29453849792481,1,-81.19202,-7.751465,1,-75.95825,-10.696411,1,-69.82422,-11.062622,1
630,-74.26453,15.441895,1,-83.465576,7.873535,1,-71.8109817504883,5.01512241363525,1,-81.63452,-7.6141357,1,-76.44653,-10.681152,1,-70.388794,-11.154175,1
631,-74.06616,15.457153,1,-83.29773,8.041382,1,-71.7090377807617,4.92653799057007,1,-82.00073,-7.3242188,1,-76.919556,-10.559082,1,-70.92285,-11.138916,1
632,-73.95935,15.533447,1,-83.17566,8.178711,1,-71.6497421264648,4.83906221389771,1,-82.458496,-6.958008,1,-77.423096,-10.467529,1,-71.45691,-11.09314,1
633,-73.83728,15.655518,1,-83.05359,8.392334,1,-71.6523590087891,4.64908170700073,1,-82.88574,-6.744385,1,-77.95715,-10.375977,1,-72.06726,-11.154175,1
634,-73.73047,15.777588,1,-83.00781,8.483887,1,-71.6671676635742,4.56089544296265,1,-83.343506,-6.378174,1,-78.50647,-10.284424,1,-72.647095,-11.154175,1
635,-73.776245,15.945435,1,-82.99255,8.69751,1,-71.7781982421875,4.42688989639282,1,-83.77075,-6.164551,1,-79.04053,-10.192871,1,-73.22693,-11.184692,1
636,-73.68469,16.036987,1,-82.962036,8.880615,1,-71.8512191772461,4.34743785858154,1,-84.198,-5.8288574,1,-79.574585,-10.131836,1,-73.80676,-11.199951,1
637,-73.654175,16.082764,1,-82.962036,8.895874,1,-71.9122772216797,4.21582698822022,1,-84.59473,-5.5389404,1,-80.078125,-10.08606,1,-74.295044,-11.245728,1
638,-73.6084,16.174316,1,-82.94678,8.956909,1,-71.9947814941406,4.05246114730835,1,-84.991455,-5.279541,1,-80.596924,-10.101318,1,-74.89014,-11.276245,1
639,-73.66943,16.25061,1,-82.962036,9.063721,1,-72.1579284667969,3.84153842926025,1,-85.47974,-5.0201416,1,-81.1615,-10.009766,1,-75.45471,-11.3220215,1
640,-73.74573,16.296387,1,-83.06885,9.063721,1,-72.3412399291992,3.68612813949585,1,-85.89172,-4.8217773,1,-81.710815,-10.009766,1,-75.97351,-11.352539,1
641,-73.88306,16.357422,1,-83.1604,9.048462,1,-72.5269317626953,3.48705005645752,1,-86.31897,-4.623413,1,-82.32117,-9.918213,1,-76.66016,-11.306763,1
642,-74.035645,16.357422,1,-83.19092,8.94165,1,-72.694206237793,3.12623143196106,1,-86.79199,-4.4403076,1,-82.88574,-9.796143,1,-77.20947,-11.3220215,1
643,-74.26453,16.403198,1,-83.19092,8.865356,1,-72.7508392333984,2.94886469841003,1,-87.09717,-4.135132,1,-83.358765,-9.674072,1,-77.77405,-11.260986,1
644,-74.417114,16.448975,1,-83.26721,8.728027,1,-72.8276977539062,2.81055092811584,1,-87.43286,-3.7231445,1,-83.862305,-9.460449,1,-78.33862,-11.138916,1
645,-74.50867,16.448975,1,-83.28247,8.605957,1,-72.8655471801758,2.64880180358887,1,-87.677,-3.40271,1,-84.30481,-9.262085,1,-78.9032,-11.047363,1
646,-74.5697,16.38794,1,-83.236694,8.544922,1,-72.9316177368164,2.3963041305542,1,-87.9364,-3.1585693,1,-84.80835,-9.109497,1,-79.437256,-11.0321045,1
647,-74.661255,16.311646,1,-83.1604,8.407593,1,-73.0242691040039,1.98427820205688,1,-88.1958,-3.0975342,1,-85.31189,-9.002686,1,-80.078125,-10.986328,1
648,-74.63074,16.220093,1,-83.099365,8.270264,1,-73.065803527832,1.68789720535278,1,-88.394165,-2.89917,1,-85.78491,-8.911133,1,-80.61218,-10.940552,1
649,-74.50867,16.113281,1,-83.00781,8.148193,1,-73.154296875,1.29923820495605,1,-88.638306,-2.7313232,1,-86.257935,-8.758545,1,-81.28357,-10.925293,1
